; generated by PrusaSlicer 2.4.0+win64 on 2021-12-29 at 13:58:20 UTC

; 

; external perimeters extrusion width = 0.45mm
; perimeters extrusion width = 0.45mm
; infill extrusion width = 0.45mm
; solid infill extrusion width = 0.45mm
; top infill extrusion width = 0.40mm
; support material extrusion width = 0.38mm
; first layer extrusion width = 0.42mm

M107
M190 S60 ; set bed temperature and wait for it to be reached
M104 S215 ; set temperature
;TYPE:Custom
M109 S215 ; set temperature and wait for it to be reached
G21 ; set units to millimeters
G90 ; use absolute coordinates
M83 ; use relative distances for extrusion
; Filament gcode
M107
;LAYER_CHANGE
;Z:0.4
;HEIGHT:0.4

G1 E-5 F3600
G1 Z.4 F9000
G1 X53.939 Y102.691
G1 E5 F2400
M204 P500
;TYPE:Skirt/Brim
;WIDTH:0.42
G1 F1200
G1 X108.37 Y80.522 E3.26604
G1 X109.072 Y80.323 E.04055
G1 X113.777 Y79.527 E.26521
G1 X115.661 Y79.756 E.10546
G1 X168.825 Y102.841 E3.22088
G1 X169.916 Y103.604 E.07397
G1 X171.995 Y105.824 E.169
G1 X194.524 Y135.402 E2.06618
G1 X195.163 Y136.892 E.09008
G1 X195.065 Y138.378 E.08276
G1 X193.758 Y142.749 E.25354
G1 X192.93 Y144.142 E.09008
G1 X191.543 Y144.981 E.09008
G1 X190.629 Y145.127 E.05139
G1 X188.153 Y145.175 E.13763
G1 X38.43 Y145.227 E8.32025
G1 X29.672 Y144.808 E.48728
G1 X28.122 Y144.331 E.09008
G1 X26.981 Y143.181 E.09008
G1 X26.516 Y141.628 E.09008
G1 X27.129 Y139.548 E.12049
G1 X52.478 Y103.849 E2.4331
G1 X53.892 Y102.728 E.10024
G1 E-3.5 F3600
;WIPE_START
G1 F7200
G1 X56.67 Y101.596 E-1.425
;WIPE_END
G1 E-.075 F3600
G1 X59.059 Y105.984 F9000
G1 E5 F2400
;TYPE:Support material
G1 F1200
G1 X60.653 Y106.069 E.08871
G1 X61.076 Y106.365 E.02872
G1 X63.874 Y107.331 E.16449
G1 X63.159 Y109.403 E.12178
G1 X62.422 Y109.363 E.04104
G1 X62.114 Y109.717 E.02604
G1 X62.476 Y111.586 E.10576
G1 X62.681 Y113.018 E.08038
G1 X62.786 Y114.414 E.07781
G1 X62.794 Y115.781 E.07601
G1 X62.702 Y117.121 E.07461
G1 X62.512 Y118.433 E.07365
G1 X62.224 Y119.717 E.07316
G1 X61.836 Y120.975 E.07315
G1 X61.348 Y122.207 E.07362
G1 X60.76 Y123.413 E.07456
G1 X60.071 Y124.594 E.07597
G1 X59.281 Y125.75 E.07782
G1 X58.385 Y126.883 E.08029
G1 X57.363 Y128.018 E.08488
G1 X56.275 Y129.085 E.08466
G1 X55.131 Y130.088 E.08456
G1 X54.539 Y130.567 E.04234
G1 X53.317 Y131.485 E.08489
G1 X52.69 Y131.925 E.0426
G1 X51.403 Y132.77 E.08556
G1 X49.948 Y133.65 E.09449
G1 X49.209 Y134.069 E.04718
G1 X47.711 Y134.868 E.09433
G1 X46.114 Y135.653 E.09892
G1 X47.241 Y135.071 E.0705
G1 X48.77 Y134.222 E.0972
G1 X49.524 Y133.776 E.04867
G1 X50.939 Y132.884 E.09294
G1 X52.247 Y131.988 E.08812
G1 X52.884 Y131.52 E.04394
G1 X54.123 Y130.542 E.0877
G1 X54.723 Y130.031 E.04382
G1 X55.881 Y128.958 E.08773
G1 X56.438 Y128.395 E.04399
G1 X56.979 Y127.814 E.04412
G1 X57.503 Y127.213 E.04429
G1 X58.433 Y126.036 E.08341
G1 X59.258 Y124.83 E.08116
G1 X59.977 Y123.597 E.07935
G1 X60.592 Y122.336 E.07796
G1 X61.102 Y121.047 E.07703
G1 X61.508 Y119.73 E.07657
G1 X61.81 Y118.386 E.07658
G1 X62.009 Y117.013 E.07705
G1 X62.105 Y115.613 E.07798
G1 X62.097 Y114.185 E.07934
G1 X61.987 Y112.73 E.08111
G1 X61.774 Y111.246 E.08331
G1 X61.443 Y109.53 E.09713
G1 X61.784 Y109.138 E.02883
G1 X61.33 Y109.114 E.02525
G1 X60.854 Y108.95 E.02795
G1 X60.74 Y108.87 E.00777
G1 X60.367 Y108.85 E.02073
G1 X60.054 Y108.742 E.01843
G1 X59.765 Y109.074 E.02447
G1 X60.161 Y111.122 E.1159
G1 X60.371 Y112.591 E.08247
G1 X60.48 Y114.027 E.08002
G1 X60.488 Y115.432 E.0781
G1 X60.394 Y116.817 E.07717
G1 X60.2 Y118.154 E.07504
G1 X59.904 Y119.472 E.07508
G1 X59.503 Y120.773 E.07563
G1 X59.006 Y122.027 E.075
G1 X58.399 Y123.275 E.07711
G1 X57.691 Y124.488 E.07805
G1 X56.883 Y125.669 E.0795
G1 X55.959 Y126.838 E.0828
G1 X55.439 Y127.434 E.04397
G1 X54.35 Y128.569 E.0874
G1 X53.199 Y129.635 E.0872
G1 X51.99 Y130.639 E.08731
G1 X51.366 Y131.119 E.04377
G1 X50.08 Y132.041 E.0879
G1 X48.75 Y132.915 E.08845
G1 X48.001 Y133.378 E.04892
G1 X46.792 Y134.082 E.07777
G1 X44.93 Y135.085 E.11752
G1 X43.27 Y135.903 E.10286
G1 X43.071 Y136.467 E.03324
G1 X43.281 Y136.909 E.02716
G1 X42.072 Y137.414 E.0728
G1 X41.843 Y137.568 E.01535
G1 X41.531 Y137.871 E.02415
G1 X41.754 Y138.456 E.03478
G1 X42.396 Y138.488 E.03573
G1 X44.064 Y138.488 E.09266
G1 X43.107 Y139.876 E.09368
G1 X42.07 Y140.298 E.06222
G1 X42.309 Y141.117 E.04741
G1 X39.088 Y141.618 E.18118
G1 X38.429 Y141.892 E.03966
G1 X36.601 Y141.834 E.10162
G1 X29.847 Y141.478 E.37585
G1 X34.744 Y136.873 E.37354
G1 X35.043 Y136.64 E.02107
G1 X35.427 Y136.405 E.02499
G1 X35.727 Y136.26 E.01854
G1 X37.868 Y135.375 E.12875
G1 X38.433 Y135.554 E.03294
G1 X38.844 Y135.536 E.02285
G1 X39.087 Y134.845 E.04069
G1 X40.743 Y134.044 E.10223
G1 X42.304 Y133.244 E.09748
G1 X43.832 Y132.395 E.09713
G1 X45.325 Y131.492 E.09695
G1 X46.636 Y130.63 E.08721
G1 X47.273 Y130.185 E.04318
G1 X48.503 Y129.26 E.08553
G1 X49.096 Y128.78 E.04241
G1 X50.236 Y127.781 E.08422
G1 X50.782 Y127.261 E.04187
G1 X51.823 Y126.176 E.08357
G1 X52.302 Y125.627 E.04053
G1 X53.183 Y124.512 E.07897
G1 X53.944 Y123.4 E.07487
G1 X54.601 Y122.273 E.07249
G1 X55.159 Y121.129 E.07069
G1 X55.619 Y119.967 E.06947
G1 X55.984 Y118.783 E.06887
G1 X56.256 Y117.573 E.06892
G1 X56.435 Y116.333 E.0696
G1 X56.522 Y115.061 E.07087
G1 X56.515 Y113.752 E.07272
G1 X56.413 Y112.405 E.07507
G1 X56.169 Y110.758 E.09255
G1 X55.196 Y105.779 E.2819
G1 X59.009 Y105.981 E.21216
G1 E-3.5 F3600
;WIPE_START
G1 F7200
G1 X56.013 Y105.822 E-1.425
;WIPE_END
G1 E-.075 F3600
G1 X40.332 Y137.716 F9000
G1 E5 F2400
G1 F1200
G1 X39.692 Y137.857 E.03645
G1 X39.288 Y137.888 E.0225
G1 X38.726 Y138.123 E.03386
G1 X38.526 Y138.132 E.01113
G1 X38.232 Y138.37 E.021
G1 X38.471 Y138.681 E.02176
G1 X38.589 Y139.085 E.02337
G1 X38.798 Y139.052 E.01173
G1 X39.053 Y139.068 E.0142
G1 X39.333 Y139.018 E.01585
G1 X39.561 Y138.898 E.01428
G1 X40.04 Y138.795 E.02721
G1 X40.349 Y138.814 E.01723
G1 X40.811 Y138.733 E.02605
G1 X40.789 Y138.36 E.02078
G1 X40.488 Y138.342 E.01676
G1 X40.46 Y138.269 E.00434
G1 X40.584 Y138.156 E.00933
G1 X40.751 Y138.054 E.01085
G1 X41.495 Y137.747 E.04475
G1 X41.171 Y136.974 E.04658
G1 X40.37 Y137.682 E.05943
G1 E-3.5 F3600
;WIPE_START
G1 F7200
G1 X41.171 Y136.974 E-.50795
G1 X41.495 Y137.747 E-.39815
G1 X40.751 Y138.054 E-.38246
G1 X40.584 Y138.156 E-.09278
G1 X40.517 Y138.218 E-.04365
;WIPE_END
G1 E-.075 F3600
G1 X63.49 Y107.983 F9000
G1 E5 F2400
G1 F1200
G1 X63.49 Y107.517 E.02594
G1 X63.119 Y107.389 E.02183
G1 X63.119 Y108.598 E.06723
G1 X62.949 Y109.09 E.02892
G1 X62.747 Y109.08 E.01121
G1 X62.747 Y107.26 E.10109
G1 X62.376 Y107.132 E.02183
G1 X62.376 Y109.06 E.10712
G1 X62.291 Y109.055 E.00473
G1 X62.005 Y109.385 E.02425
G1 X62.005 Y109.113 E.0151
G1 X62.376 Y118.324 F9000
G1 F1200
G1 X62.376 Y113.011 E.29521
G1 X62.179 Y111.634 E.07736
G1 X62.005 Y110.719 E.05175
G1 X62.005 Y111.794 E.05975
G1 X62.005 Y119.916 F9000
G1 F1200
G1 X62.005 Y118.892 E.0569
G1 X61.799 Y119.807 E.05213
G1 X61.634 Y120.344 E.03123
G1 X61.634 Y120.61 E.01475
G1 X61.552 Y120.875 E.01542
G1 X61.262 Y121.607 E.04372
G1 X61.262 Y121.46 E.00816
G1 X60.891 Y122.398 E.05606
G1 X60.891 Y122.458 E.00337
G1 X60.52 Y123.22 E.0471
G1 X60.52 Y122.828 E.02182
G1 E-3.5 F3600
;WIPE_START
G1 F7200
G1 X60.52 Y123.22 E-.18653
G1 X60.891 Y122.458 E-.40256
G1 X60.891 Y122.398 E-.02879
G1 X61.262 Y121.46 E-.47922
G1 X61.262 Y121.607 E-.06978
G1 X61.462 Y121.101 E-.25812
;WIPE_END
G1 E-.075 F3600
G1 X62.005 Y108.999 F9000
G1 E5 F2400
G1 F1200
G1 X62.005 Y107.004 E.11088
G1 X61.634 Y106.876 E.02183
G1 X61.634 Y108.829 E.10854
G1 X61.388 Y108.816 E.01367
G1 X61.262 Y108.773 E.00739
G1 X61.262 Y106.748 E.11252
G1 X60.938 Y106.636 E.01905
G1 X60.891 Y106.603 E.0032
G1 X60.891 Y108.608 E.11145
G1 X60.842 Y108.574 E.00332
G1 X60.52 Y108.557 E.01794
G1 X60.52 Y106.363 E.12193
G1 X60.148 Y106.343 E.02066
G1 X60.148 Y108.456 E.11743
G1 X59.96 Y108.391 E.01106
G1 X59.777 Y108.602 E.01551
G1 X59.777 Y106.323 E.12662
G1 X59.406 Y106.304 E.02066
G1 X59.406 Y120.069 E.76495
G1 X59.221 Y120.668 E.03484
G1 X59.035 Y121.139 E.02817
G1 X59.035 Y106.284 E.82553
G1 X58.663 Y106.264 E.02066
G1 X58.663 Y122.046 E.87702
G1 X58.292 Y122.808 E.0471
G1 X58.292 Y106.244 E.92045
G1 X57.921 Y106.225 E.02066
G1 X57.921 Y123.497 E.95985
G1 X57.549 Y124.134 E.04095
G1 X57.549 Y106.205 E.99631
G1 X57.178 Y106.185 E.02066
G1 X57.178 Y124.704 E1.02912
G1 X56.807 Y125.247 E.03654
G1 X56.807 Y106.166 E1.06037
G1 X56.436 Y106.146 E.02066
G1 X56.436 Y110.548 E.24465
G1 X56.064 Y108.653 E.10733
G1 X56.064 Y106.126 E.14041
G1 X55.693 Y106.106 E.02066
G1 X55.693 Y107.536 E.07946
G1 X60.148 Y117.461 F9000
G1 F1200
G1 X60.148 Y113.624 E.21324
G1 X60.073 Y112.628 E.05552
G1 X59.864 Y111.169 E.0819
G1 X59.777 Y110.699 E.02659
G1 X59.777 Y119.352 E.48086
G1 X56.436 Y125.993 F9000
G1 F1200
G1 X56.436 Y118.145 E.4361
G1 X56.275 Y118.86 E.04072
G1 X56.064 Y119.543 E.03971
G1 X56.064 Y126.22 E.37106
G1 X55.693 Y126.686 E.03311
G1 X55.693 Y120.597 E.3384
G1 X55.434 Y121.251 E.03909
G1 X55.322 Y121.481 E.01426
G1 X55.322 Y127.111 E.31286
G1 X55.216 Y127.233 E.00895
G1 X54.95 Y127.518 E.02164
G1 X54.95 Y122.243 E.29311
G1 X54.579 Y122.908 E.04231
G1 X54.579 Y127.91 E.27797
G1 X54.208 Y128.285 E.02934
G1 X54.208 Y123.544 E.26345
G1 X53.836 Y124.09 E.03665
G1 X53.836 Y128.643 E.25304
G1 X53.465 Y128.991 E.02827
G1 X53.465 Y124.632 E.24221
G1 X53.094 Y125.11 E.03362
G1 X53.094 Y129.325 E.23424
G1 X53.001 Y129.409 E.00697
G1 X52.723 Y129.646 E.02031
G1 X52.723 Y125.58 E.22596
G1 X52.351 Y126.028 E.03234
G1 X52.351 Y129.96 E.21851
G1 X51.98 Y130.26 E.02654
G1 X51.98 Y126.449 E.21183
G1 X51.609 Y126.848 E.03029
G1 X51.609 Y130.553 E.20592
G1 X51.237 Y130.839 E.02603
G1 X51.237 Y127.228 E.20065
G1 X50.866 Y127.596 E.02905
G1 X50.866 Y131.113 E.19543
G1 X50.495 Y131.383 E.02552
G1 X50.495 Y127.95 E.19079
G1 X50.124 Y128.287 E.02787
G1 X50.124 Y131.644 E.18651
G1 X49.752 Y131.899 E.02504
G1 X49.752 Y128.616 E.18244
G1 X49.381 Y128.932 E.02712
G1 X49.381 Y132.148 E.17869
G1 X49.01 Y132.39 E.02464
G1 X49.01 Y129.237 E.17524
G1 X48.638 Y129.535 E.02647
G1 X48.638 Y132.629 E.17193
G1 X48.267 Y132.86 E.02429
G1 X48.267 Y129.821 E.16887
G1 X47.896 Y130.1 E.02582
G1 X47.896 Y133.089 E.16609
G1 X47.525 Y133.31 E.02401
G1 X47.525 Y130.373 E.16323
G1 X47.153 Y130.635 E.02527
G1 X47.153 Y133.53 E.16084
G1 X46.782 Y133.742 E.02376
G1 X46.782 Y130.895 E.1582
G1 X46.411 Y131.144 E.02485
G1 X46.411 Y133.952 E.15606
G1 X46.039 Y134.156 E.02354
G1 X46.039 Y131.39 E.15371
G1 X45.668 Y131.629 E.02454
G1 X45.668 Y134.358 E.15166
G1 X45.297 Y134.554 E.02334
G1 X45.297 Y131.863 E.14956
G1 X44.926 Y132.092 E.02425
G1 X44.926 Y134.748 E.1476
G1 X44.554 Y134.938 E.02316
G1 X44.554 Y132.317 E.14564
G1 X44.183 Y132.536 E.02397
G1 X44.183 Y135.124 E.14381
G1 X43.812 Y135.307 E.023
G1 X43.812 Y132.752 E.14199
G1 X43.44 Y132.962 E.02372
G1 X43.44 Y135.486 E.14027
G1 X43.069 Y135.666 E.02292
G1 X43.069 Y133.17 E.13873
G1 X42.698 Y133.372 E.02349
G1 X42.698 Y136.824 E.19184
G1 X42.327 Y136.975 E.02227
G1 X42.327 Y133.571 E.18914
G1 X41.955 Y133.765 E.02328
G1 X41.955 Y137.135 E.18728
G1 X41.65 Y137.338 E.02037
G1 X41.584 Y137.181 E.00944
G1 X41.584 Y133.958 E.17914
G1 X41.213 Y134.144 E.02309
G1 X41.213 Y136.535 E.13285
G1 X40.841 Y136.864 E.02756
G1 X40.841 Y134.33 E.14078
G1 X40.47 Y134.51 E.02292
G1 X40.47 Y137.192 E.14907
G1 X40.192 Y137.439 E.02067
G1 X40.099 Y137.459 E.00528
G1 X40.099 Y134.689 E.15392
G1 X39.728 Y134.869 E.02292
G1 X39.728 Y137.541 E.14848
G1 X39.356 Y137.584 E.02077
G1 X39.356 Y135.049 E.14087
G1 X39.329 Y135.062 E.00166
G1 X39.06 Y135.827 E.04508
G1 X38.985 Y135.831 E.00417
G1 X38.985 Y137.689 E.10326
G1 X38.659 Y137.825 E.01963
G1 X38.614 Y137.827 E.00254
G1 X38.614 Y135.847 E.11005
G1 X38.393 Y135.857 E.01229
G1 X38.242 Y135.809 E.00877
G1 X38.242 Y138.169 E.13112
G1 E-3.5 F3600
;WIPE_START
G1 F7200
G1 X38.242 Y135.809 E-1.12073
G1 X38.393 Y135.857 E-.07496
G1 X38.614 Y135.847 E-.10503
G1 X38.614 Y136.109 E-.12428
;WIPE_END
G1 E-.075 F3600
G1 X43.44 Y139.127 F9000
G1 E5 F2400
G1 F1200
G1 X43.44 Y138.789 E.0188
G1 X43.069 Y138.789 E.02063
G1 X43.069 Y139.401 E.03401
G1 X42.91 Y139.631 E.01556
G1 X42.698 Y139.718 E.01274
G1 X42.698 Y138.789 E.05162
G1 X42.327 Y138.787 E.02063
G1 X42.327 Y139.869 E.06012
G1 X41.955 Y140.02 E.02227
G1 X41.955 Y138.767 E.0696
G1 X41.584 Y138.748 E.02066
G1 X41.584 Y140.925 E.12097
G1 X41.213 Y140.983 E.02088
G1 X41.213 Y138.186 E.15542
G1 X41.084 Y138.238 E.00774
G1 X41.126 Y138.983 E.04143
G1 X40.841 Y139.033 E.01607
G1 X40.841 Y141.041 E.11157
G1 X40.47 Y141.098 E.02088
G1 X40.47 Y139.098 E.11117
G1 X40.366 Y139.116 E.00586
G1 X40.099 Y139.1 E.01489
G1 X40.099 Y141.156 E.11425
G1 X39.728 Y141.214 E.02088
G1 X39.728 Y139.17 E.11357
G1 X39.664 Y139.184 E.00358
G1 X39.432 Y139.306 E.01461
G1 X39.356 Y139.319 E.00426
G1 X39.356 Y141.272 E.10848
G1 X38.985 Y141.335 E.02093
G1 X38.985 Y139.365 E.10949
G1 X38.812 Y139.354 E.00964
G1 X38.614 Y139.385 E.01114
G1 X38.614 Y141.488 E.11688
G1 X38.373 Y141.59 E.01453
G1 X38.242 Y141.586 E.00724
G1 X38.242 Y138.621 E.16473
G1 X37.871 Y141.725 F9000
G1 F1200
G1 X37.871 Y135.699 E.33483
G1 X37.5 Y135.855 E.02237
G1 X37.5 Y141.563 E.31719
G1 X37.129 Y141.551 E.02064
G1 X37.129 Y136.01 E.30791
G1 X36.757 Y136.165 E.02235
G1 X36.757 Y141.539 E.29867
G1 X36.386 Y141.521 E.02066
G1 X36.386 Y136.316 E.28925
G1 X36.015 Y136.467 E.02227
G1 X36.015 Y141.501 E.27978
G1 X35.643 Y141.482 E.02066
G1 X35.643 Y136.632 E.2695
G1 X35.272 Y136.849 E.0239
G1 X35.272 Y141.462 E.25635
G1 X34.901 Y141.443 E.02066
G1 X34.901 Y137.138 E.23924
G1 X34.53 Y137.487 E.02833
G1 X34.53 Y141.423 E.21874
G1 X34.158 Y141.404 E.02066
G1 X34.158 Y137.836 E.19825
G1 X33.787 Y138.185 E.02833
G1 X33.787 Y141.384 E.17776
G1 X33.416 Y141.365 E.02066
G1 X33.416 Y138.535 E.15727
G1 X33.044 Y138.884 E.02833
G1 X33.044 Y141.345 E.13678
G1 X32.673 Y141.326 E.02066
G1 X32.673 Y139.233 E.11628
G1 X32.302 Y139.582 E.02833
G1 X32.302 Y141.306 E.09579
G1 X31.931 Y141.287 E.02066
G1 X31.931 Y139.932 E.0753
G1 X31.559 Y140.281 E.02833
G1 X31.559 Y141.267 E.05481
G1 X31.188 Y141.247 E.02066
G1 X31.188 Y140.63 E.03431
G1 X30.817 Y140.979 E.02833
G1 X30.817 Y141.378 E.02219
G1 E-3.5 F3600
;WIPE_START
G1 F7200
G1 X30.817 Y140.979 E-.18968
G1 X31.188 Y140.63 E-.24211
G1 X31.188 Y141.247 E-.29331
G1 X31.559 Y141.267 E-.17661
G1 X31.559 Y140.281 E-.46847
G1 X31.643 Y140.202 E-.05482
;WIPE_END
G1 E-.075 F3600
G1 X38.827 Y138.589 F9000
G1 E5 F2400
;TYPE:Support material interface
;WIDTH:0.38
G1 F1200
G1 X38.786 Y138.489 E.00531
G1 X39.335 Y138.267 E.02901
G1 X38.912 Y138.69 E.02931
G1 X39.032 Y138.698 E.00587
G1 X39.213 Y138.666 E.00902
G1 X39.434 Y138.549 E.01222
G1 X39.878 Y138.454 E.02219
G1 X40.066 Y138.266 E.013
G1 X40.129 Y138.432 E.0087
G1 X40.032 Y138.426 E.00473
G1 E-3.5 F3600
;WIPE_START
G1 F7200
G1 X40.129 Y138.432 E-.04595
G1 X40.066 Y138.266 E-.08447
G1 X39.878 Y138.454 E-.12627
G1 X39.434 Y138.549 E-.21542
G1 X39.213 Y138.666 E-.11868
G1 X39.032 Y138.698 E-.08755
G1 X38.912 Y138.69 E-.05696
G1 X39.335 Y138.267 E-.28457
G1 X38.786 Y138.489 E-.28172
G1 X38.827 Y138.589 E-.05161
;WIPE_END
G1 E-.14681 F3600
G1 X44.338 Y136.104 F9000
G1 E5 F2400
G1 F1200
G1 X43.49 Y136.492 E.04563
G1 X43.468 Y136.446 E.00246
G1 X43.536 Y136.253 E.01001
G1 X43.673 Y136.117 E.00947
G1 X44.975 Y135.475 E.07099
G1 X45.418 Y135.246 F9000
G1 F1200
G1 X45.116 Y135.403 E.01668
G1 X44.482 Y136.038 E.04387
G1 X45.898 Y135.35 E.07704
G1 X46.68 Y134.568 E.05409
G1 X47.583 Y134.053 E.05084
G1 X48.229 Y134.106 F9000
G1 F1200
G1 X49.119 Y133.588 E.05035
G1 X50.535 Y132.172 E.09797
G1 X51.926 Y131.153 E.08438
G1 X52.471 Y130.723 E.03394
G1 X52.302 Y131.491 F9000
G1 F1200
G1 X53.282 Y130.75 E.06012
G1 X54.008 Y130.157 E.04584
G1 X57.344 Y126.821 E.2308
G1 X58.137 Y125.817 E.06257
G1 X58.486 Y125.307 E.03027
G1 X58.474 Y123.875 F9000
G1 F1200
G1 X58.72 Y123.454 E.02385
G1 X58.909 Y123.069 E.021
G1 X60.56 Y121.418 E.11423
G1 X60.799 Y120.783 E.03319
G1 X59.848 Y120.901 F9000
G1 F1200
G1 X59.952 Y120.567 E.01712
G1 X61.23 Y119.289 E.08845
G1 X61.152 Y119.635 E.01738
