; generated by PrusaSlicer 2.4.0+win64 on 2022-01-04 at 12:52:36 UTC

; 

; external perimeters extrusion width = 0.45mm
; perimeters extrusion width = 0.45mm
; infill extrusion width = 0.45mm
; solid infill extrusion width = 0.45mm
; top infill extrusion width = 0.40mm
; first layer extrusion width = 0.42mm

M107
M190 S50 ; set bed temperature and wait for it to be reached
M104 S200 ; set temperature
;TYPE:Custom
M109 S200 ; set temperature and wait for it to be reached
G21 ; set units to millimeters
G90 ; use absolute coordinates
M83 ; use relative distances for extrusion
; Filament gcode
M107
;LAYER_CHANGE
;Z:0.25
;HEIGHT:0.25

G1 E-2 F2700
G1 Z2 F9000
G1 X81.985 Y99.335
G1 Z.25
G1 E2 F2400
M204 P1000
;TYPE:Skirt/Brim
;WIDTH:0.42
G1 F1200
G1 X83.589 Y98.182 E.0677
G1 X85.416 Y97.057 E.07352
G1 X86.99 Y96.21 E.06126
G1 X89.287 Y95.122 E.08712
G1 X94.509 Y93.009 E.19305
G1 X95.714 Y92.786 E.042
G1 X129.286 Y92.786 E1.1505
G1 X130.493 Y93.01 E.04207
G1 X134.651 Y94.664 E.15337
G1 X137.641 Y96.025 E.11259
G1 X140.851 Y97.818 E.126
G1 X142.308 Y98.804 E.06029
G1 X143.725 Y99.91 E.0616
G1 X144.969 Y101.036 E.0575
G1 X146.051 Y102.173 E.05377
G1 X147.069 Y103.422 E.05524
G1 X147.93 Y104.663 E.05175
G1 X148.665 Y105.927 E.0501
G1 X149.274 Y107.215 E.04883
G1 X149.832 Y108.817 E.05815
G1 X150.101 Y110.006 E.04176
G1 X150.244 Y111.261 E.04331
G1 X150.244 Y112.397 E.03892
G1 X150.097 Y113.615 E.04203
G1 X149.712 Y115.094 E.0524
G1 X149.233 Y116.306 E.04463
G1 X148.666 Y117.417 E.04276
G1 X147.671 Y118.969 E.06321
G1 X146.793 Y120.111 E.04933
G1 X145.705 Y121.345 E.05639
G1 X144.571 Y122.466 E.05464
G1 X143.272 Y123.591 E.05891
G1 X141.944 Y124.599 E.05713
G1 X138.982 Y126.451 E.11972
G1 X135.578 Y128.1 E.12962
G1 X131.471 Y129.641 E.15034
G1 X125.125 Y131.495 E.22656
G1 X116.025 Y132.557 E.31398
G1 X108.975 Y132.557 E.24159
G1 X99.878 Y131.495 E.31388
G1 X94.596 Y129.986 E.18825
G1 X90.729 Y128.634 E.14039
G1 X87.402 Y127.174 E.12452
G1 X85.954 Y126.416 E.05599
G1 X84.21 Y125.377 E.06956
G1 X82.93 Y124.509 E.053
G1 X81.435 Y123.352 E.0648
G1 X80.29 Y122.336 E.05245
G1 X79.027 Y121.057 E.0616
G1 X77.883 Y119.709 E.06059
G1 X77.068 Y118.597 E.04725
G1 X76.277 Y117.316 E.0516
G1 X75.717 Y116.196 E.04291
G1 X75.218 Y114.879 E.04824
G1 X74.883 Y113.501 E.04863
G1 X74.744 Y112.136 E.04702
G1 X74.821 Y110.526 E.05524
G1 X75.108 Y109.037 E.05195
G1 X75.573 Y107.596 E.05189
G1 X76.218 Y106.149 E.05431
G1 X77.098 Y104.619 E.06046
G1 X78.11 Y103.188 E.06008
G1 X79.259 Y101.831 E.06095
G1 X80.556 Y100.542 E.06266
G1 X81.939 Y99.374 E.06204
G1 E-1.6 F2700
;WIPE_START
G1 F7200
G1 X82.804 Y98.749 E-.38
;WIPE_END
G1 E-.02 F2700
G1 Z2.25 F9000
G1 X113.874 Y125.379
G1 Z.25
G1 E2 F2400
;TYPE:Perimeter
G1 F1200
G1 X113.363 Y125.586 E.0189
G1 X112.947 Y125.668 E.01451
G1 X112.512 Y125.688 E.01494
G1 X112.053 Y125.668 E.01576
G1 X111.638 Y125.586 E.01448
G1 X111.217 Y125.427 E.01541
G1 X111.047 Y125.339 E.00658
G1 X109.558 Y124.401 E.06031
G1 X109.476 Y124.78 E.01329
G1 X109.33 Y122.441 E.08031
G1 X109.193 Y120.925 E.05218
G1 X109.043 Y120.007 E.03188
G1 X108.843 Y119.258 E.02657
G1 X108.707 Y118.888 E.0135
G1 X108.548 Y118.532 E.01336
G1 X108.193 Y117.934 E.02385
G1 X107.792 Y117.449 E.02155
G1 X107.506 Y117.17 E.0137
G1 X107.205 Y116.923 E.01336
G1 X106.87 Y116.689 E.01399
G1 X106.203 Y116.332 E.02592
G1 X105.495 Y116.087 E.02568
G1 X104.864 Y115.971 E.02197
G1 X104.466 Y115.938 E.01368
G1 X103.723 Y115.961 E.02549
G1 X103.283 Y116.013 E.0152
G1 X102.37 Y116.198 E.0319
G1 X100.459 Y116.731 E.06801
G1 X99.77 Y116.943 E.02469
G1 X98.839 Y117.281 E.03394
G1 X98.393 Y117.479 E.01672
G1 X97.667 Y117.871 E.02828
G1 X97.313 Y118.1 E.01443
G1 X96.907 Y118.414 E.01761
G1 X96.641 Y118.658 E.01236
G1 X96.253 Y119.099 E.02013
G1 X95.954 Y119.577 E.01932
G1 X95.744 Y120.075 E.01853
G1 X95.648 Y120.402 E.01168
G1 X95.545 Y121.027 E.02168
G1 X95.526 Y121.448 E.01445
G1 X95.574 Y122.155 E.02427
G1 X95.653 Y122.572 E.01455
G1 X95.761 Y122.971 E.01418
G1 X95.907 Y123.387 E.0151
G1 X96.248 Y124.114 E.02752
G1 X96.723 Y124.88 E.0309
G1 X97.358 Y125.722 E.03613
G1 X97.928 Y126.375 E.02971
G1 X95.96 Y125.793 E.07035
G1 X94.032 Y125.156 E.06958
G1 X92.319 Y124.522 E.06259
G1 X90.779 Y123.882 E.05717
G1 X89.376 Y123.231 E.05298
G1 X88.112 Y122.572 E.04886
G1 X86.942 Y121.888 E.04646
G1 X86.209 Y121.417 E.02985
G1 X85.53 Y120.948 E.02828
G1 X84.865 Y120.451 E.02844
G1 X84.239 Y119.949 E.02753
G1 X83.33 Y119.143 E.04165
G1 X82.793 Y118.619 E.02569
G1 X82.265 Y118.065 E.02622
G1 X81.77 Y117.501 E.02572
G1 X81.335 Y116.965 E.02367
G1 X80.908 Y116.394 E.02444
G1 X80.559 Y115.883 E.0212
G1 X80.247 Y115.376 E.02039
G1 X79.981 Y114.892 E.01892
G1 X79.758 Y114.431 E.01755
G1 X79.577 Y113.996 E.01615
G1 X79.373 Y113.386 E.02205
G1 X79.274 Y112.991 E.01394
G1 X79.204 Y112.596 E.01375
G1 X79.162 Y112.226 E.01276
G1 X79.149 Y111.837 E.01332
G1 X79.161 Y111.441 E.01359
G1 X79.202 Y111.027 E.01427
G1 X79.276 Y110.581 E.01547
G1 X79.386 Y110.106 E.01671
G1 X79.521 Y109.652 E.01622
G1 X79.701 Y109.144 E.01848
G1 X79.916 Y108.636 E.01889
G1 X80.163 Y108.12 E.0196
G1 X80.456 Y107.58 E.02108
G1 X80.791 Y107.027 E.02214
G1 X81.167 Y106.467 E.02312
G1 X81.804 Y105.624 E.0362
G1 X82.199 Y105.155 E.02105
G1 X82.739 Y104.567 E.02732
G1 X83.252 Y104.055 E.02486
G1 X83.803 Y103.551 E.0256
G1 X84.732 Y102.785 E.04125
G1 X85.37 Y102.308 E.02732
G1 X86.042 Y101.846 E.02793
G1 X87.215 Y101.11 E.04746
G1 X88.515 Y100.386 E.05098
G1 X89.488 Y99.891 E.03741
G1 X91.191 Y99.105 E.06428
G1 X90.81 Y99.555 E.02019
G1 X90.148 Y100.428 E.03755
G1 X89.772 Y100.993 E.02323
G1 X89.451 Y101.53 E.02145
G1 X89.049 Y102.33 E.03069
G1 X88.844 Y102.82 E.01822
G1 X88.646 Y103.393 E.02075
G1 X88.497 Y103.957 E.01999
G1 X88.371 Y104.673 E.02495
G1 X88.324 Y105.219 E.01877
G1 X88.317 Y105.731 E.01754
G1 X88.345 Y106.238 E.0174
G1 X88.415 Y106.76 E.01807
G1 X88.569 Y107.44 E.02389
G1 X88.731 Y107.932 E.01774
G1 X88.912 Y108.362 E.01598
G1 X89.23 Y108.93 E.02233
G1 X89.494 Y109.293 E.01539
G1 X89.837 Y109.672 E.01751
G1 X90.257 Y110.022 E.01874
G1 X90.631 Y110.264 E.01528
G1 X91.034 Y110.47 E.0155
G1 X91.456 Y110.634 E.0155
G1 X92.083 Y110.805 E.02229
G1 X92.858 Y110.916 E.02682
G1 X93.653 Y110.932 E.02725
G1 X94.467 Y110.858 E.02801
G1 X95.28 Y110.699 E.02837
G1 X96.068 Y110.458 E.02825
G1 X96.843 Y110.129 E.02885
G1 X97.514 Y109.764 E.02618
G1 X98.113 Y109.37 E.02457
G1 X98.798 Y108.833 E.02985
G1 X99.301 Y108.381 E.02316
G1 X100.008 Y107.653 E.0348
G1 X100.518 Y107.062 E.02674
G1 X101.037 Y106.409 E.02856
G1 X101.644 Y105.581 E.03521
G1 X101.826 Y105.814 E.01012
G1 X102.169 Y106.191 E.01747
G1 X102.511 Y106.51 E.01604
G1 X102.875 Y106.797 E.01587
G1 X103.194 Y107.008 E.01311
G1 X103.631 Y107.228 E.01676
G1 X103.993 Y107.361 E.01322
G1 X104.551 Y107.492 E.01965
G1 X105.024 Y107.523 E.01623
G1 X105.455 Y107.497 E.0148
G1 X106.036 Y107.384 E.0203
G1 X106.439 Y107.248 E.01455
G1 X106.878 Y107.047 E.01655
G1 X107.255 Y106.834 E.01484
G1 X107.699 Y106.527 E.01852
G1 X108.101 Y106.202 E.01769
G1 X108.516 Y105.816 E.01944
G1 X108.971 Y105.337 E.02263
G1 X109.386 Y104.847 E.02199
G1 X109.819 Y104.284 E.02436
G1 X110.265 Y103.641 E.02682
G1 X110.722 Y102.909 E.02957
G1 X111.045 Y102.339 E.02245
G1 X111.439 Y101.58 E.02929
G1 X112.11 Y100.09 E.05602
G1 X112.497 Y99.097 E.03653
G1 X113.051 Y100.468 E.05069
G1 X113.685 Y101.824 E.05131
G1 X113.997 Y102.419 E.02302
G1 X114.355 Y103.04 E.02455
G1 X114.809 Y103.751 E.0289
G1 X115.381 Y104.553 E.03376
G1 X116.132 Y105.452 E.04015
G1 X116.799 Y106.113 E.03218
G1 X117.154 Y106.415 E.01598
G1 X117.714 Y106.812 E.02351
G1 X118.216 Y107.093 E.01972
G1 X118.584 Y107.256 E.0138
G1 X118.928 Y107.373 E.01245
G1 X119.525 Y107.498 E.0209
G1 X120.088 Y107.52 E.01933
G1 X120.393 Y107.494 E.01048
G1 X120.724 Y107.438 E.01152
G1 X121.257 Y107.273 E.01909
G1 X121.734 Y107.043 E.01814
G1 X122.118 Y106.804 E.01551
G1 X122.714 Y106.308 E.02657
G1 X123.096 Y105.904 E.01908
G1 X123.357 Y105.576 E.01437
G1 X123.963 Y106.405 E.03518
G1 X124.557 Y107.151 E.03269
G1 X124.974 Y107.633 E.02184
G1 X125.714 Y108.393 E.03636
G1 X126.232 Y108.86 E.0239
G1 X126.665 Y109.206 E.01899
G1 X127.079 Y109.503 E.01747
G1 X127.538 Y109.794 E.01861
G1 X128.342 Y110.215 E.03112
G1 X128.826 Y110.418 E.01796
G1 X129.721 Y110.7 E.03215
G1 X130.622 Y110.869 E.03142
G1 X131.103 Y110.918 E.01658
G1 X131.571 Y110.935 E.01605
G1 X132.045 Y110.92 E.01625
G1 X132.468 Y110.88 E.01456
G1 X132.892 Y110.809 E.01474
G1 X133.297 Y110.711 E.01429
G1 X133.679 Y110.586 E.01376
G1 X134.059 Y110.426 E.01413
G1 X134.408 Y110.24 E.01354
G1 X134.787 Y109.988 E.01561
G1 X135.222 Y109.614 E.01966
G1 X135.617 Y109.151 E.02085
G1 X135.848 Y108.805 E.01426
G1 X136.09 Y108.352 E.0176
G1 X136.336 Y107.747 E.02237
G1 X136.549 Y106.952 E.02822
G1 X136.626 Y106.495 E.01588
G1 X136.671 Y106.024 E.01621
G1 X136.686 Y105.562 E.01584
G1 X136.631 Y104.682 E.03023
G1 X136.493 Y103.922 E.02645
G1 X136.338 Y103.347 E.02042
G1 X136.184 Y102.891 E.01648
G1 X135.992 Y102.419 E.01747
G1 X135.542 Y101.517 E.03454
G1 X134.949 Y100.568 E.03835
G1 X134.229 Y99.602 E.04131
G1 X133.792 Y99.098 E.02284
G1 X135.69 Y99.979 E.07171
G1 X137.179 Y100.762 E.05765
G1 X138.46 Y101.522 E.05101
G1 X139.113 Y101.948 E.02674
G1 X139.835 Y102.458 E.03029
G1 X140.403 Y102.89 E.02445
G1 X140.932 Y103.322 E.02343
G1 X141.893 Y104.195 E.04447
G1 X142.76 Y105.108 E.04314
G1 X143.157 Y105.577 E.02108
G1 X143.802 Y106.427 E.03655
G1 X144.211 Y107.031 E.025
G1 X144.602 Y107.691 E.02629
G1 X145.004 Y108.464 E.02987
G1 X145.187 Y108.87 E.01525
G1 X145.487 Y109.676 E.02947
G1 X145.597 Y110.044 E.01315
G1 X145.769 Y110.833 E.02768
G1 X145.809 Y111.112 E.00967
G1 X145.85 Y111.776 E.02279
G1 X145.818 Y112.429 E.02241
G1 X145.775 Y112.737 E.01065
G1 X145.717 Y113.034 E.01038
G1 X145.518 Y113.731 E.02483
G1 X145.392 Y114.076 E.01261
G1 X145.113 Y114.702 E.02349
G1 X144.86 Y115.192 E.0189
G1 X144.624 Y115.592 E.0159
G1 X144.253 Y116.16 E.02326
G1 X143.733 Y116.878 E.03036
G1 X142.944 Y117.831 E.04243
G1 X142.041 Y118.784 E.04498
G1 X141.042 Y119.708 E.04664
G1 X139.978 Y120.572 E.04698
G1 X139.425 Y120.98 E.02352
G1 X138.305 Y121.731 E.04622
G1 X137.568 Y122.183 E.02962
G1 X136.887 Y122.571 E.02686
G1 X135.896 Y123.092 E.03838
G1 X134.66 Y123.687 E.04699
G1 X132.994 Y124.398 E.06208
G1 X131.431 Y124.989 E.05728
G1 X130.108 Y125.448 E.04799
G1 X127.829 Y126.163 E.08184
G1 X127.082 Y126.379 E.02665
G1 X127.984 Y125.288 E.0485
G1 X128.534 Y124.491 E.0332
G1 X128.942 Y123.74 E.02928
G1 X129.234 Y122.987 E.02768
G1 X129.352 Y122.553 E.01542
G1 X129.465 Y121.778 E.02681
G1 X129.458 Y121.063 E.02452
G1 X129.411 Y120.686 E.01303
G1 X129.264 Y120.092 E.02095
G1 X129.053 Y119.594 E.01855
G1 X128.735 Y119.086 E.02054
G1 X128.359 Y118.658 E.01952
G1 X128.093 Y118.414 E.01236
G1 X127.676 Y118.092 E.01806
G1 X127 Y117.68 E.02713
G1 X126.583 Y117.468 E.01604
G1 X125.72 Y117.111 E.03202
G1 X124.548 Y116.733 E.0422
G1 X122.63 Y116.198 E.06825
G1 X121.715 Y116.013 E.03197
G1 X121.275 Y115.961 E.01519
G1 X120.517 Y115.938 E.02598
G1 X119.766 Y116.026 E.02593
G1 X119.165 Y116.191 E.02136
G1 X118.796 Y116.335 E.01356
G1 X118.434 Y116.513 E.01384
G1 X117.811 Y116.91 E.0253
G1 X117.494 Y117.17 E.01405
G1 X117.208 Y117.449 E.0137
G1 X116.807 Y117.934 E.02155
G1 X116.444 Y118.544 E.02434
G1 X116.164 Y119.232 E.02545
G1 X115.953 Y120.019 E.02791
G1 X115.807 Y120.926 E.0315
G1 X115.67 Y122.441 E.05214
G1 X115.524 Y124.779 E.08025
G1 X115.442 Y124.399 E.01332
G1 X113.927 Y125.352 E.06134
G1 X114.412 Y125.483 F9000
G1 F1200
G1 X113.931 Y125.763 E.01907
G1 X113.463 Y125.94 E.01713
G1 X112.991 Y126.033 E.01649
G1 X112.512 Y126.055 E.01644
G1 X112.009 Y126.033 E.01727
G1 X111.537 Y125.94 E.01648
G1 X111.067 Y125.762 E.01721
G1 X110.864 Y125.657 E.00784
G1 X109.806 Y124.99 E.04286
G1 X109.375 Y126.999 E.07042
G1 X109.285 Y126.484 E.01794
G1 X109.144 Y125.328 E.03991
G1 X108.965 Y122.469 E.09815
G1 X108.829 Y120.971 E.05155
G1 X108.684 Y120.084 E.03081
G1 X108.493 Y119.368 E.02538
G1 X108.223 Y118.7 E.0247
G1 X107.892 Y118.145 E.02214
G1 X107.523 Y117.697 E.0199
G1 X107.261 Y117.443 E.01249
G1 X106.983 Y117.215 E.01234
G1 X106.678 Y117.002 E.01276
G1 X106.056 Y116.669 E.02418
G1 X105.401 Y116.442 E.02374
G1 X104.816 Y116.335 E.0204
G1 X104.457 Y116.305 E.01234
G1 X103.75 Y116.327 E.02423
G1 X103.34 Y116.375 E.01414
G1 X102.456 Y116.554 E.03093
G1 X100.562 Y117.083 E.06739
G1 X99.886 Y117.29 E.02421
G1 X98.976 Y117.621 E.03318
G1 X98.555 Y117.808 E.0158
G1 X97.854 Y118.186 E.0273
G1 X97.525 Y118.399 E.0134
G1 X97.143 Y118.695 E.01656
G1 X96.903 Y118.915 E.01116
G1 X96.548 Y119.319 E.01843
G1 X96.28 Y119.747 E.0173
G1 X96.089 Y120.199 E.01681
G1 X96.006 Y120.484 E.01019
G1 X95.91 Y121.065 E.02018
G1 X95.893 Y121.444 E.01299
G1 X95.938 Y122.108 E.02281
G1 X96.01 Y122.49 E.01331
G1 X96.112 Y122.862 E.01324
G1 X96.246 Y123.248 E.01401
G1 X96.571 Y123.939 E.02614
G1 X97.026 Y124.673 E.02959
G1 X97.643 Y125.491 E.03511
G1 X99.046 Y127.089 E.0729
G1 X95.85 Y126.143 E.11423
G1 X93.911 Y125.502 E.07
G1 X92.185 Y124.863 E.06306
G1 X90.631 Y124.218 E.05767
G1 X89.214 Y123.56 E.05353
G1 X87.935 Y122.892 E.04945
G1 X86.75 Y122.2 E.04703
G1 X86.006 Y121.721 E.03032
G1 X85.316 Y121.246 E.02872
G1 X84.641 Y120.741 E.02889
G1 X84.002 Y120.229 E.02806
G1 X83.08 Y119.411 E.04226
G1 X82.532 Y118.877 E.02622
G1 X81.995 Y118.312 E.0267
G1 X81.49 Y117.737 E.02622
G1 X81.046 Y117.19 E.02416
G1 X80.609 Y116.607 E.02497
G1 X80.252 Y116.082 E.02177
G1 X79.93 Y115.561 E.02099
G1 X79.655 Y115.06 E.01956
G1 X79.423 Y114.581 E.01823
G1 X79.234 Y114.124 E.01696
G1 X79.021 Y113.488 E.02298
G1 X78.916 Y113.068 E.01486
G1 X78.841 Y112.648 E.01459
G1 X78.797 Y112.253 E.01365
G1 X78.783 Y111.838 E.01422
G1 X78.796 Y111.417 E.01442
G1 X78.839 Y110.979 E.0151
G1 X78.916 Y110.51 E.01629
G1 X79.032 Y110.013 E.0175
G1 X79.172 Y109.539 E.01694
G1 X79.36 Y109.011 E.01918
G1 X79.581 Y108.486 E.01955
G1 X79.836 Y107.954 E.02022
G1 X80.138 Y107.397 E.0217
G1 X80.482 Y106.83 E.02273
G1 X80.869 Y106.255 E.02375
G1 X81.517 Y105.396 E.03688
G1 X81.924 Y104.913 E.02166
G1 X82.474 Y104.314 E.02786
G1 X82.999 Y103.79 E.02541
G1 X83.563 Y103.274 E.02618
G1 X84.505 Y102.496 E.04188
G1 X85.157 Y102.01 E.02786
G1 X85.841 Y101.54 E.02844
G1 X87.029 Y100.795 E.04805
G1 X88.342 Y100.062 E.05154
G1 X89.326 Y99.562 E.03783
G1 X90.341 Y99.082 E.03847
G1 X92.666 Y98.074 E.08685
G1 X92.11 Y98.633 E.02703
G1 X91.582 Y99.211 E.0268
G1 X91.096 Y99.784 E.02577
G1 X90.447 Y100.641 E.03682
G1 X90.082 Y101.188 E.02255
G1 X89.772 Y101.706 E.02068
G1 X89.382 Y102.483 E.02979
G1 X89.186 Y102.951 E.01738
G1 X88.997 Y103.499 E.01989
G1 X88.855 Y104.035 E.019
G1 X88.734 Y104.721 E.02387
G1 X88.69 Y105.237 E.01775
G1 X88.684 Y105.723 E.01665
G1 X88.71 Y106.203 E.01648
G1 X88.776 Y106.695 E.01703
G1 X88.922 Y107.342 E.02272
G1 X89.074 Y107.803 E.01664
G1 X89.241 Y108.201 E.01477
G1 X89.539 Y108.732 E.02087
G1 X89.779 Y109.062 E.01397
G1 X90.091 Y109.407 E.01596
G1 X90.475 Y109.726 E.01711
G1 X90.815 Y109.947 E.01388
G1 X91.185 Y110.135 E.01423
G1 X91.571 Y110.286 E.01421
G1 X92.158 Y110.446 E.02084
G1 X92.888 Y110.55 E.02527
G1 X93.64 Y110.565 E.02579
G1 X94.415 Y110.494 E.02668
G1 X95.191 Y110.343 E.02708
G1 X95.942 Y110.114 E.02693
G1 X96.683 Y109.799 E.02759
G1 X97.325 Y109.449 E.02506
G1 X97.899 Y109.072 E.02353
G1 X98.563 Y108.552 E.0289
G1 X99.047 Y108.117 E.0223
G1 X99.738 Y107.405 E.034
G1 X100.236 Y106.828 E.02612
G1 X100.745 Y106.187 E.02807
G1 X101.636 Y104.955 E.05209
G1 X102.106 Y105.577 E.02674
G1 X102.43 Y105.933 E.0165
G1 X102.75 Y106.232 E.01501
G1 X103.089 Y106.5 E.01481
G1 X103.378 Y106.69 E.01184
G1 X103.777 Y106.891 E.01531
G1 X104.099 Y107.009 E.01174
G1 X104.605 Y107.128 E.01784
G1 X105.025 Y107.156 E.01441
G1 X105.409 Y107.133 E.01318
G1 X105.942 Y107.029 E.01862
G1 X106.304 Y106.907 E.01307
G1 X106.712 Y106.72 E.01537
G1 X107.06 Y106.524 E.01372
G1 X107.48 Y106.233 E.01748
G1 X107.861 Y105.925 E.0168
G1 X108.259 Y105.556 E.01861
G1 X108.698 Y105.092 E.02188
