;FLAVOR:Marlin
;TIME:4385
;Filament used: 1.47252m
;Layer height: 0.06
;MINX:-13.619
;MINY:-20.037
;MINZ:0.3
;MAXX:21.981
;MAXY:15.563
;MAXZ:19.98
;Generated with Cura_SteamEngine 4.13.0
M104 S200
M105
M109 S200
M82 ;absolute extrusion mode
G28 ;Home
G1 Z15.0 F6000 ;Move the platform down 15mm
;Prime the extruder
G92 E0
G1 F200 E3
G91 E0
G92 E0
G92 E0
G1 F1500 E-6.5
;LAYER_COUNT:329
;LAYER:0
M107
G0 F3600 X-13.619 Y7.763 Z0.3
;TYPE:SKIRT
G1 F1500 E0
G1 F1800 X-13.619 Y-12.237 E0.9978
G1 X-13.579 Y-13.026 E1.03722
G1 X-13.46 Y-13.806 E1.07658
G1 X-13.262 Y-14.571 E1.11601
G1 X-12.988 Y-15.311 E1.15537
G1 X-12.64 Y-16.02 E1.19478
G1 X-12.222 Y-16.691 E1.23422
G1 X-11.739 Y-17.315 E1.27359
G1 X-11.196 Y-17.888 E1.31297
G1 X-10.597 Y-18.403 E1.35238
G1 X-9.949 Y-18.854 E1.39177
G1 X-9.258 Y-19.238 E1.43121
G1 X-8.533 Y-19.55 E1.47059
G1 X-7.78 Y-19.787 E1.50997
G1 X-7.006 Y-19.946 E1.54939
G1 X-6.221 Y-20.027 E1.58876
G1 X-5.819 Y-20.037 E1.60883
G1 X14.181 Y-20.037 E2.60663
G1 X14.97 Y-19.997 E2.64604
G1 X15.75 Y-19.878 E2.68541
G1 X16.515 Y-19.68 E2.72483
G1 X17.255 Y-19.406 E2.7642
G1 X17.964 Y-19.058 E2.8036
G1 X18.635 Y-18.64 E2.84304
G1 X19.259 Y-18.157 E2.88241
G1 X19.832 Y-17.614 E2.9218
G1 X20.347 Y-17.015 E2.96121
G1 X20.798 Y-16.367 E3.0006
G1 X21.182 Y-15.676 E3.04004
G1 X21.494 Y-14.951 E3.07941
G1 X21.731 Y-14.198 E3.1188
G1 X21.89 Y-13.424 E3.15822
G1 X21.971 Y-12.639 E3.19759
G1 X21.981 Y-12.237 E3.21765
G1 X21.981 Y7.763 E4.21546
G1 X21.941 Y8.552 E4.25487
G1 X21.822 Y9.332 E4.29423
G1 X21.624 Y10.097 E4.33366
G1 X21.35 Y10.837 E4.37303
G1 X21.002 Y11.546 E4.41243
G1 X20.584 Y12.217 E4.45187
G1 X20.101 Y12.841 E4.49124
G1 X19.558 Y13.414 E4.53062
G1 X18.959 Y13.929 E4.57003
G1 X18.311 Y14.38 E4.60942
G1 X17.62 Y14.764 E4.64886
G1 X16.895 Y15.076 E4.68824
G1 X16.142 Y15.313 E4.72762
G1 X15.368 Y15.472 E4.76704
G1 X14.583 Y15.553 E4.80642
G1 X14.181 Y15.563 E4.82648
G1 X-5.819 Y15.563 E5.82428
G1 X-6.608 Y15.523 E5.8637
G1 X-7.388 Y15.404 E5.90306
G1 X-8.153 Y15.206 E5.94248
G1 X-8.893 Y14.932 E5.98185
G1 X-9.602 Y14.584 E6.02126
G1 X-10.273 Y14.166 E6.0607
G1 X-10.897 Y13.683 E6.10006
G1 X-11.47 Y13.14 E6.13945
G1 X-11.985 Y12.541 E6.17886
G1 X-12.436 Y11.893 E6.21825
G1 X-12.82 Y11.202 E6.25769
G1 X-13.132 Y10.477 E6.29706
G1 X-13.369 Y9.724 E6.33645
G1 X-13.528 Y8.95 E6.37587
G1 X-13.609 Y8.165 E6.41524
G1 X-13.619 Y7.763 E6.4353
G0 F3600 X-13.219 Y7.763
G1 F1800 X-13.219 Y-12.237 E7.43311
G1 X-13.179 Y-13.005 E7.47148
G1 X-13.06 Y-13.765 E7.50985
G1 X-12.862 Y-14.508 E7.54822
G1 X-12.588 Y-15.227 E7.5866
G1 X-12.241 Y-15.913 E7.62496
G1 X-11.825 Y-16.56 E7.66333
G1 X-11.344 Y-17.16 E7.7017
G1 X-10.803 Y-17.707 E7.74008
G1 X-10.208 Y-18.195 E7.77847
G1 X-9.566 Y-18.618 E7.81683
G1 X-8.883 Y-18.973 E7.85523
G1 X-8.168 Y-19.254 E7.89356
G1 X-7.426 Y-19.46 E7.93198
G1 X-6.668 Y-19.588 E7.97033
G1 X-5.819 Y-19.637 E8.01276
G1 X14.181 Y-19.637 E9.01056
G1 X14.949 Y-19.597 E9.04893
G1 X15.709 Y-19.478 E9.08731
G1 X16.452 Y-19.28 E9.12567
G1 X17.171 Y-19.006 E9.16406
G1 X17.857 Y-18.659 E9.20241
G1 X18.504 Y-18.243 E9.24079
G1 X19.104 Y-17.762 E9.27915
G1 X19.651 Y-17.221 E9.31754
G1 X20.139 Y-16.626 E9.35593
G1 X20.562 Y-15.984 E9.39429
G1 X20.917 Y-15.301 E9.43269
G1 X21.198 Y-14.586 E9.47102
G1 X21.404 Y-13.844 E9.50943
G1 X21.532 Y-13.086 E9.54779
G1 X21.581 Y-12.237 E9.59021
G1 X21.581 Y7.763 E10.58802
G1 X21.541 Y8.531 E10.62639
G1 X21.422 Y9.291 E10.66476
G1 X21.224 Y10.034 E10.70313
G1 X20.95 Y10.753 E10.74151
G1 X20.603 Y11.439 E10.77987
G1 X20.187 Y12.086 E10.81824
G1 X19.706 Y12.686 E10.85661
G1 X19.165 Y13.233 E10.89499
G1 X18.57 Y13.721 E10.93338
G1 X17.928 Y14.144 E10.97174
G1 X17.245 Y14.499 E11.01014
G1 X16.53 Y14.78 E11.04847
G1 X15.788 Y14.986 E11.08689
G1 X15.03 Y15.114 E11.12524
G1 X14.181 Y15.163 E11.16767
G1 X-5.819 Y15.163 E12.16547
G1 X-6.587 Y15.123 E12.20384
G1 X-7.347 Y15.004 E12.24222
G1 X-8.09 Y14.806 E12.28058
G1 X-8.809 Y14.532 E12.31897
G1 X-9.495 Y14.185 E12.35732
G1 X-10.142 Y13.769 E12.3957
G1 X-10.742 Y13.288 E12.43406
G1 X-11.289 Y12.747 E12.47245
G1 X-11.777 Y12.152 E12.51084
G1 X-12.2 Y11.51 E12.54919
G1 X-12.555 Y10.827 E12.5876
G1 X-12.836 Y10.112 E12.62592
G1 X-13.042 Y9.37 E12.66434
G1 X-13.17 Y8.612 E12.7027
G1 X-13.219 Y7.763 E12.74512
G0 F3600 X-12.819 Y7.763
G1 F1800 X-12.819 Y-12.237 E13.74293
G1 X-12.779 Y-12.984 E13.78025
G1 X-12.66 Y-13.722 E13.81754
G1 X-12.462 Y-14.444 E13.85489
G1 X-12.189 Y-15.14 E13.89219
G1 X-11.842 Y-15.803 E13.92953
G1 X-11.427 Y-16.426 E13.96687
G1 X-10.948 Y-17 E14.00417
G1 X-10.411 Y-17.521 E14.0415
G1 X-9.821 Y-17.98 E14.07879
G1 X-9.185 Y-18.375 E14.11614
G1 X-8.511 Y-18.699 E14.15345
G1 X-7.806 Y-18.949 E14.19077
G1 X-7.078 Y-19.123 E14.22812
G1 X-6.336 Y-19.218 E14.26544
G1 X-5.819 Y-19.237 E14.29125
G1 X14.181 Y-19.237 E15.28905
G1 X14.928 Y-19.197 E15.32637
G1 X15.666 Y-19.078 E15.36367
G1 X16.388 Y-18.88 E15.40102
G1 X17.084 Y-18.607 E15.43832
G1 X17.747 Y-18.26 E15.47565
G1 X18.37 Y-17.845 E15.513
G1 X18.944 Y-17.366 E15.55029
G1 X19.465 Y-16.829 E15.58762
G1 X19.924 Y-16.239 E15.62492
G1 X20.319 Y-15.603 E15.66227
G1 X20.643 Y-14.929 E15.69958
G1 X20.893 Y-14.224 E15.7369
G1 X21.067 Y-13.496 E15.77424
G1 X21.162 Y-12.754 E15.81156
G1 X21.181 Y-12.237 E15.83737
G1 X21.181 Y7.763 E16.83518
G1 X21.141 Y8.51 E16.8725
G1 X21.022 Y9.248 E16.90979
G1 X20.824 Y9.97 E16.94714
G1 X20.551 Y10.666 E16.98444
G1 X20.204 Y11.329 E17.02177
G1 X19.789 Y11.952 E17.05912
G1 X19.31 Y12.526 E17.09642
G1 X18.773 Y13.047 E17.13375
G1 X18.183 Y13.506 E17.17104
G1 X17.547 Y13.901 E17.20839
G1 X16.873 Y14.225 E17.2457
G1 X16.168 Y14.475 E17.28302
G1 X15.44 Y14.649 E17.32036
G1 X14.698 Y14.744 E17.35768
G1 X14.181 Y14.763 E17.3835
G1 X-5.819 Y14.763 E18.3813
G1 X-6.566 Y14.723 E18.41862
G1 X-7.304 Y14.604 E18.45592
G1 X-8.026 Y14.406 E18.49327
G1 X-8.722 Y14.133 E18.53057
G1 X-9.385 Y13.786 E18.5679
G1 X-10.008 Y13.371 E18.60524
G1 X-10.582 Y12.892 E18.64254
G1 X-11.103 Y12.355 E18.67987
G1 X-11.562 Y11.765 E18.71717
G1 X-11.957 Y11.129 E18.75452
G1 X-12.281 Y10.455 E18.79183
G1 X-12.531 Y9.75 E18.82914
G1 X-12.705 Y9.022 E18.86649
G1 X-12.8 Y8.28 E18.90381
G1 X-12.819 Y7.763 E18.92962
G0 F3600 X-12.419 Y7.763
G1 F1800 X-12.419 Y-12.237 E19.92742
G1 X-12.379 Y-12.962 E19.96365
G1 X-12.26 Y-13.679 E19.99991
G1 X-12.062 Y-14.378 E20.03615
G1 X-11.789 Y-15.051 E20.07239
G1 X-11.444 Y-15.69 E20.10862
G1 X-11.03 Y-16.287 E20.14486
G1 X-10.554 Y-16.835 E20.18108
G1 X-10.02 Y-17.328 E20.21734
G1 X-9.435 Y-17.758 E20.25356
G1 X-8.806 Y-18.122 E20.28981
G1 X-8.141 Y-18.415 E20.32607
G1 X-7.448 Y-18.633 E20.36231
G1 X-6.736 Y-18.773 E20.39852
G1 X-5.819 Y-18.837 E20.44438
G1 X14.181 Y-18.837 E21.44218
G1 X14.906 Y-18.797 E21.47841
G1 X15.623 Y-18.678 E21.51467
G1 X16.322 Y-18.48 E21.55091
G1 X16.995 Y-18.207 E21.58714
G1 X17.634 Y-17.862 E21.62337
G1 X18.231 Y-17.448 E21.65962
G1 X18.779 Y-16.972 E21.69583
G1 X19.272 Y-16.438 E21.73209
G1 X19.702 Y-15.853 E21.76831
G1 X20.066 Y-15.224 E21.80457
G1 X20.359 Y-14.559 E21.84083
G1 X20.577 Y-13.866 E21.87707
G1 X20.717 Y-13.154 E21.91327
G1 X20.781 Y-12.237 E21.95913
G1 X20.781 Y7.763 E22.95694
G1 X20.741 Y8.488 E22.99316
G1 X20.622 Y9.205 E23.02942
G1 X20.424 Y9.904 E23.06567
G1 X20.151 Y10.577 E23.1019
G1 X19.806 Y11.216 E23.13813
G1 X19.392 Y11.813 E23.17438
G1 X18.916 Y12.361 E23.21059
G1 X18.382 Y12.854 E23.24685
G1 X17.797 Y13.284 E23.28307
G1 X17.168 Y13.648 E23.31933
G1 X16.503 Y13.941 E23.35558
G1 X15.81 Y14.159 E23.39183
G1 X15.098 Y14.299 E23.42803
G1 X14.181 Y14.363 E23.47389
G1 X-5.819 Y14.363 E24.47169
G1 X-6.544 Y14.323 E24.50792
G1 X-7.261 Y14.204 E24.54418
G1 X-7.96 Y14.006 E24.58042
G1 X-8.633 Y13.733 E24.61666
G1 X-9.272 Y13.388 E24.65289
G1 X-9.869 Y12.974 E24.68913
G1 X-10.417 Y12.498 E24.72535
G1 X-10.91 Y11.964 E24.7616
G1 X-11.34 Y11.379 E24.79783
G1 X-11.704 Y10.75 E24.83408
G1 X-11.997 Y10.085 E24.87034
G1 X-12.215 Y9.392 E24.90658
G1 X-12.355 Y8.68 E24.94278
G1 X-12.419 Y7.763 E24.98864
G0 F3600 X-12.019 Y7.763
G1 F1800 X-12.019 Y-12.237 E25.98645
G1 X-11.979 Y-12.94 E26.02158
G1 X-11.86 Y-13.634 E26.05671
G1 X-11.662 Y-14.309 E26.0918
G1 X-11.39 Y-14.958 E26.12691
G1 X-11.045 Y-15.572 E26.16205
G1 X-10.634 Y-16.143 E26.19715
G1 X-10.16 Y-16.664 E26.23229
G1 X-9.63 Y-17.128 E26.26743
G1 X-9.051 Y-17.528 E26.30254
G1 X-8.43 Y-17.86 E26.33767
G1 X-7.776 Y-18.12 E26.37278
G1 X-7.096 Y-18.304 E26.40793
G1 X-6.4 Y-18.41 E26.44305
G1 X-5.819 Y-18.437 E26.47207
G1 X14.181 Y-18.437 E27.46987
G1 X14.884 Y-18.397 E27.505
G1 X15.578 Y-18.278 E27.54013
G1 X16.253 Y-18.08 E27.57523
G1 X16.902 Y-17.808 E27.61033
G1 X17.516 Y-17.463 E27.64547
G1 X18.087 Y-17.052 E27.68057
G1 X18.608 Y-16.578 E27.71571
G1 X19.072 Y-16.048 E27.75086
G1 X19.472 Y-15.469 E27.78596
G1 X19.804 Y-14.848 E27.8211
G1 X20.064 Y-14.194 E27.85621
G1 X20.248 Y-13.514 E27.89135
G1 X20.354 Y-12.818 E27.92648
G1 X20.381 Y-12.237 E27.95549
G1 X20.381 Y7.763 E28.9533
G1 X20.341 Y8.466 E28.98843
G1 X20.222 Y9.16 E29.02356
G1 X20.024 Y9.835 E29.05865
G1 X19.752 Y10.484 E29.09376
G1 X19.407 Y11.098 E29.1289
G1 X18.996 Y11.669 E29.164
G1 X18.522 Y12.19 E29.19914
G1 X17.992 Y12.654 E29.23428
G1 X17.413 Y13.054 E29.26939
G1 X16.792 Y13.386 E29.30452
G1 X16.138 Y13.646 E29.33963
G1 X15.458 Y13.83 E29.37478
G1 X14.762 Y13.936 E29.4099
G1 X14.181 Y13.963 E29.43892
G1 X-5.819 Y13.963 E30.43672
G1 X-6.522 Y13.923 E30.47185
G1 X-7.216 Y13.804 E30.50698
G1 X-7.891 Y13.606 E30.54208
G1 X-8.54 Y13.334 E30.57718
G1 X-9.154 Y12.989 E30.61232
G1 X-9.725 Y12.578 E30.64742
G1 X-10.246 Y12.104 E30.68256
G1 X-10.71 Y11.574 E30.71771
G1 X-11.11 Y10.995 E30.75281
G1 X-11.442 Y10.374 E30.78795
G1 X-11.702 Y9.72 E30.82306
G1 X-11.886 Y9.04 E30.8582
G1 X-11.992 Y8.344 E30.89333
G1 X-12.019 Y7.763 E30.92235
G0 F3600 X-11.619 Y7.763
G1 F1800 X-11.619 Y-12.237 E31.92015
G1 X-11.579 Y-12.917 E31.95413
G1 X-11.46 Y-13.587 E31.98808
G1 X-11.263 Y-14.239 E32.02206
G1 X-10.991 Y-14.863 E32.05602
G1 X-10.647 Y-15.451 E32.09001
G1 X-10.237 Y-15.995 E32.124
G1 X-9.766 Y-16.486 E32.15794
G1 X-9.241 Y-16.92 E32.19192
G1 X-8.669 Y-17.289 E32.22588
G1 X-8.057 Y-17.588 E32.25987
G1 X-7.415 Y-17.813 E32.29381
G1 X-6.75 Y-17.962 E32.32781
G1 X-5.819 Y-18.037 E32.3744
G1 X14.181 Y-18.037 E33.37221
G1 X14.861 Y-17.997 E33.40619
G1 X15.531 Y-17.878 E33.44014
G1 X16.183 Y-17.681 E33.47412
G1 X16.807 Y-17.409 E33.50808
G1 X17.395 Y-17.065 E33.54207
G1 X17.939 Y-16.655 E33.57605
G1 X18.43 Y-16.184 E33.61
G1 X18.864 Y-15.659 E33.64398
G1 X19.233 Y-15.087 E33.67794
G1 X19.532 Y-14.475 E33.71192
G1 X19.757 Y-13.833 E33.74586
G1 X19.906 Y-13.168 E33.77986
G1 X19.981 Y-12.237 E33.82646
G1 X19.981 Y7.763 E34.82427
G1 X19.941 Y8.443 E34.85825
G1 X19.822 Y9.113 E34.8922
G1 X19.625 Y9.765 E34.92618
G1 X19.353 Y10.389 E34.96014
G1 X19.009 Y10.977 E34.99413
G1 X18.599 Y11.521 E35.02811
G1 X18.128 Y12.012 E35.06206
G1 X17.603 Y12.446 E35.09604
G1 X17.031 Y12.815 E35.13
G1 X16.419 Y13.114 E35.16398
G1 X15.777 Y13.339 E35.19792
G1 X15.112 Y13.488 E35.23192
G1 X14.181 Y13.563 E35.27852
G1 X-5.819 Y13.563 E36.27632
G1 X-6.499 Y13.523 E36.31031
G1 X-7.169 Y13.404 E36.34426
G1 X-7.821 Y13.207 E36.37824
G1 X-8.445 Y12.935 E36.4122
G1 X-9.033 Y12.591 E36.44619
G1 X-9.577 Y12.181 E36.48017
G1 X-10.068 Y11.71 E36.51412
G1 X-10.502 Y11.185 E36.5481
G1 X-10.871 Y10.613 E36.58206
G1 X-11.17 Y10.001 E36.61604
G1 X-11.395 Y9.359 E36.64998
G1 X-11.544 Y8.694 E36.68398
G1 X-11.619 Y7.763 E36.73058
G0 F3600 X-11.219 Y7.763
G1 F1800 X-11.219 Y-12.237 E37.72838
G1 X-11.179 Y-12.893 E37.76117
G1 X-11.06 Y-13.539 E37.79394
G1 X-10.863 Y-14.166 E37.82673
G1 X-10.591 Y-14.764 E37.85951
G1 X-10.249 Y-15.325 E37.89229
G1 X-9.841 Y-15.84 E37.92507
G1 X-9.374 Y-16.302 E37.95784
G1 X-8.854 Y-16.703 E37.9906
G1 X-8.29 Y-17.039 E38.02335
G1 X-7.688 Y-17.303 E38.05615
G1 X-7.059 Y-17.493 E38.08893
G1 X-6.412 Y-17.604 E38.12168
G1 X-5.819 Y-17.637 E38.15131
G1 X14.181 Y-17.637 E39.14911
G1 X14.837 Y-17.597 E39.1819
G1 X15.483 Y-17.478 E39.21467
G1 X16.11 Y-17.281 E39.24746
G1 X16.708 Y-17.009 E39.28024
G1 X17.269 Y-16.667 E39.31302
G1 X17.784 Y-16.259 E39.3458
G1 X18.246 Y-15.792 E39.37857
G1 X18.647 Y-15.272 E39.41133
G1 X18.983 Y-14.708 E39.44408
G1 X19.247 Y-14.106 E39.47688
G1 X19.437 Y-13.477 E39.50966
G1 X19.548 Y-12.83 E39.54241
G1 X19.581 Y-12.237 E39.57204
G1 X19.581 Y7.763 E40.56985
G1 X19.541 Y8.419 E40.60263
G1 X19.422 Y9.065 E40.63541
G1 X19.225 Y9.692 E40.6682
G1 X18.953 Y10.29 E40.70097
G1 X18.611 Y10.851 E40.73375
G1 X18.203 Y11.366 E40.76653
G1 X17.736 Y11.828 E40.7993
G1 X17.216 Y12.229 E40.83206
G1 X16.652 Y12.565 E40.86482
G1 X16.05 Y12.829 E40.89761
G1 X15.421 Y13.019 E40.93039
G1 X14.774 Y13.13 E40.96314
G1 X14.181 Y13.163 E40.99277
G1 X-5.819 Y13.163 E41.99058
G1 X-6.475 Y13.123 E42.02337
G1 X-7.121 Y13.004 E42.05614
G1 X-7.748 Y12.807 E42.08893
G1 X-8.346 Y12.535 E42.1217
G1 X-8.907 Y12.193 E42.15448
G1 X-9.422 Y11.785 E42.18726
G1 X-9.884 Y11.318 E42.22003
G1 X-10.285 Y10.798 E42.2528
G1 X-10.621 Y10.234 E42.28555
G1 X-10.885 Y9.632 E42.31834
G1 X-11.075 Y9.003 E42.35112
G1 X-11.186 Y8.356 E42.38388
G1 X-11.219 Y7.763 E42.41351
G0 F3600 X-10.819 Y7.763
G1 F1800 X-10.819 Y-12.237 E43.41131
G1 X-10.779 Y-12.868 E43.44285
G1 X-10.66 Y-13.489 E43.4744
G1 X-10.463 Y-14.089 E43.50591
G1 X-10.192 Y-14.661 E43.53748
G1 X-9.852 Y-15.193 E43.56898
G1 X-9.446 Y-15.678 E43.60054
G1 X-8.983 Y-16.108 E43.63206
G1 X-8.469 Y-16.477 E43.66363
G1 X-7.913 Y-16.777 E43.69515
G1 X-7.324 Y-17.005 E43.72666
G1 X-6.71 Y-17.157 E43.75822
G1 X-5.819 Y-17.237 E43.80285
G1 X14.181 Y-17.237 E44.80065
G1 X14.812 Y-17.197 E44.8322
G1 X15.433 Y-17.078 E44.86374
G1 X16.033 Y-16.881 E44.89525
G1 X16.605 Y-16.61 E44.92683
G1 X17.137 Y-16.27 E44.95832
G1 X17.622 Y-15.864 E44.98988
G1 X18.052 Y-15.401 E45.0214
G1 X18.421 Y-14.887 E45.05297
G1 X18.721 Y-14.331 E45.08449
G1 X18.949 Y-13.742 E45.116
G1 X19.101 Y-13.128 E45.14756
G1 X19.181 Y-12.237 E45.19219
G1 X19.181 Y7.763 E46.18999
G1 X19.141 Y8.394 E46.22154
G1 X19.022 Y9.015 E46.25308
G1 X18.825 Y9.615 E46.28459
G1 X18.554 Y10.187 E46.31617
G1 X18.214 Y10.719 E46.34767
G1 X17.808 Y11.204 E46.37922
G1 X17.345 Y11.634 E46.41075
G1 X16.831 Y12.003 E46.44231
G1 X16.275 Y12.303 E46.47383
G1 X15.686 Y12.531 E46.50534
G1 X15.072 Y12.683 E46.5369
G1 X14.181 Y12.763 E46.58153
G1 X-5.819 Y12.763 E47.57934
G1 X-6.45 Y12.723 E47.61088
G1 X-7.071 Y12.604 E47.64243
G1 X-7.671 Y12.407 E47.67393
G1 X-8.243 Y12.136 E47.70551
G1 X-8.775 Y11.796 E47.73701
G1 X-9.26 Y11.39 E47.76856
G1 X-9.69 Y10.927 E47.80009
G1 X-10.059 Y10.413 E47.83166
G1 X-10.359 Y9.857 E47.86318
G1 X-10.587 Y9.268 E47.89469
G1 X-10.739 Y8.654 E47.92624
G1 X-10.819 Y7.763 E47.97087
G0 F3600 X-10.419 Y7.763
G1 F1800 X-10.419 Y-12.237 E48.96868
G1 X-10.379 Y-12.842 E48.99893
G1 X-10.26 Y-13.436 E49.02915
G1 X-10.064 Y-14.01 E49.05941
G1 X-9.793 Y-14.553 E49.08969
G1 X-9.454 Y-15.056 E49.11995
G1 X-9.052 Y-15.509 E49.15017
G1 X-8.594 Y-15.906 E49.18041
G1 X-8.087 Y-16.239 E49.21067
G1 X-7.541 Y-16.503 E49.24093
G1 X-6.965 Y-16.692 E49.27117
G1 X-6.369 Y-16.804 E49.30142
G1 X-5.819 Y-16.837 E49.32891
G1 X14.181 Y-16.837 E50.32672
G1 X14.786 Y-16.797 E50.35697
G1 X15.38 Y-16.678 E50.38719
G1 X15.954 Y-16.482 E50.41745
G1 X16.497 Y-16.211 E50.44773
G1 X17 Y-15.872 E50.47799
G1 X17.453 Y-15.47 E50.50821
G1 X17.85 Y-15.012 E50.53845
G1 X18.183 Y-14.505 E50.56871
G1 X18.447 Y-13.959 E50.59896
G1 X18.636 Y-13.383 E50.62921
G1 X18.748 Y-12.787 E50.65946
G1 X18.781 Y-12.237 E50.68695
G1 X18.781 Y7.763 E51.68476
G1 X18.741 Y8.368 E51.71501
G1 X18.622 Y8.962 E51.74523
G1 X18.426 Y9.536 E51.77549
G1 X18.155 Y10.079 E51.80577
G1 X17.816 Y10.582 E51.83603
G1 X17.414 Y11.035 E51.86625
G1 X16.956 Y11.432 E51.89648
G1 X16.449 Y11.765 E51.92675
G1 X15.903 Y12.029 E51.957
G1 X15.327 Y12.218 E51.98725
G1 X14.731 Y12.33 E52.0175
G1 X14.181 Y12.363 E52.04499
G1 X-5.819 Y12.363 E53.0428
G1 X-6.424 Y12.323 E53.07305
G1 X-7.018 Y12.204 E53.10327
G1 X-7.592 Y12.008 E53.13353
G1 X-8.135 Y11.737 E53.16381
G1 X-8.638 Y11.398 E53.19407
