; generated by PrusaSlicer 2.3.3+win64 on 2021-12-22 at 13:42:01 UTC

; 

; external perimeters extrusion width = 0.45mm
; perimeters extrusion width = 0.45mm
; infill extrusion width = 0.45mm
; solid infill extrusion width = 0.45mm
; top infill extrusion width = 0.40mm
; first layer extrusion width = 0.42mm

M107
M190 S60 ; set bed temperature and wait for it to be reached
M104 S215 ; set temperature
;TYPE:Custom
M109 S215 ; set temperature and wait for it to be reached
G21 ; set units to millimeters
G90 ; use absolute coordinates
M83 ; use relative distances for extrusion
; Filament gcode
;LAYER_CHANGE
;Z:0.4
;HEIGHT:0.4

G1 E-5.00000 F3600.000
G1 Z0.400 F9000.000
G1 X109.032 Y108.898
G1 E5.00000 F2400.000
M204 S500
;TYPE:Skirt
;WIDTH:0.42
G1 F900
G1 X109.782 Y108.300 E0.05331
G1 X110.616 Y107.866 E0.05222
G1 X111.487 Y107.603 E0.05057
G1 X112.541 Y107.498 E0.05888
G1 X113.471 Y107.593 E0.05195
G1 X114.385 Y107.868 E0.05303
G1 X115.310 Y108.363 E0.05833
G1 X116.053 Y108.978 E0.05358
G1 X116.653 Y109.714 E0.05276
G1 X117.147 Y110.651 E0.05888
G1 X117.415 Y111.567 E0.05304
G1 X117.501 Y112.513 E0.05277
G1 X117.385 Y113.571 E0.05915
G1 X117.094 Y114.480 E0.05304
G1 X116.631 Y115.320 E0.05331
G1 X115.954 Y116.116 E0.05806
G1 X115.197 Y116.713 E0.05358
G1 X114.357 Y117.144 E0.05249
G1 X113.332 Y117.431 E0.05915
G1 X112.410 Y117.501 E0.05139
G1 X111.495 Y117.400 E0.05113
G1 X110.588 Y117.121 E0.05276
G1 X109.673 Y116.626 E0.05778
G1 X108.933 Y116.008 E0.05359
G1 X108.339 Y115.274 E0.05249
G1 X107.849 Y114.340 E0.05860
G1 X107.584 Y113.428 E0.05276
G1 X107.499 Y112.487 E0.05249
G1 X107.614 Y111.434 E0.05888
G1 X107.902 Y110.529 E0.05276
G1 X108.363 Y109.688 E0.05331
G1 X108.993 Y108.944 E0.05418
G1 X109.247 Y109.159 F9000.000
G1 F900
G1 X109.972 Y108.575 E0.05175
G1 X110.747 Y108.174 E0.04847
G1 X111.555 Y107.931 E0.04689
G1 X112.542 Y107.832 E0.05515
G1 X113.410 Y107.921 E0.04847
G1 X114.258 Y108.177 E0.04924
G1 X115.129 Y108.643 E0.05489
G1 X115.818 Y109.216 E0.04977
G1 X116.375 Y109.899 E0.04899
G1 X116.839 Y110.781 E0.05541
G1 X117.087 Y111.632 E0.04925
G1 X117.167 Y112.515 E0.04925
G1 X117.057 Y113.506 E0.05541
G1 X116.784 Y114.354 E0.04951
G1 X116.353 Y115.134 E0.04951
G1 X115.716 Y115.882 E0.05462
G1 X115.012 Y116.435 E0.04977
G1 X114.231 Y116.835 E0.04873
G1 X113.271 Y117.102 E0.05541
G1 X112.411 Y117.167 E0.04793
G1 X111.562 Y117.073 E0.04742
G1 X110.720 Y116.814 E0.04898
G1 X109.859 Y116.349 E0.05436
G1 X109.169 Y115.771 E0.05003
G1 X108.620 Y115.093 E0.04846
G1 X108.159 Y114.214 E0.05515
G1 X107.913 Y113.368 E0.04899
G1 X107.833 Y112.485 E0.04925
G1 X107.942 Y111.499 E0.05515
G1 X108.212 Y110.655 E0.04925
G1 X108.641 Y109.874 E0.04951
G1 X109.208 Y109.205 E0.04875
G1 X109.462 Y109.420 F9000.000
G1 F900
G1 X110.155 Y108.855 E0.04969
G1 X110.874 Y108.483 E0.04499
G1 X111.621 Y108.258 E0.04337
G1 X112.544 Y108.167 E0.05150
G1 X113.344 Y108.249 E0.04474
G1 X114.128 Y108.485 E0.04548
G1 X114.940 Y108.919 E0.05114
G1 X115.580 Y109.450 E0.04623
G1 X116.097 Y110.085 E0.04548
G1 X116.530 Y110.907 E0.05164
G1 X116.758 Y111.693 E0.04548
G1 X116.833 Y112.513 E0.04574
G1 X116.731 Y113.436 E0.05164
G1 X116.478 Y114.220 E0.04573
G1 X116.078 Y114.944 E0.04598
G1 X115.484 Y115.641 E0.05089
G1 X114.834 Y116.152 E0.04598
G1 X114.105 Y116.525 E0.04549
G1 X113.210 Y116.774 E0.05164
G1 X112.411 Y116.833 E0.04448
G1 X111.629 Y116.746 E0.04374
G1 X110.847 Y116.504 E0.04548
G1 X110.045 Y116.071 E0.05064
G1 X109.408 Y115.537 E0.04623
G1 X108.898 Y114.908 E0.04498
G1 X108.469 Y114.089 E0.05139
G1 X108.241 Y113.303 E0.04548
G1 X108.167 Y112.487 E0.04548
G1 X108.269 Y111.564 E0.05164
G1 X108.520 Y110.785 E0.04548
G1 X108.917 Y110.063 E0.04573
G1 X109.423 Y109.466 E0.04353
G1 E-3.50000 F3600.000
;WIPE_START
G1 F7200.000
G1 X110.155 Y108.855 E-0.45277
G1 X110.874 Y108.483 E-0.38454
G1 X111.621 Y108.258 E-0.37075
G1 X112.076 Y108.213 E-0.21695
;WIPE_END
G1 E-0.07500 F3600.000
G1 X112.170 Y112.189 F9000.000
G1 E5.00000 F2400.000
;TYPE:Perimeter
G1 F900
G1 X112.245 Y112.126 E0.00549
G1 X112.382 Y112.066 E0.00829
G1 X112.521 Y112.051 E0.00777
G1 X112.693 Y112.090 E0.00982
G1 X112.835 Y112.194 E0.00975
G1 X112.892 Y112.274 E0.00547
G1 X112.942 Y112.416 E0.00836
G1 X112.947 Y112.549 E0.00741
G1 X112.910 Y112.684 E0.00775
G1 X112.830 Y112.811 E0.00834
G1 X112.676 Y112.914 E0.01032
G1 X112.531 Y112.952 E0.00834
G1 X112.347 Y112.923 E0.01032
G1 X112.215 Y112.852 E0.00834
G1 X112.146 Y112.782 E0.00549
G1 X112.076 Y112.649 E0.00836
G1 X112.047 Y112.496 E0.00862
G1 X112.090 Y112.316 E0.01029
G1 X112.138 Y112.240 E0.00500
G1 X111.985 Y111.902 F9000.000
;TYPE:External perimeter
G1 F900
G1 X112.078 Y111.834 E0.00644
G1 X112.296 Y111.739 E0.01317
G1 X112.535 Y111.714 E0.01337
G1 X112.768 Y111.758 E0.01319
G1 X112.862 Y111.799 E0.00568
G1 X113.063 Y111.948 E0.01394
G1 X113.196 Y112.129 E0.01248
G1 X113.274 Y112.353 E0.01319
G1 X113.283 Y112.588 E0.01303
G1 X113.219 Y112.820 E0.01336
G1 X113.093 Y113.020 E0.01319
G1 X113.021 Y113.092 E0.00566
G1 X112.810 Y113.224 E0.01381
G1 X112.581 Y113.285 E0.01319
G1 X112.479 Y113.289 E0.00566
G1 X112.235 Y113.241 E0.01381
G1 X112.025 Y113.130 E0.01319
G1 X111.942 Y113.059 E0.00609
G1 X111.867 Y112.970 E0.00644
G1 X111.757 Y112.760 E0.01319
G1 X111.711 Y112.522 E0.01350
G1 X111.715 Y112.420 E0.00565
G1 X111.781 Y112.180 E0.01381
G1 X111.942 Y111.945 E0.01589
G1 X112.096 Y111.932 F9000.000
G1 X112.423 Y112.163
;TYPE:Solid infill
;WIDTH:0.45392
G1 F900
G1 X112.677 Y112.416 E0.02198
G1 X112.695 Y112.520 E0.00645
G1 X112.634 Y112.644 E0.00846
G1 X112.500 Y112.697 E0.00881
G1 X112.438 Y112.685 E0.00384
G1 X112.164 Y112.425 E0.02315
M106 S255
;LAYER_CHANGE
;Z:0.7
;HEIGHT:0.3

G1 E-3.50000 F3600.000
;WIPE_START
G1 F7200.000
G1 X112.438 Y112.685 E-0.17966
G1 X112.500 Y112.697 E-0.02982
G1 X112.634 Y112.644 E-0.06838
G1 X112.695 Y112.520 E-0.06568
G1 X112.677 Y112.416 E-0.05002
G1 X112.423 Y112.163 E-0.17056
;WIPE_END
G1 E-0.93588 F3600.000
G1 Z0.700 F9000.000
M104 S210 ; set temperature
G1 X112.541 Y107.498
G1 E5.00000 F2400.000
;TYPE:Skirt
;WIDTH:0.42
G1 F900
G1 X113.471 Y107.593 E0.04146
G1 X114.385 Y107.868 E0.04233
G1 X115.310 Y108.363 E0.04656
G1 X116.053 Y108.978 E0.04277
G1 X116.653 Y109.714 E0.04211
G1 X117.147 Y110.651 E0.04699
G1 X117.415 Y111.567 E0.04233
G1 X117.501 Y112.513 E0.04212
G1 X117.385 Y113.571 E0.04721
G1 X117.094 Y114.480 E0.04233
G1 X116.631 Y115.320 E0.04255
G1 X115.954 Y116.116 E0.04634
G1 X115.197 Y116.713 E0.04277
G1 X114.357 Y117.144 E0.04190
G1 X113.332 Y117.431 E0.04721
G1 X112.410 Y117.501 E0.04102
G1 X111.495 Y117.400 E0.04081
G1 X110.588 Y117.121 E0.04211
G1 X109.673 Y116.626 E0.04612
G1 X108.933 Y116.008 E0.04277
G1 X108.339 Y115.274 E0.04190
G1 X107.849 Y114.340 E0.04678
G1 X107.584 Y113.428 E0.04211
G1 X107.499 Y112.487 E0.04190
G1 X107.614 Y111.434 E0.04700
G1 X107.902 Y110.529 E0.04211
G1 X108.363 Y109.688 E0.04255
G1 X109.032 Y108.898 E0.04590
G1 X109.782 Y108.300 E0.04255
G1 X110.616 Y107.866 E0.04168
G1 X111.487 Y107.603 E0.04036
G1 X112.481 Y107.504 E0.04433
G1 X112.514 Y107.835 F9000.000
G1 F900
G1 X113.410 Y107.921 E0.03991
G1 X114.258 Y108.177 E0.03931
G1 X115.129 Y108.643 E0.04381
G1 X115.818 Y109.216 E0.03973
G1 X116.375 Y109.899 E0.03910
G1 X116.839 Y110.781 E0.04423
G1 X117.087 Y111.632 E0.03931
G1 X117.167 Y112.515 E0.03931
G1 X117.057 Y113.506 E0.04423
G1 X116.784 Y114.354 E0.03952
G1 X116.353 Y115.134 E0.03952
G1 X115.716 Y115.882 E0.04360
G1 X115.012 Y116.435 E0.03972
G1 X114.231 Y116.835 E0.03889
G1 X113.271 Y117.102 E0.04423
G1 X112.411 Y117.167 E0.03826
G1 X111.562 Y117.073 E0.03785
G1 X110.720 Y116.814 E0.03910
G1 X109.859 Y116.349 E0.04339
G1 X109.169 Y115.771 E0.03994
G1 X108.620 Y115.093 E0.03868
G1 X108.159 Y114.214 E0.04402
G1 X107.913 Y113.368 E0.03910
G1 X107.833 Y112.485 E0.03931
G1 X107.942 Y111.499 E0.04402
G1 X108.212 Y110.655 E0.03931
G1 X108.641 Y109.874 E0.03952
G1 X109.271 Y109.131 E0.04318
G1 X109.972 Y108.575 E0.03972
G1 X110.747 Y108.174 E0.03868
G1 X111.555 Y107.931 E0.03742
G1 X112.454 Y107.841 E0.04011
G1 X112.487 Y108.172 F9000.000
G1 F900
G1 X113.344 Y108.249 E0.03817
G1 X114.128 Y108.485 E0.03630
G1 X114.940 Y108.919 E0.04082
G1 X115.580 Y109.450 E0.03690
G1 X116.097 Y110.085 E0.03630
G1 X116.530 Y110.907 E0.04122
G1 X116.758 Y111.693 E0.03630
G1 X116.833 Y112.513 E0.03650
G1 X116.731 Y113.436 E0.04122
G1 X116.478 Y114.220 E0.03650
G1 X116.078 Y114.944 E0.03670
G1 X115.484 Y115.641 E0.04062
G1 X114.834 Y116.152 E0.03670
G1 X114.105 Y116.525 E0.03631
G1 X113.210 Y116.774 E0.04122
G1 X112.411 Y116.833 E0.03550
G1 X111.629 Y116.746 E0.03491
G1 X110.847 Y116.504 E0.03630
G1 X110.045 Y116.071 E0.04042
G1 X109.408 Y115.537 E0.03690
G1 X108.898 Y114.908 E0.03591
G1 X108.469 Y114.089 E0.04102
G1 X108.241 Y113.303 E0.03630
G1 X108.167 Y112.487 E0.03630
G1 X108.269 Y111.564 E0.04122
G1 X108.520 Y110.785 E0.03630
G1 X108.917 Y110.063 E0.03650
G1 X109.506 Y109.369 E0.04042
G1 X110.155 Y108.855 E0.03670
G1 X110.874 Y108.483 E0.03591
G1 X111.621 Y108.258 E0.03462
G1 X112.428 Y108.178 E0.03593
G1 E-3.50000 F3600.000
;WIPE_START
G1 F7200.000
G1 X113.344 Y108.249 E-0.43680
G1 X114.128 Y108.485 E-0.38876
G1 X114.940 Y108.919 E-0.43715
G1 X115.203 Y109.137 E-0.16229
;WIPE_END
G1 E-0.07500 F3600.000
G1 X112.502 Y112.114 F9000.000
G1 E5.00000 F2400.000
;TYPE:Perimeter
;WIDTH:0.45
G1 F900
G1 X112.677 Y112.155 E0.00864
G1 X112.820 Y112.285 E0.00929
G1 X112.876 Y112.428 E0.00736
G1 X112.880 Y112.543 E0.00555
G1 X112.851 Y112.653 E0.00548
G1 X112.756 Y112.791 E0.00803
G1 X112.600 Y112.869 E0.00839
G1 X112.463 Y112.885 E0.00667
G1 X112.384 Y112.868 E0.00385
G1 X112.229 Y112.777 E0.00864
G1 X112.139 Y112.628 E0.00839
G1 X112.113 Y112.491 E0.00667
G1 X112.149 Y112.347 E0.00716
G1 X112.222 Y112.231 E0.00660
G1 X112.284 Y112.180 E0.00385
G1 X112.442 Y112.117 E0.00817
G1 X112.412 Y111.731 F9000.000
;TYPE:External perimeter
G1 F900
G1 X112.535 Y111.728 E0.00592
G1 X112.763 Y111.772 E0.01119
G1 X112.964 Y111.882 E0.01098
G1 X113.126 Y112.046 E0.01111
G1 X113.186 Y112.144 E0.00553
G1 X113.259 Y112.356 E0.01078
G1 X113.268 Y112.586 E0.01110
G1 X113.208 Y112.809 E0.01107
G1 X113.081 Y113.011 E0.01149
G1 X113.006 Y113.086 E0.00508
G1 X112.906 Y113.157 E0.00592
G1 X112.700 Y113.246 E0.01078
G1 X112.463 Y113.273 E0.01151
G1 X112.239 Y113.227 E0.01096
G1 X112.034 Y113.118 E0.01119
G1 X111.954 Y113.049 E0.00510
G1 X111.875 Y112.954 E0.00592
G1 X111.771 Y112.756 E0.01078
G1 X111.726 Y112.520 E0.01151
G1 X111.730 Y112.422 E0.00475
G1 X111.792 Y112.191 E0.01149
G1 X111.919 Y111.989 E0.01149
G1 X111.994 Y111.914 E0.00508
G1 X112.094 Y111.843 E0.00592
G1 X112.353 Y111.742 E0.01336
G1 X112.489 Y111.827 F9000.000
G1 X112.500 Y112.500
;TYPE:Gap fill
;WIDTH:0.435186
G1 F900
G1 X112.500 Y112.499 E0.00004
;LAYER_CHANGE
;Z:1
;HEIGHT:0.3

G1 E-3.50000 F3600.000
;WIPE_START
G1 F7200.000
G1 X112.500 Y112.500 E-0.00043
;WIPE_END
G1 E-1.49957 F3600.000
G1 Z1.000 F9000.000
G1 X112.725 Y112.196
G1 E5.00000 F2400.000
;TYPE:Perimeter
;WIDTH:0.45
G1 F900
G1 X112.808 Y112.265 E0.00519
G1 X112.876 Y112.427 E0.00845
G1 X112.876 Y112.594 E0.00804
G1 X112.779 Y112.768 E0.00957
G1 X112.710 Y112.823 E0.00423
G1 X112.601 Y112.869 E0.00571
G1 X112.463 Y112.885 E0.00671
G1 X112.379 Y112.865 E0.00413
G1 X112.254 Y112.798 E0.00682
G1 X112.203 Y112.748 E0.00345
G1 X112.139 Y112.626 E0.00660
G1 X112.113 Y112.491 E0.00660
G1 X112.145 Y112.352 E0.00688
G1 X112.221 Y112.232 E0.00682
G1 X112.290 Y112.177 E0.00423
G1 X112.450 Y112.116 E0.00826
G1 X112.676 Y112.160 E0.01109
G1 X112.905 Y111.850 F9000.000
;TYPE:External perimeter
G1 F900
G1 X113.053 Y111.959 E0.00883
G1 X113.121 Y112.038 E0.00504
G1 X113.189 Y112.151 E0.00633
G1 X113.259 Y112.356 E0.01039
G1 X113.268 Y112.595 E0.01152
G1 X113.248 Y112.698 E0.00504
G1 X113.202 Y112.821 E0.00633
G1 X113.082 Y113.011 E0.01080
G1 X112.899 Y113.161 E0.01137
G1 X112.701 Y113.246 E0.01039
G1 X112.463 Y113.273 E0.01152
G1 X112.232 Y113.224 E0.01133
G1 X112.034 Y113.118 E0.01080
G1 X111.882 Y112.966 E0.01033
G1 X111.771 Y112.755 E0.01149
G1 X111.726 Y112.520 E0.01149
G1 X111.731 Y112.413 E0.00516
G1 X111.798 Y112.179 E0.01174
G1 X111.918 Y111.989 E0.01080
G1 X111.993 Y111.915 E0.00508
G1 X112.101 Y111.839 E0.00633
G1 X112.307 Y111.751 E0.01080
G1 X112.543 Y111.729 E0.01137
G1 X112.763 Y111.772 E0.01080
G1 X112.857 Y111.814 E0.00496
G1 X112.904 Y112.033 F9000.000
G1 X112.500 Y112.500
;TYPE:Gap fill
;WIDTH:0.435186
G1 F900
G1 X112.499 Y112.499 E0.00008
;LAYER_CHANGE
;Z:1.3
;HEIGHT:0.3

G1 E-3.50000 F3600.000
;WIPE_START
G1 F7200.000
G1 X112.500 Y112.500 E-0.00077
;WIPE_END
G1 E-1.49923 F3600.000
G1 Z1.300 F9000.000
G1 X112.114 Y112.480
G1 E5.00000 F2400.000
;TYPE:Perimeter
;WIDTH:0.45
G1 F900
G1 X112.153 Y112.333 E0.00730
G1 X112.258 Y112.201 E0.00810
G1 X112.448 Y112.116 E0.01003
G1 X112.660 Y112.148 E0.01030
G1 X112.806 Y112.263 E0.00896
G1 X112.876 Y112.426 E0.00850
G1 X112.880 Y112.543 E0.00563
G1 X112.826 Y112.704 E0.00820
G1 X112.742 Y112.799 E0.00607
G1 X112.602 Y112.869 E0.00754
G1 X112.436 Y112.882 E0.00799
G1 X112.255 Y112.799 E0.00961
G1 X112.203 Y112.748 E0.00349
G1 X112.139 Y112.626 E0.00660
G1 X112.122 Y112.539 E0.00429
G1 X111.744 Y112.610 F9000.000
;TYPE:External perimeter
G1 F900
G1 X111.730 Y112.422 E0.00910
G1 X111.793 Y112.186 E0.01175
G1 X111.858 Y112.071 E0.00633
G1 X111.999 Y111.911 E0.01025
G1 X112.108 Y111.835 E0.00639
G1 X112.307 Y111.751 E0.01040
G1 X112.410 Y111.731 E0.00506
G1 X112.550 Y111.730 E0.00674
G1 X112.763 Y111.772 E0.01040
G1 X112.854 Y111.812 E0.00480
G1 X113.053 Y111.959 E0.01190
G1 X113.121 Y112.038 E0.00501
G1 X113.192 Y112.159 E0.00674
G1 X113.259 Y112.355 E0.00999
G1 X113.268 Y112.586 E0.01113
G1 X113.207 Y112.814 E0.01133
G1 X113.142 Y112.929 E0.00633
G1 X113.001 Y113.089 E0.01025
G1 X112.892 Y113.165 E0.00639
G1 X112.701 Y113.246 E0.00999
G1 X112.463 Y113.273 E0.01154
G1 X112.359 Y113.261 E0.00501
G1 X112.225 Y113.221 E0.00674
G1 X112.035 Y113.118 E0.01040
G1 X111.882 Y112.966 E0.01034
G1 X111.771 Y112.755 E0.01149
G1 X111.755 Y112.669 E0.00420
G1 X111.889 Y112.489 F9000.000
G1 X112.500 Y112.500
;TYPE:Gap fill
;WIDTH:0.435186
G1 F900
G1 X112.499 Y112.497 E0.00015
;LAYER_CHANGE
;Z:1.6
;HEIGHT:0.3

G1 E-3.50000 F3600.000
;WIPE_START
G1 F7200.000
G1 X112.500 Y112.500 E-0.00153
;WIPE_END
G1 E-1.49847 F3600.000
G1 Z1.600 F9000.000
G1 X112.349 Y112.153
G1 E5.00000 F2400.000
;TYPE:Perimeter
;WIDTH:0.45
G1 F900
G1 X112.446 Y112.117 E0.00502
G1 X112.646 Y112.142 E0.00965
G1 X112.789 Y112.243 E0.00846
G1 X112.842 Y112.326 E0.00473
G1 X112.876 Y112.425 E0.00502
G1 X112.876 Y112.590 E0.00795
G1 X112.780 Y112.766 E0.00965
G1 X112.648 Y112.854 E0.00765
G1 X112.486 Y112.887 E0.00798
G1 X112.367 Y112.861 E0.00583
G1 X112.226 Y112.774 E0.00798
G1 X112.139 Y112.626 E0.00825
G1 X112.113 Y112.491 E0.00660
G1 X112.124 Y112.410 E0.00396
G1 X112.220 Y112.234 E0.00965
G1 X112.294 Y112.177 E0.00447
G1 X111.995 Y111.913 F9000.000
;TYPE:External perimeter
G1 F900
G1 X112.081 Y111.849 E0.00516
G1 X112.308 Y111.750 E0.01190
G1 X112.558 Y111.731 E0.01208
G1 X112.762 Y111.772 E0.01000
G1 X112.854 Y111.812 E0.00482
G1 X113.053 Y111.959 E0.01190
G1 X113.195 Y112.166 E0.01208
G1 X113.259 Y112.355 E0.00959
G1 X113.268 Y112.595 E0.01156
G1 X113.195 Y112.835 E0.01208
G1 X113.082 Y113.010 E0.01000
G1 X113.005 Y113.087 E0.00523
G1 X112.781 Y113.218 E0.01249
G1 X112.580 Y113.270 E0.01000
G1 X112.471 Y113.274 E0.00523
G1 X112.217 Y113.218 E0.01249
G1 X112.035 Y113.118 E0.01000
G1 X111.952 Y113.048 E0.00523
G1 X111.882 Y112.966 E0.00516
G1 X111.771 Y112.755 E0.01149
G1 X111.726 Y112.520 E0.01149
G1 X111.751 Y112.303 E0.01051
G1 X111.805 Y112.165 E0.00716
G1 X111.952 Y111.955 E0.01230
G1 X112.098 Y111.943 F9000.000
G1 X112.501 Y112.502
;TYPE:Gap fill
;WIDTH:0.435186
G1 F900
G1 X112.500 Y112.500 E0.00011
;LAYER_CHANGE
;Z:1.9
;HEIGHT:0.3

G1 E-3.50000 F3600.000
;WIPE_START
G1 F7200.000
G1 X112.501 Y112.502 E-0.00111
;WIPE_END
G1 E-1.49889 F3600.000
G1 Z1.900 F9000.000
G1 X112.543 Y112.876
G1 E5.00000 F2400.000
;TYPE:Perimeter
;WIDTH:0.45
G1 F900
