; generated by PrusaSlicer 2.4.0+win64 on 2021-12-28 at 12:00:38 UTC

; 

; external perimeters extrusion width = 0.45mm
; perimeters extrusion width = 0.45mm
; infill extrusion width = 0.45mm
; solid infill extrusion width = 0.45mm
; top infill extrusion width = 0.40mm
; first layer extrusion width = 0.42mm

M107
M190 S60 ; set bed temperature and wait for it to be reached
M104 S215 ; set temperature
;TYPE:Custom
M109 S215 ; set temperature and wait for it to be reached
G21 ; set units to millimeters
G90 ; use absolute coordinates
M83 ; use relative distances for extrusion
; Filament gcode
M107
;LAYER_CHANGE
;Z:0.4
;HEIGHT:0.4

G1 E-5 F3600
G1 Z.4 F9000
G1 X99.536 Y99.536
G1 E5 F2400
M204 P500
;TYPE:Skirt/Brim
;WIDTH:0.42
G1 F1200
G1 X103.929 Y95.142 E.34527
G1 X105.32 Y94.309 E.09008
G1 X106.287 Y94.166 E.05434
G1 X118.713 Y94.166 E.69055
G1 X120.285 Y94.56 E.09008
G1 X121.071 Y95.142 E.05434
G1 X129.858 Y103.929 E.69055
G1 X130.691 Y105.32 E.09008
G1 X130.834 Y106.287 E.05434
G1 X130.834 Y118.713 E.69055
G1 X130.44 Y120.285 E.09008
G1 X129.858 Y121.071 E.05434
G1 X121.071 Y129.858 E.69055
G1 X119.68 Y130.691 E.09008
G1 X118.713 Y130.834 E.05434
G1 X106.287 Y130.834 E.69055
G1 X104.715 Y130.44 E.09008
G1 X103.929 Y129.858 E.05434
G1 X95.142 Y121.071 E.69055
G1 X94.309 Y119.68 E.09008
G1 X94.166 Y118.713 E.05434
G1 X94.166 Y106.287 E.69055
G1 X94.56 Y104.715 E.09008
G1 X95.142 Y103.929 E.05434
G1 X99.493 Y99.578 E.34194
G1 E-3.5 F3600
;WIPE_START
G1 F7200
G1 X101.615 Y97.457 E-1.425
;WIPE_END
G1 E-.075 F3600
G1 X98.427 Y106.271 F9000
G1 E5 F2400
;TYPE:Perimeter
G1 F1200
G1 X106.554 Y98.144 E.63866
G1 X118.446 Y98.144 E.66089
G1 X126.856 Y106.554 E.66089
G1 X126.856 Y118.446 E.66089
G1 X118.446 Y126.856 E.66089
G1 X106.554 Y126.856 E.66089
G1 X98.144 Y118.446 E.66089
G1 X98.144 Y106.554 E.66089
G1 X98.385 Y106.313 E.01889
G1 X97.81 Y106.415 F9000
;TYPE:External perimeter
G1 F1200
G1 X106.415 Y97.81 E.67628
G1 X118.585 Y97.81 E.67628
G1 X127.19 Y106.415 E.67628
G1 X127.19 Y118.585 E.67628
G1 X118.585 Y127.19 E.67628
G1 X106.415 Y127.19 E.67628
G1 X97.81 Y118.585 E.67628
G1 X97.81 Y106.475 E.67294
G1 X98.207 Y106.363 F9000
G1 E-3.5 F3600
;WIPE_START
G1 F7200
G1 X99.924 Y104.347 E-1.425
;WIPE_END
G1 E-.075 F3600
G1 X118.191 Y98.244 F9000
G1 E5 F2400
;TYPE:Solid infill
;WIDTH:0.42166
G1 F1200
G1 X126.605 Y106.659 E.66455
G1 X126.605 Y107.134 E.02652
G1 X117.866 Y98.395 E.69019
G1 X117.391 Y98.395 E.02652
G1 X126.605 Y107.609 E.7277
G1 X126.605 Y108.083 E.02652
G1 X116.917 Y98.395 E.76521
G1 X116.442 Y98.395 E.02652
G1 X126.605 Y108.558 E.80271
G1 X126.605 Y109.033 E.02652
G1 X115.967 Y98.395 E.84022
G1 X115.492 Y98.395 E.02652
G1 X126.605 Y109.508 E.87773
G1 X126.605 Y109.983 E.02652
G1 X115.017 Y98.395 E.91524
G1 X114.542 Y98.395 E.02652
G1 X126.605 Y110.458 E.95275
G1 X126.605 Y110.933 E.02652
G1 X114.067 Y98.395 E.99026
G1 X113.592 Y98.395 E.02652
G1 X126.605 Y111.408 E1.02777
G1 X126.605 Y111.883 E.02652
G1 X113.117 Y98.395 E1.06528
G1 X112.642 Y98.395 E.02652
G1 X126.605 Y112.358 E1.10279
G1 X126.605 Y112.833 E.02652
G1 X112.167 Y98.395 E1.14029
G1 X111.692 Y98.395 E.02652
G1 X126.605 Y113.308 E1.1778
G1 X126.605 Y113.782 E.02652
G1 X111.218 Y98.395 E1.21531
G1 X110.743 Y98.395 E.02652
G1 X126.605 Y114.257 E1.25282
G1 X126.605 Y114.732 E.02652
G1 X110.268 Y98.395 E1.29033
G1 X109.793 Y98.395 E.02652
G1 X126.605 Y115.207 E1.32784
G1 X126.605 Y115.682 E.02652
G1 X109.318 Y98.395 E1.36535
G1 X108.843 Y98.395 E.02652
G1 X126.605 Y116.157 E1.40286
G1 X126.605 Y116.632 E.02652
G1 X108.368 Y98.395 E1.44037
G1 X107.893 Y98.395 E.02652
G1 X126.605 Y117.107 E1.47787
G1 X126.605 Y117.582 E.02652
G1 X107.418 Y98.395 E1.51538
G1 X106.943 Y98.395 E.02652
G1 X126.605 Y118.057 E1.55289
G1 X126.605 Y118.343 E.01596
G1 X126.511 Y118.437 E.00747
G1 X106.563 Y98.489 E1.57547
G1 X106.325 Y98.727 E.01875
G1 X126.273 Y118.675 E1.57547
G1 X126.036 Y118.912 E.01875
G1 X106.088 Y98.964 E1.57547
G1 X105.851 Y99.202 E.01875
G1 X125.798 Y119.15 E1.57547
G1 X125.561 Y119.387 E.01875
G1 X105.613 Y99.439 E1.57547
G1 X105.376 Y99.677 E.01875
G1 X125.323 Y119.624 E1.57547
G1 X125.086 Y119.862 E.01875
G1 X105.138 Y99.914 E1.57547
G1 X104.901 Y100.152 E.01875
G1 X124.848 Y120.099 E1.57547
G1 X124.611 Y120.337 E.01875
G1 X104.663 Y100.389 E1.57547
G1 X104.426 Y100.626 E.01875
G1 X124.374 Y120.574 E1.57547
G1 X124.136 Y120.812 E.01875
G1 X104.188 Y100.864 E1.57547
G1 X103.951 Y101.101 E.01875
G1 X123.899 Y121.049 E1.57547
G1 X123.661 Y121.287 E.01875
G1 X103.713 Y101.339 E1.57547
G1 X103.476 Y101.576 E.01875
G1 X123.424 Y121.524 E1.57547
G1 X123.186 Y121.762 E.01875
G1 X103.238 Y101.814 E1.57547
G1 X103.001 Y102.051 E.01875
G1 X122.949 Y121.999 E1.57547
G1 X122.711 Y122.236 E.01875
G1 X102.764 Y102.289 E1.57547
G1 X102.526 Y102.526 E.01875
G1 X122.474 Y122.474 E1.57547
G1 X122.236 Y122.711 E.01875
G1 X102.289 Y102.764 E1.57547
G1 X102.051 Y103.001 E.01875
G1 X121.999 Y122.949 E1.57547
G1 X121.761 Y123.186 E.01875
G1 X101.814 Y103.239 E1.57547
G1 X101.576 Y103.476 E.01875
G1 X121.524 Y123.424 E1.57547
G1 X121.287 Y123.661 E.01875
G1 X101.339 Y103.713 E1.57547
G1 X101.101 Y103.951 E.01875
G1 X121.049 Y123.899 E1.57547
G1 X120.812 Y124.136 E.01875
G1 X100.864 Y104.188 E1.57547
G1 X100.626 Y104.426 E.01875
G1 X120.574 Y124.374 E1.57547
G1 X120.337 Y124.611 E.01875
G1 X100.389 Y104.663 E1.57547
G1 X100.151 Y104.901 E.01875
G1 X120.099 Y124.849 E1.57547
G1 X119.862 Y125.086 E.01875
G1 X99.914 Y105.138 E1.57547
G1 X99.677 Y105.376 E.01875
G1 X119.624 Y125.323 E1.57547
G1 X119.387 Y125.561 E.01875
G1 X99.439 Y105.613 E1.57547
G1 X99.202 Y105.851 E.01875
G1 X119.149 Y125.798 E1.57547
G1 X118.912 Y126.036 E.01875
G1 X98.964 Y106.088 E1.57547
G1 X98.727 Y106.325 E.01875
G1 X118.675 Y126.273 E1.57547
G1 X118.437 Y126.511 E.01875
G1 X98.489 Y106.563 E1.57547
G1 X98.395 Y106.657 E.00746
G1 X98.395 Y106.943 E.01597
G1 X118.057 Y126.605 E1.55288
G1 X117.582 Y126.605 E.02652
G1 X98.395 Y107.418 E1.51537
G1 X98.395 Y107.893 E.02652
G1 X117.107 Y126.605 E1.47786
G1 X116.632 Y126.605 E.02652
G1 X98.395 Y108.368 E1.44036
G1 X98.395 Y108.843 E.02652
G1 X116.157 Y126.605 E1.40285
G1 X115.682 Y126.605 E.02652
G1 X98.395 Y109.318 E1.36534
G1 X98.395 Y109.793 E.02652
G1 X115.207 Y126.605 E1.32783
G1 X114.732 Y126.605 E.02652
G1 X98.395 Y110.268 E1.29032
G1 X98.395 Y110.743 E.02652
G1 X114.257 Y126.605 E1.25281
G1 X113.782 Y126.605 E.02652
G1 X98.395 Y111.218 E1.2153
G1 X98.395 Y111.693 E.02652
G1 X113.307 Y126.605 E1.17779
G1 X112.832 Y126.605 E.02652
G1 X98.395 Y112.168 E1.14028
G1 X98.395 Y112.642 E.02652
G1 X112.358 Y126.605 E1.10278
G1 X111.883 Y126.605 E.02652
G1 X98.395 Y113.117 E1.06527
G1 X98.395 Y113.592 E.02652
G1 X111.408 Y126.605 E1.02776
G1 X110.933 Y126.605 E.02652
G1 X98.395 Y114.067 E.99025
G1 X98.395 Y114.542 E.02652
G1 X110.458 Y126.605 E.95274
G1 X109.983 Y126.605 E.02652
G1 X98.395 Y115.017 E.91523
G1 X98.395 Y115.492 E.02652
G1 X109.508 Y126.605 E.87772
G1 X109.033 Y126.605 E.02652
G1 X98.395 Y115.967 E.84021
G1 X98.395 Y116.442 E.02652
G1 X108.558 Y126.605 E.8027
G1 X108.083 Y126.605 E.02652
G1 X98.395 Y116.917 E.7652
G1 X98.395 Y117.392 E.02652
G1 X107.608 Y126.605 E.72769
G1 X107.133 Y126.605 E.02652
G1 X98.395 Y117.867 E.69018
G1 X98.395 Y118.341 E.02652
G1 X106.809 Y126.756 E.66454
M106 S255
;LAYER_CHANGE
;Z:0.7
;HEIGHT:0.3

G1 E-3.5 F3600
;WIPE_START
G1 F7200
G1 X104.688 Y124.634 E-1.425
;WIPE_END
G1 E-.075 F3600
G1 Z.7 F9000
M104 S210 ; set temperature
G1 X101.697 Y127.625
G1 E5 F2400
;TYPE:Skirt/Brim
;WIDTH:0.42
G1 X95.142 Y121.071 E.41113
G1 X94.309 Y119.68 E.07189
G1 X94.166 Y118.713 E.04337
G1 X94.166 Y106.287 E.55117
G1 X94.56 Y104.715 E.07189
G1 X95.142 Y103.929 E.04337
G1 X103.929 Y95.142 E.55117
G1 X105.32 Y94.309 E.07189
G1 X106.287 Y94.166 E.04337
G1 X118.713 Y94.166 E.55117
G1 X120.285 Y94.56 E.07189
G1 X121.071 Y95.142 E.04337
G1 X129.858 Y103.929 E.55117
G1 X130.691 Y105.32 E.07189
G1 X130.834 Y106.287 E.04337
G1 X130.834 Y118.713 E.55117
G1 X130.44 Y120.285 E.07189
G1 X129.858 Y121.071 E.04337
G1 X121.071 Y129.858 E.55117
G1 X119.68 Y130.691 E.07189
G1 X118.713 Y130.834 E.04337
G1 X106.287 Y130.834 E.55117
G1 X104.715 Y130.44 E.07189
G1 X103.929 Y129.858 E.04337
G1 X101.739 Y127.668 E.13737
G1 E-3.5 F3600
;WIPE_START
G1 F7200
G1 X99.618 Y125.546 E-1.425
;WIPE_END
G1 E-.075 F3600
G1 X106.257 Y126.607 F9000
G1 E5 F2400
;TYPE:Perimeter
;WIDTH:0.45
G1 X98.111 Y118.46 E.5541
G1 X98.111 Y106.54 E.57334
G1 X106.54 Y98.111 E.57334
G1 X118.46 Y98.111 E.57334
G1 X126.889 Y106.54 E.57334
G1 X126.889 Y118.46 E.57334
G1 X118.46 Y126.889 E.57334
G1 X106.54 Y126.889 E.57334
G1 X106.299 Y126.649 E.01635
G1 X106.38 Y127.275 F9000
;TYPE:External perimeter
G1 F1500
G1 X97.725 Y118.62 E.5887
G1 X97.725 Y106.38 E.5887
G1 X106.38 Y97.725 E.5887
G1 X118.62 Y97.725 E.5887
G1 X127.275 Y106.38 E.5887
G1 X127.275 Y118.62 E.5887
G1 X118.62 Y127.275 E.5887
G1 X106.44 Y127.275 E.58582
G1 X106.328 Y126.878 F9000
G1 E-3.5 F3600
;WIPE_START
G1 F7200
G1 X104.311 Y125.161 E-1.425
;WIPE_END
G1 E-.075 F3600
G1 X126.774 Y118.166 F9000
G1 E5 F2400
;TYPE:Solid infill
;WIDTH:0.450677
G1 X118.34 Y126.6 E.57466
G1 X117.794 Y126.6 E.02632
G1 X126.6 Y117.794 E.60006
G1 X126.6 Y117.247 E.02632
G1 X117.247 Y126.6 E.63729
G1 X116.701 Y126.6 E.02632
G1 X126.6 Y116.701 E.67451
G1 X126.6 Y116.155 E.02632
G1 X116.155 Y126.6 E.71173
G1 X115.608 Y126.6 E.02632
G1 X126.6 Y115.608 E.74896
G1 X126.6 Y115.062 E.02632
G1 X115.062 Y126.6 E.78618
G1 X114.516 Y126.6 E.02632
G1 X126.6 Y114.516 E.82341
G1 X126.6 Y113.969 E.02632
G1 X113.969 Y126.6 E.86063
G1 X113.423 Y126.6 E.02632
G1 X126.6 Y113.423 E.89786
G1 X126.6 Y112.877 E.02632
G1 X112.877 Y126.6 E.93508
G1 X112.331 Y126.6 E.02632
G1 X126.6 Y112.331 E.9723
G1 X126.6 Y111.784 E.02632
G1 X111.784 Y126.6 E1.00953
G1 X111.238 Y126.6 E.02632
G1 X126.6 Y111.238 E1.04675
G1 X126.6 Y110.692 E.02632
G1 X110.692 Y126.6 E1.08398
G1 X110.145 Y126.6 E.02632
G1 X126.6 Y110.145 E1.1212
G1 X126.6 Y109.599 E.02632
G1 X109.599 Y126.6 E1.15843
G1 X109.053 Y126.6 E.02632
G1 X126.6 Y109.053 E1.19565
G1 X126.6 Y108.506 E.02632
G1 X108.506 Y126.6 E1.23287
G1 X107.96 Y126.6 E.02632
G1 X126.6 Y107.96 E1.2701
G1 X126.6 Y107.414 E.02632
G1 X107.414 Y126.6 E1.30732
G1 X106.868 Y126.6 E.02632
G1 X126.6 Y106.868 E1.34455
G1 X126.6 Y106.66 E.01002
G1 X126.431 Y106.49 E.01153
G1 X106.49 Y126.431 E1.35872
G1 X106.217 Y126.158 E.01861
G1 X126.158 Y106.217 E1.35872
G1 X125.885 Y105.944 E.01861
G1 X105.944 Y125.885 E1.35872
G1 X105.671 Y125.612 E.01861
G1 X125.612 Y105.671 E1.35872
G1 X125.338 Y105.398 E.01861
G1 X105.398 Y125.338 E1.35872
G1 X105.125 Y125.065 E.01861
G1 X125.065 Y105.125 E1.35872
G1 X124.792 Y104.851 E.01861
G1 X104.851 Y124.792 E1.35872
G1 X104.578 Y124.519 E.01861
G1 X124.519 Y104.578 E1.35872
G1 X124.246 Y104.305 E.01861
G1 X104.305 Y124.246 E1.35872
G1 X104.032 Y123.973 E.01861
G1 X123.973 Y104.032 E1.35872
G1 X123.699 Y103.759 E.01861
G1 X103.759 Y123.699 E1.35872
G1 X103.486 Y123.426 E.01861
G1 X123.426 Y103.486 E1.35872
G1 X123.153 Y103.213 E.01861
G1 X103.213 Y123.153 E1.35872
G1 X102.939 Y122.88 E.01861
G1 X122.88 Y102.939 E1.35872
G1 X122.607 Y102.666 E.01861
G1 X102.666 Y122.607 E1.35872
G1 X102.393 Y122.334 E.01861
G1 X122.334 Y102.393 E1.35872
G1 X122.061 Y102.12 E.01861
G1 X102.12 Y122.061 E1.35872
G1 X101.847 Y121.787 E.01861
G1 X121.787 Y101.847 E1.35872
G1 X121.514 Y101.574 E.01861
G1 X101.574 Y121.514 E1.35872
G1 X101.3 Y121.241 E.01861
G1 X121.241 Y101.3 E1.35872
G1 X120.968 Y101.027 E.01861
G1 X101.027 Y120.968 E1.35872
G1 X100.754 Y120.695 E.01861
G1 X120.695 Y100.754 E1.35872
G1 X120.422 Y100.481 E.01861
G1 X100.481 Y120.422 E1.35872
G1 X100.208 Y120.149 E.01861
G1 X120.149 Y100.208 E1.35872
G1 X119.875 Y99.935 E.01861
G1 X99.935 Y119.875 E1.35872
G1 X99.662 Y119.602 E.01861
G1 X119.602 Y99.662 E1.35872
G1 X119.329 Y99.388 E.01861
G1 X99.388 Y119.329 E1.35872
G1 X99.115 Y119.056 E.01861
G1 X119.056 Y99.115 E1.35872
G1 X118.783 Y98.842 E.01861
G1 X98.842 Y118.783 E1.35872
G1 X98.569 Y118.51 E.01861
G1 X118.51 Y98.569 E1.35872
G1 X118.34 Y98.4 E.01152
G1 X118.132 Y98.4 E.01003
G1 X98.4 Y118.132 E1.34454
G1 X98.4 Y117.586 E.02632
G1 X117.586 Y98.4 E1.30732
G1 X117.04 Y98.4 E.02632
G1 X98.4 Y117.04 E1.27009
G1 X98.4 Y116.493 E.02632
G1 X116.493 Y98.4 E1.23287
G1 X115.947 Y98.4 E.02632
G1 X98.4 Y115.947 E1.19564
G1 X98.4 Y115.401 E.02632
G1 X115.401 Y98.4 E1.15842
G1 X114.855 Y98.4 E.02632
G1 X98.4 Y114.855 E1.1212
G1 X98.4 Y114.308 E.02632
G1 X114.308 Y98.4 E1.08397
G1 X113.762 Y98.4 E.02632
G1 X98.4 Y113.762 E1.04675
G1 X98.4 Y113.216 E.02632
G1 X113.216 Y98.4 E1.00952
G1 X112.669 Y98.4 E.02632
G1 X98.4 Y112.669 E.9723
G1 X98.4 Y112.123 E.02632
G1 X112.123 Y98.4 E.93508
G1 X111.577 Y98.4 E.02632
G1 X98.4 Y111.577 E.89785
G1 X98.4 Y111.03 E.02632
G1 X111.03 Y98.4 E.86063
G1 X110.484 Y98.4 E.02632
G1 X98.4 Y110.484 E.8234
G1 X98.4 Y109.938 E.02632
G1 X109.938 Y98.4 E.78618
G1 X109.392 Y98.4 E.02632
G1 X98.4 Y109.392 E.74895
G1 X98.4 Y108.845 E.02632
G1 X108.845 Y98.4 E.71173
G1 X108.299 Y98.4 E.02632
G1 X98.4 Y108.299 E.67451
G1 X98.4 Y107.753 E.02632
G1 X107.753 Y98.4 E.63728
G1 X107.206 Y98.4 E.02632
G1 X98.4 Y107.206 E.60006
G1 X98.4 Y106.66 E.02632
G1 X106.834 Y98.226 E.57466
;LAYER_CHANGE
;Z:1
;HEIGHT:0.3

G1 E-3.5 F3600
;WIPE_START
G1 F7200
G1 X104.712 Y100.348 E-1.425
;WIPE_END
G1 E-.075 F3600
G1 Z1 F9000
G1 X106.94 Y98.111
G1 E5 F2400
;TYPE:Perimeter
;WIDTH:0.45
G1 X118.46 Y98.111 E.5541
G1 X126.889 Y106.54 E.57334
G1 X126.889 Y118.46 E.57334
G1 X118.46 Y126.889 E.57334
G1 X106.54 Y126.889 E.57334
G1 X98.111 Y118.46 E.57334
G1 X98.111 Y106.54 E.57334
G1 X106.54 Y98.111 E.57334
G1 X106.88 Y98.111 E.01635
G1 X106.38 Y97.725 F9000
;TYPE:External perimeter
G1 F1500
G1 X118.62 Y97.725 E.5887
G1 X127.275 Y106.38 E.5887
G1 X127.275 Y118.62 E.5887
G1 X118.62 Y127.275 E.5887
G1 X106.38 Y127.275 E.5887
G1 X97.725 Y118.62 E.5887
G1 X97.725 Y106.38 E.5887
G1 X106.338 Y97.767 E.58582
G1 X106.697 Y97.969 F9000
G1 E-3.5 F3600
;WIPE_START
G1 F7200
G1 X109.338 Y97.757 E-1.425
;WIPE_END
G1 E-.075 F3600
G1 X118.166 Y98.226 F9000
G1 E5 F2400
;TYPE:Solid infill
;WIDTH:0.450677
G1 X126.6 Y106.66 E.57466
G1 X126.6 Y107.206 E.02632
G1 X117.794 Y98.4 E.60006
G1 X117.247 Y98.4 E.02632
G1 X126.6 Y107.753 E.63729
G1 X126.6 Y108.299 E.02632
G1 X116.701 Y98.4 E.67451
G1 X116.155 Y98.4 E.02632
G1 X126.6 Y108.845 E.71173
G1 X126.6 Y109.392 E.02632
G1 X115.608 Y98.4 E.74896
G1 X115.062 Y98.4 E.02632
G1 X126.6 Y109.938 E.78618
G1 X126.6 Y110.484 E.02632
G1 X114.516 Y98.4 E.82341
G1 X113.969 Y98.4 E.02632
G1 X126.6 Y111.031 E.86063
G1 X126.6 Y111.577 E.02632
G1 X113.423 Y98.4 E.89786
G1 X112.877 Y98.4 E.02632
G1 X126.6 Y112.123 E.93508
G1 X126.6 Y112.669 E.02632
G1 X112.331 Y98.4 E.9723
G1 X111.784 Y98.4 E.02632
G1 X126.6 Y113.216 E1.00953
G1 X126.6 Y113.762 E.02632
G1 X111.238 Y98.4 E1.04675
G1 X110.692 Y98.4 E.02632
G1 X126.6 Y114.308 E1.08398
G1 X126.6 Y114.855 E.02632
G1 X110.145 Y98.4 E1.1212
G1 X109.599 Y98.4 E.02632
G1 X126.6 Y115.401 E1.15843
G1 X126.6 Y115.947 E.02632
G1 X109.053 Y98.4 E1.19565
G1 X108.506 Y98.4 E.02632
G1 X126.6 Y116.494 E1.23287
G1 X126.6 Y117.04 E.02632
G1 X107.96 Y98.4 E1.2701
G1 X107.414 Y98.4 E.02632
G1 X126.6 Y117.586 E1.30732
G1 X126.6 Y118.132 E.02632
G1 X106.868 Y98.4 E1.34455
G1 X106.66 Y98.4 E.01002
G1 X106.49 Y98.569 E.01153
G1 X126.431 Y118.51 E1.35872
G1 X126.158 Y118.783 E.01861
G1 X106.217 Y98.842 E1.35872
G1 X105.944 Y99.115 E.01861
G1 X125.885 Y119.056 E1.35872
G1 X125.612 Y119.329 E.01861
G1 X105.671 Y99.388 E1.35872
G1 X105.398 Y99.662 E.01861
G1 X125.338 Y119.602 E1.35872
G1 X125.065 Y119.875 E.01861
G1 X105.125 Y99.935 E1.35872
G1 X104.851 Y100.208 E.01861
G1 X124.792 Y120.149 E1.35872
G1 X124.519 Y120.422 E.01861
G1 X104.578 Y100.481 E1.35872
G1 X104.305 Y100.754 E.01861
G1 X124.246 Y120.695 E1.35872
G1 X123.973 Y120.968 E.01861
G1 X104.032 Y101.027 E1.35872
G1 X103.759 Y101.301 E.01861
G1 X123.699 Y121.241 E1.35872
G1 X123.426 Y121.514 E.01861
G1 X103.486 Y101.574 E1.35872
