; generated by PrusaSlicer 2.4.0+win64 on 2022-04-24 at 09:06:25 UTC

; 

; external perimeters extrusion width = 0.45mm
; perimeters extrusion width = 0.45mm
; infill extrusion width = 0.45mm
; solid infill extrusion width = 0.45mm
; top infill extrusion width = 0.40mm
; first layer extrusion width = 0.42mm

M107
M190 S50 ; set bed temperature and wait for it to be reached
M104 S200 ; set temperature
;TYPE:Custom
M109 S200 ; set temperature and wait for it to be reached
G21 ; set units to millimeters
G90 ; use absolute coordinates
M83 ; use relative distances for extrusion
; Filament gcode
M107
;LAYER_CHANGE
;Z:0.3
;HEIGHT:0.3

G1 E-2 F2700
G1 Z2 F9000
G1 X35.818 Y36.11
G1 Z.3
G1 E2 F2400
M204 P1000
;TYPE:Skirt/Brim
;WIDTH:0.42
G1 F1200
G1 X37.512 Y34.43 E.09527
G1 X40.219 Y31.916 E.14745
G1 X43.075 Y29.444 E.1508
G1 X45.793 Y27.244 E.13959
G1 X48.65 Y25.085 E.14294
G1 X51.785 Y22.878 E.15305
G1 X54.782 Y20.919 E.14294
G1 X57.77 Y19.103 E.13959
G1 X61.062 Y17.249 E.1508
G1 X64.216 Y15.612 E.14184
G1 X67.447 Y14.069 E.14295
G1 X70.96 Y12.535 E.15305
G1 X74.289 Y11.215 E.14294
G1 X77.581 Y10.034 E.13959
G1 X81.177 Y8.877 E.1508
G1 X84.594 Y7.905 E.14184
G1 X88.069 Y7.039 E.14295
G1 X91.763 Y6.25 E.1508
G1 X95.261 Y5.627 E.14184
G1 X98.805 Y5.115 E.14294
G1 X102.56 Y4.702 E.1508
G1 X106.103 Y4.434 E.14184
G1 X109.681 Y4.282 E.14295
G1 X113.458 Y4.249 E.1508
G1 X119.108 Y4.46 E.22567
G1 X124.263 Y4.885 E.20651
G1 X128.011 Y5.361 E.1508
G1 X131.546 Y5.932 E.14295
G1 X135.033 Y6.614 E.14184
G1 X138.713 Y7.465 E.1508
G1 X142.173 Y8.388 E.14294
G1 X145.574 Y9.418 E.14184
G1 X149.15 Y10.635 E.1508
G1 X152.499 Y11.902 E.14294
G1 X155.779 Y13.269 E.14184
G1 X159.215 Y14.839 E.1508
G1 X162.419 Y16.437 E.14295
G1 X165.545 Y18.127 E.14184
G1 X168.805 Y20.035 E.1508
G1 X171.832 Y21.947 E.14294
G1 X174.772 Y23.943 E.14184
G1 X177.824 Y26.17 E.1508
G1 X180.644 Y28.377 E.14295
G1 X183.368 Y30.658 E.14184
G1 X186.18 Y33.181 E.1508
G1 X188.763 Y35.66 E.14294
G1 X191.205 Y38.164 E.13959
G1 X193.787 Y40.997 E.15305
G1 X196.055 Y43.659 E.13959
G1 X198.286 Y46.46 E.14294
G1 X200.489 Y49.425 E.14745
G1 X202.636 Y52.533 E.1508
G1 X204.526 Y55.475 E.13959
G1 X206.361 Y58.55 E.14294
G1 X208.187 Y61.857 E.1508
G1 X209.797 Y65.024 E.14184
G1 X211.314 Y68.268 E.14294
G1 X212.818 Y71.795 E.15305
G1 X214.081 Y75.055 E.13959
G1 X215.263 Y78.435 E.14294
G1 X216.389 Y82.041 E.1508
G1 X217.333 Y85.467 E.14184
G1 X218.169 Y88.949 E.14295
G1 X218.927 Y92.649 E.1508
G1 X219.521 Y96.153 E.14184
G1 X220.003 Y99.701 E.14295
G1 X220.384 Y103.459 E.1508
G1 X220.623 Y107.004 E.14184
G1 X220.745 Y110.583 E.14295
G1 X220.748 Y114.277 E.14744
G1 X220.62 Y118.052 E.1508
G1 X220.377 Y121.625 E.14294
G1 X220.02 Y125.16 E.14184
G1 X219.512 Y128.903 E.1508
G1 X218.912 Y132.433 E.14294
G1 X218.2 Y135.914 E.14184
G1 X217.319 Y139.588 E.1508
G1 X216.366 Y143.039 E.14294
G1 X215.308 Y146.431 E.14184
G1 X214.061 Y149.997 E.1508
G1 X212.765 Y153.336 E.14294
G1 X211.394 Y156.552 E.13959
G1 X209.797 Y159.976 E.1508
G1 X208.12 Y163.267 E.14745
G1 X206.389 Y166.402 E.14294
G1 X204.599 Y169.405 E.13959
G1 X202.526 Y172.631 E.15305
G1 X200.489 Y175.575 E.14295
G1 X198.405 Y178.384 E.13959
G1 X196.055 Y181.341 E.1508
G1 X193.751 Y184.046 E.14184
G1 X191.34 Y186.693 E.14295
G1 X188.663 Y189.438 E.15305
G1 X186.139 Y191.858 E.13959
G1 X183.473 Y194.249 E.14294
G1 X180.578 Y196.676 E.1508
G1 X177.779 Y198.865 E.14184
G1 X174.887 Y200.976 E.14294
G1 X171.762 Y203.099 E.1508
G1 X168.757 Y204.994 E.14184
G1 X165.667 Y206.804 E.14294
G1 X162.345 Y208.601 E.1508
G1 X159.037 Y210.245 E.14745
G1 X155.779 Y211.731 E.14294
G1 X152.499 Y213.098 E.14184
G1 X148.965 Y214.431 E.1508
G1 X145.574 Y215.582 E.14295
G1 X142.173 Y216.612 E.14184
G1 X138.522 Y217.583 E.1508
G1 X135.033 Y218.386 E.14294
G1 X131.546 Y219.068 E.14184
G1 X127.816 Y219.667 E.1508
G1 X124.263 Y220.115 E.14295
G1 X120.725 Y220.443 E.14184
G1 X116.954 Y220.664 E.1508
G1 X113.458 Y220.751 E.13959
G1 X109.878 Y220.723 E.14294
G1 X106.047 Y220.562 E.15305
G1 X102.56 Y220.298 E.13959
G1 X99.001 Y219.909 E.14294
G1 X95.261 Y219.373 E.1508
G1 X91.626 Y218.722 E.14745
G1 X88.206 Y217.993 E.13959
G1 X84.73 Y217.131 E.14294
G1 X81.096 Y216.098 E.1508
G1 X77.713 Y215.012 E.14184
G1 X74.342 Y213.805 E.14295
G1 X70.779 Y212.39 E.15305
G1 X67.574 Y210.99 E.13959
G1 X64.342 Y209.45 E.14294
G1 X60.988 Y207.711 E.1508
G1 X57.891 Y205.969 E.14184
G1 X54.83 Y204.111 E.14294
G1 X51.669 Y202.043 E.1508
G1 X48.763 Y199.998 E.14184
G1 X45.904 Y197.842 E.14294
G1 X42.967 Y195.467 E.1508
G1 X40.282 Y193.14 E.14184
G1 X37.654 Y190.707 E.14294
G1 X35.03 Y188.108 E.14744
G1 X32.439 Y185.358 E.1508
G1 X30.073 Y182.671 E.14295
G1 X27.815 Y179.928 E.14184
G1 X25.514 Y176.931 E.1508
G1 X23.43 Y174.019 E.14294
G1 X21.459 Y171.063 E.14185
G1 X19.472 Y167.85 E.1508
G1 X17.692 Y164.743 E.14294
G1 X16.028 Y161.603 E.14184
G1 X14.374 Y158.207 E.1508
G1 X12.916 Y154.937 E.14294
G1 X11.598 Y151.698 E.13959
G1 X10.273 Y148.1 E.15305
G1 X9.151 Y144.7 E.14294
G1 X8.15 Y141.29 E.14184
G1 X7.21 Y137.632 E.1508
G1 X6.435 Y134.136 E.14295
G1 X5.792 Y130.698 E.13959
G1 X5.222 Y126.964 E.1508
G1 X4.792 Y123.296 E.14745
G1 X4.493 Y119.727 E.14294
G1 X4.316 Y116.235 E.13959
G1 X4.252 Y112.402 E.15305
G1 X4.314 Y108.821 E.14294
G1 X4.49 Y105.329 E.13959
G1 X4.805 Y101.565 E.15079
G1 X5.222 Y98.036 E.14184
G1 X5.76 Y94.496 E.14294
G1 X6.452 Y90.782 E.1508
G1 X7.222 Y87.313 E.14184
G1 X8.113 Y83.845 E.14294
G1 X9.176 Y80.22 E.1508
G1 X10.291 Y76.846 E.14184
G1 X11.527 Y73.485 E.14295
G1 X12.949 Y69.986 E.1508
G1 X14.458 Y66.614 E.14745
G1 X16.028 Y63.397 E.14294
G1 X17.692 Y60.257 E.14184
G1 X19.573 Y56.981 E.1508
G1 X21.459 Y53.937 E.14294
G1 X23.43 Y50.981 E.14184
G1 X25.631 Y47.911 E.1508
G1 X27.815 Y45.073 E.14294
G1 X30.073 Y42.329 E.14184
G1 X32.572 Y39.496 E.1508
G1 X35.03 Y36.892 E.14295
G1 X35.775 Y36.153 E.04193
G1 E-1.6 F2700
;WIPE_START
G1 F7200
G1 X36.533 Y35.401 E-.38
;WIPE_END
G1 E-.02 F2700
G1 Z2.3 F9000
G1 X38.278 Y38.677
G1 Z.3
G1 E2 F2400
G1 F1200
G1 X40.039 Y36.931 E.09897
G1 X42.618 Y34.54 E.14041
G1 X45.249 Y32.259 E.13899
G1 X48.016 Y30.019 E.14211
G1 X50.813 Y27.906 E.13995
G1 X53.665 Y25.898 E.13922
G1 X56.623 Y23.961 E.14115
G1 X59.686 Y22.1 E.14308
G1 X62.716 Y20.396 E.13875
G1 X65.806 Y18.792 E.13898
G1 X69.051 Y17.243 E.14356
G1 X72.181 Y15.878 E.13631
G1 X75.464 Y14.571 E.14103
G1 X78.817 Y13.367 E.14224
G1 X82.207 Y12.279 E.14211
G1 X85.55 Y11.329 E.13874
G1 X88.923 Y10.49 E.13874
G1 X92.446 Y9.739 E.14379
G1 X95.868 Y9.13 E.13875
G1 X99.308 Y8.635 E.13874
G1 X102.882 Y8.242 E.14355
G1 X106.354 Y7.98 E.13898
G1 X109.827 Y7.833 E.13875
G1 X113.429 Y7.803 E.14379
G1 X116.903 Y7.892 E.13874
G1 X120.373 Y8.095 E.13874
G1 X123.959 Y8.427 E.14378
G1 X127.366 Y8.859 E.13708
G1 X130.74 Y9.401 E.13641
G1 X134.373 Y10.108 E.14776
G1 X137.761 Y10.89 E.13879
G1 X141.119 Y11.785 E.13874
G1 X144.538 Y12.819 E.1426
G1 X147.897 Y13.962 E.14164
G1 X151.154 Y15.193 E.13898
G1 X154.362 Y16.529 E.13875
G1 X157.633 Y18.023 E.14355
G1 X160.744 Y19.573 E.13875
G1 X163.807 Y21.228 E.13899
G1 X166.911 Y23.044 E.14355
G1 X169.85 Y24.899 E.13874
G1 X172.731 Y26.854 E.13898
G1 X175.569 Y28.921 E.14017
G1 X178.263 Y31.025 E.13643
G1 X181.089 Y33.387 E.14703
G1 X183.722 Y35.749 E.14121
G1 X186.226 Y38.151 E.1385
G1 X188.657 Y40.643 E.13898
G1 X191.084 Y43.305 E.14379
G1 X193.341 Y45.956 E.13898
G1 X195.501 Y48.671 E.1385
G1 X197.627 Y51.534 E.14235
G1 X199.647 Y54.458 E.14187
G1 X201.519 Y57.372 E.13826
G1 X203.306 Y60.367 E.13922
G1 X205.045 Y63.521 E.1438
G1 X206.62 Y66.62 E.13875
G1 X208.091 Y69.769 E.13874
G1 X209.504 Y73.082 E.1438
G1 X210.763 Y76.334 E.13922
G1 X211.906 Y79.604 E.13827
G1 X212.979 Y83.043 E.14379
G1 X213.9 Y86.388 E.13851
G1 X214.712 Y89.774 E.13898
G1 X215.431 Y93.291 E.14331
G1 X216.012 Y96.724 E.13899
G1 X216.48 Y100.174 E.13898
G1 X216.841 Y103.745 E.14331
G1 X217.075 Y107.225 E.13923
G1 X217.192 Y110.699 E.13875
G1 X217.193 Y114.277 E.14282
G1 X217.075 Y117.769 E.13947
G1 X216.842 Y121.242 E.13899
G1 X216.48 Y124.82 E.14355
G1 X216.012 Y128.276 E.13923
G1 X215.431 Y131.709 E.13899
G1 X214.713 Y135.22 E.14306
G1 X213.902 Y138.6 E.13875
G1 X212.979 Y141.957 E.13898
G1 X211.908 Y145.39 E.14355
G1 X210.759 Y148.677 E.13898
G1 X209.504 Y151.918 E.13875
G1 X208.098 Y155.215 E.14307
G1 X206.628 Y158.364 E.13875
G1 X205.045 Y161.479 E.13946
G1 X203.309 Y164.628 E.14355
G1 X201.529 Y167.613 E.13875
G1 X199.647 Y170.542 E.13898
G1 X197.63 Y173.461 E.14163
G1 X195.501 Y176.33 E.1426
G1 X193.333 Y179.054 E.13898
G1 X191.08 Y181.7 E.13875
G1 X188.657 Y184.357 E.14355
G1 X186.226 Y186.849 E.13898
G1 X183.722 Y189.251 E.1385
G1 X181.104 Y191.6 E.14041
G1 X178.484 Y193.795 E.13644
G1 X175.58 Y196.071 E.14728
G1 X172.726 Y198.15 E.14096
G1 X169.85 Y200.101 E.13874
G1 X166.911 Y201.956 E.13875
G1 X163.802 Y203.775 E.14379
G1 X160.744 Y205.427 E.13874
G1 X157.633 Y206.977 E.13874
G1 X154.384 Y208.461 E.1426
G1 X151.109 Y209.825 E.14163
G1 X147.852 Y211.055 E.13898
G1 X144.567 Y212.172 E.13851
G1 X141.125 Y213.214 E.14356
G1 X137.819 Y214.093 E.13655
G1 X134.377 Y214.891 E.14103
G1 X130.863 Y215.579 E.14295
G1 X127.449 Y216.129 E.13803
G1 X124.059 Y216.56 E.13641
G1 X120.374 Y216.905 E.14776
G1 X116.903 Y217.108 E.13879
G1 X113.429 Y217.197 E.13874
G1 X109.911 Y217.169 E.14042
G1 X106.312 Y217.017 E.14381
G1 X102.834 Y216.753 E.13923
G1 X99.344 Y216.37 E.14017
G1 X95.909 Y215.877 E.1385
G1 X92.545 Y215.279 E.13642
G1 X88.942 Y214.514 E.14703
G1 X85.509 Y213.66 E.14121
G1 X82.161 Y212.707 E.13898
G1 X78.834 Y211.638 E.13947
G1 X75.466 Y210.43 E.14283
G1 X72.293 Y209.168 E.13631
G1 X69.054 Y207.758 E.14103
G1 X65.838 Y206.224 E.14224
G1 X62.679 Y204.584 E.14211
G1 X59.65 Y202.879 E.13874
G1 X56.679 Y201.075 E.13875
G1 X53.665 Y199.102 E.1438
G1 X50.818 Y197.098 E.13898
G1 X48.049 Y195.007 E.13851
G1 X45.249 Y192.741 E.14379
G1 X42.623 Y190.465 E.13874
G1 X40.074 Y188.102 E.13875
G1 X37.516 Y185.566 E.1438
G1 X35.104 Y183.005 E.14042
G1 X32.814 Y180.406 E.13827
G1 X30.609 Y177.728 E.1385
G1 X28.402 Y174.859 E.14447
G1 X26.375 Y172.027 E.13902
G1 X24.427 Y169.105 E.14019
G1 X22.554 Y166.078 E.14211
G1 X20.822 Y163.058 E.13899
G1 X19.189 Y159.976 E.13923
G1 X17.619 Y156.754 E.14306
G1 X16.202 Y153.581 E.13875
G1 X14.881 Y150.333 E.13994
G1 X13.683 Y147.078 E.13848
G1 X12.571 Y143.724 E.14104
G1 X11.568 Y140.312 E.14198
G1 X10.693 Y136.917 E.13995
G1 X9.935 Y133.507 E.13947
G1 X9.285 Y130.037 E.14091
G1 X8.745 Y126.488 E.14332
G1 X8.338 Y123.036 E.13875
G1 X8.045 Y119.567 E.13898
G1 X7.864 Y115.975 E.14354
G1 X7.806 Y112.536 E.13731
G1 X7.864 Y109.025 E.14017
G1 X8.044 Y105.452 E.14283
G1 X8.337 Y101.97 E.13947
G1 X8.746 Y98.5 E.13948
G1 X9.287 Y94.951 E.14333
G1 X9.916 Y91.595 E.13631
G1 X10.678 Y88.145 E.14103
G1 X11.566 Y84.694 E.14224
G1 X12.57 Y81.279 E.14211
G1 X13.661 Y77.979 E.13874
G1 X14.861 Y74.717 E.13875
G1 X16.219 Y71.38 E.14379
G1 X17.634 Y68.213 E.13851
G1 X19.159 Y65.083 E.13898
G1 X20.842 Y61.905 E.14356
G1 X22.546 Y58.938 E.13655
G1 X24.403 Y55.933 E.14103
G1 X26.396 Y52.943 E.14344
G1 X28.427 Y50.108 E.13923
G1 X30.544 Y47.351 E.13874
G1 X32.814 Y44.593 E.1426
G1 X35.161 Y41.932 E.14163
G1 X37.558 Y39.391 E.13946
G1 X38.236 Y38.719 E.03809
G1 X38.486 Y38.972 F9000
G1 F1200
G1 X40.283 Y37.19 E.10101
G1 X42.853 Y34.807 E.13994
G1 X45.48 Y32.53 E.13876
G1 X48.237 Y30.297 E.14163
G1 X51.025 Y28.191 E.13947
G1 X53.867 Y26.191 E.13875
G1 X56.815 Y24.26 E.14067
G1 X59.863 Y22.408 E.14236
G1 X62.888 Y20.708 E.13851
G1 X65.967 Y19.109 E.13851
G1 X69.196 Y17.568 E.14284
G1 X72.316 Y16.208 E.13585
G1 X75.592 Y14.903 E.14079
G1 X78.935 Y13.703 E.14176
G1 X82.307 Y12.621 E.14139
G1 X85.639 Y11.673 E.13827
G1 X89.006 Y10.836 E.13851
G1 X92.511 Y10.089 E.14307
G1 X95.921 Y9.481 E.13827
G1 X99.355 Y8.987 E.13851
G1 X102.912 Y8.597 E.14283
G1 X106.372 Y8.335 E.13851
G1 X109.839 Y8.189 E.13851
G1 X113.423 Y8.159 E.14307
G1 X116.885 Y8.247 E.13827
G1 X120.349 Y8.45 E.13851
G1 X123.917 Y8.781 E.14306
G1 X127.318 Y9.211 E.13684
G1 X130.681 Y9.751 E.13594
G1 X134.296 Y10.455 E.14704
G1 X137.678 Y11.236 E.13855
G1 X141.025 Y12.127 E.13827
G1 X144.432 Y13.159 E.14212
G1 X147.774 Y14.295 E.14092
G1 X151.025 Y15.524 E.13874
G1 X154.223 Y16.856 E.13827
G1 X157.477 Y18.343 E.14283
G1 X160.578 Y19.887 E.13828
G1 X163.636 Y21.54 E.13875
G1 X166.724 Y23.346 E.14283
G1 X169.653 Y25.195 E.13827
G1 X172.529 Y27.146 E.13874
G1 X175.358 Y29.207 E.1397
G1 X178.041 Y31.304 E.13596
G1 X180.858 Y33.658 E.14656
G1 X183.478 Y36.008 E.14048
G1 X185.978 Y38.406 E.13827
G1 X188.4 Y40.889 E.13851
G1 X190.815 Y43.538 E.14307
G1 X193.068 Y46.184 E.13875
G1 X195.221 Y48.89 E.13803
G1 X197.336 Y51.739 E.14163
G1 X199.349 Y54.653 E.14139
G1 X201.218 Y57.562 E.13803
G1 X202.999 Y60.547 E.13875
G1 X204.73 Y63.685 E.14308
G1 X206.299 Y66.773 E.13827
G1 X207.768 Y69.917 E.1385
G1 X209.174 Y73.213 E.14308
G1 X210.429 Y76.454 E.13874
G1 X211.569 Y79.719 E.13803
G1 X212.637 Y83.14 E.14307
G1 X213.556 Y86.48 E.13827
G1 X214.365 Y89.854 E.13851
G1 X215.081 Y93.353 E.14259
G1 X215.661 Y96.78 E.13875
G1 X216.127 Y100.218 E.13851
G1 X216.487 Y103.772 E.14259
G1 X216.72 Y107.24 E.13875
G1 X216.837 Y110.708 E.13851
G1 X216.837 Y114.274 E.14234
G1 X216.72 Y117.754 E.13899
G1 X216.488 Y121.216 E.13851
G1 X216.128 Y124.776 E.14283
G1 X215.661 Y128.22 E.13875
G1 X215.081 Y131.647 E.13875
G1 X214.366 Y135.14 E.14234
G1 X213.557 Y138.515 E.13851
G1 X212.637 Y141.86 E.13851
G1 X211.571 Y145.275 E.14283
G1 X210.425 Y148.557 E.13874
G1 X209.174 Y151.787 E.13828
G1 X207.773 Y155.072 E.14259
G1 X206.307 Y158.211 E.13827
G1 X204.73 Y161.315 E.13899
G1 X203.002 Y164.448 E.14283
G1 X201.228 Y167.423 E.13828
G1 X199.349 Y170.347 E.13874
G1 X197.34 Y173.257 E.14115
G1 X195.221 Y176.11 E.14188
G1 X193.057 Y178.83 E.13874
G1 X190.811 Y181.467 E.13828
G1 X188.4 Y184.111 E.14283
G1 X185.978 Y186.594 E.1385
G1 X183.478 Y188.992 E.13827
G1 X180.869 Y191.333 E.13994
G1 X178.258 Y193.521 E.13596
G1 X175.363 Y195.789 E.14681
G1 X172.524 Y197.857 E.14023
G1 X169.653 Y199.805 E.1385
G1 X166.724 Y201.654 E.13827
G1 X163.63 Y203.463 E.14307
G1 X160.578 Y205.113 E.13851
G1 X157.477 Y206.657 E.13827
G1 X154.245 Y208.134 E.14188
G1 X150.98 Y209.493 E.14115
G1 X147.729 Y210.721 E.13874
G1 X144.455 Y211.834 E.13803
G1 X141.03 Y212.871 E.14284
G1 X137.736 Y213.748 E.13609
G1 X134.3 Y214.544 E.1408
G1 X130.804 Y215.229 E.14223
G1 X127.396 Y215.778 E.1378
G1 X124.017 Y216.207 E.13594
G1 X120.35 Y216.55 E.14704
G1 X116.885 Y216.753 E.13855
G1 X113.423 Y216.841 E.13826
G1 X109.917 Y216.813 E.13994
G1 X106.336 Y216.663 E.14309
G1 X102.87 Y216.399 E.13875
G1 X99.386 Y216.017 E.13994
G1 X95.963 Y215.525 E.13803
G1 X92.61 Y214.929 E.13595
G1 X89.019 Y214.167 E.14656
G1 X85.604 Y213.317 E.14049
G1 X82.261 Y212.365 E.13875
G1 X78.946 Y211.301 E.13899
G1 X75.595 Y210.098 E.14212
G1 X72.433 Y208.841 E.13584
G1 X69.199 Y207.433 E.1408
G1 X65.999 Y205.907 E.14151
G1 X62.85 Y204.272 E.14163
G1 X59.832 Y202.574 E.13826
G1 X56.866 Y200.772 E.13851
G1 X53.867 Y198.809 E.14308
G1 X51.03 Y196.812 E.13851
G1 X48.266 Y194.725 E.13827
G1 X45.48 Y192.471 E.14307
G1 X42.863 Y190.202 E.13827
G1 X40.318 Y187.843 E.13851
G1 X37.773 Y185.32 E.14308
G1 X35.369 Y182.768 E.13994
G1 X33.087 Y180.178 E.13779
G1 X30.889 Y177.508 E.13803
G1 X28.69 Y174.65 E.14399
G1 X26.669 Y171.828 E.13855
G1 X24.728 Y168.916 E.13971
G1 X22.861 Y165.899 E.14163
G1 X21.132 Y162.883 E.13875
G1 X19.504 Y159.812 E.13875
G1 X17.942 Y156.607 E.14235
G1 X16.53 Y153.444 E.13827
G1 X15.213 Y150.208 E.13947
G1 X14.019 Y146.963 E.13801
G1 X12.909 Y143.615 E.1408
G1 X11.911 Y140.22 E.14126
G1 X11.04 Y136.837 E.13947
G1 X10.283 Y133.432 E.13923
G1 X9.635 Y129.974 E.14043
G1 X9.098 Y126.443 E.1426
G1 X8.691 Y122.997 E.13851
G1 X8.4 Y119.54 E.13851
G1 X8.219 Y115.966 E.14282
G1 X8.162 Y112.533 E.13708
G1 X8.219 Y109.034 E.13969
G1 X8.398 Y105.479 E.14212
G1 X8.691 Y102.009 E.13899
G1 X9.099 Y98.545 E.13924
G1 X9.638 Y95.014 E.14261
G1 X10.264 Y91.669 E.13585
G1 X11.025 Y88.225 E.1408
