; generated by PrusaSlicer 2.4.0+win64 on 2021-12-28 at 09:21:22 UTC

; 

; external perimeters extrusion width = 0.45mm
; perimeters extrusion width = 0.45mm
; infill extrusion width = 0.45mm
; solid infill extrusion width = 0.45mm
; top infill extrusion width = 0.40mm
; support material extrusion width = 0.38mm
; first layer extrusion width = 0.42mm

M107
M190 S60 ; set bed temperature and wait for it to be reached
M104 S215 ; set temperature
;TYPE:Custom
M109 S215 ; set temperature and wait for it to be reached
G21 ; set units to millimeters
G90 ; use absolute coordinates
M83 ; use relative distances for extrusion
; Filament gcode
M107
;LAYER_CHANGE
;Z:0.4
;HEIGHT:0.4

G1 E-5 F3600
G1 Z.4 F9000
G1 X96.774 Y96.774
G1 E5 F2400
M204 P500
;TYPE:Skirt/Brim
;WIDTH:0.42
G1 F1200
G1 X102.563 Y90.985 E.45496
G1 X103.954 Y90.152 E.09008
G1 X104.921 Y90.009 E.05434
G1 X120.079 Y90.009 E.84234
G1 X121.651 Y90.403 E.09008
G1 X122.437 Y90.985 E.05434
G1 X134.015 Y102.563 E.90991
G1 X134.848 Y103.954 E.09008
G1 X134.991 Y104.921 E.05434
G1 X134.991 Y120.079 E.84234
G1 X134.597 Y121.651 E.09008
G1 X134.015 Y122.437 E.05434
G1 X122.437 Y134.015 E.90991
G1 X121.046 Y134.848 E.09008
G1 X120.079 Y134.991 E.05434
G1 X104.921 Y134.991 E.84234
G1 X103.349 Y134.597 E.09008
G1 X102.563 Y134.015 E.05434
G1 X90.985 Y122.437 E.90991
G1 X90.152 Y121.046 E.09008
G1 X90.009 Y120.079 E.05434
G1 X90.009 Y104.921 E.84234
G1 X90.403 Y103.349 E.09008
G1 X90.985 Y102.563 E.05434
G1 X96.732 Y96.817 E.45162
G1 E-3.5 F3600
;WIPE_START
G1 F7200
G1 X98.853 Y94.695 E-1.425
;WIPE_END
G1 E-.075 F3600
G1 X102.02 Y120.079 F9000
G1 E5 F2400
;TYPE:Support material
G1 F1200
G1 X93.343 Y120.079 E.48219
G1 X93.343 Y104.921 E.84234
G1 X102.02 Y104.921 E.48219
G1 X102.02 Y120.029 E.83955
G1 X101.361 Y119.929 F9000
G1 F1200
G1 X101.361 Y105.222 E.81727
G1 X100.99 Y105.222 E.02063
G1 X100.99 Y119.778 E.80891
G1 X100.619 Y119.778 E.02063
G1 X100.619 Y105.222 E.80891
G1 X100.247 Y105.222 E.02063
G1 X100.247 Y119.778 E.80891
G1 X99.876 Y119.778 E.02063
G1 X99.876 Y105.222 E.80891
G1 X99.505 Y105.222 E.02063
G1 X99.505 Y119.778 E.80891
G1 X99.134 Y119.778 E.02063
G1 X99.134 Y105.222 E.80891
G1 X98.762 Y105.222 E.02063
G1 X98.762 Y119.778 E.80891
G1 X98.391 Y119.778 E.02063
G1 X98.391 Y105.222 E.80891
G1 X98.02 Y105.222 E.02063
G1 X98.02 Y119.778 E.80891
G1 X97.648 Y119.778 E.02063
G1 X97.648 Y105.222 E.80891
G1 X97.277 Y105.222 E.02063
G1 X97.277 Y119.778 E.80891
G1 X96.906 Y119.778 E.02063
G1 X96.906 Y105.222 E.80891
G1 X96.535 Y105.222 E.02063
G1 X96.535 Y119.778 E.80891
G1 X96.163 Y119.778 E.02063
G1 X96.163 Y105.222 E.80891
G1 X95.792 Y105.222 E.02063
G1 X95.792 Y119.778 E.80891
G1 X95.421 Y119.778 E.02063
G1 X95.421 Y105.222 E.80891
G1 X95.049 Y105.222 E.02063
G1 X95.049 Y119.778 E.80891
G1 X94.678 Y119.778 E.02063
G1 X94.678 Y105.222 E.80891
G1 X94.307 Y105.222 E.02063
G1 X94.307 Y119.778 E.80891
G1 X93.936 Y119.778 E.02063
G1 X93.936 Y105.071 E.81727
G1 E-3.5 F3600
;WIPE_START
G1 F7200
G1 X93.936 Y108.071 E-1.425
;WIPE_END
G1 E-.075 F3600
G1 X120.079 Y102.02 F9000
G1 E5 F2400
G1 F1200
G1 X104.921 Y102.02 E.84234
G1 X104.921 Y93.343 E.48219
G1 X120.079 Y93.343 E.84234
G1 X120.079 Y101.97 E.47941
G1 X119.554 Y101.87 F9000
G1 F1200
G1 X119.554 Y93.644 E.45712
G1 X119.183 Y93.644 E.02063
G1 X119.183 Y101.719 E.44877
G1 X118.812 Y101.719 E.02063
G1 X118.812 Y93.644 E.44877
G1 X118.441 Y93.644 E.02063
G1 X118.441 Y101.719 E.44877
G1 X118.069 Y101.719 E.02063
G1 X118.069 Y93.644 E.44877
G1 X117.698 Y93.644 E.02063
G1 X117.698 Y101.719 E.44877
G1 X117.327 Y101.719 E.02063
G1 X117.327 Y93.644 E.44877
G1 X116.955 Y93.644 E.02063
G1 X116.955 Y101.719 E.44877
G1 X116.584 Y101.719 E.02063
G1 X116.584 Y93.644 E.44877
G1 X116.213 Y93.644 E.02063
G1 X116.213 Y101.719 E.44877
G1 X115.842 Y101.719 E.02063
G1 X115.842 Y93.644 E.44877
G1 X115.47 Y93.644 E.02063
G1 X115.47 Y101.719 E.44877
G1 X115.099 Y101.719 E.02063
G1 X115.099 Y93.644 E.44877
G1 X114.728 Y93.644 E.02063
G1 X114.728 Y101.719 E.44877
G1 X114.356 Y101.719 E.02063
G1 X114.356 Y93.644 E.44877
G1 X113.985 Y93.644 E.02063
G1 X113.985 Y101.719 E.44877
G1 X113.614 Y101.719 E.02063
G1 X113.614 Y93.644 E.44877
G1 X113.243 Y93.644 E.02063
G1 X113.243 Y101.719 E.44877
G1 X112.871 Y101.719 E.02063
G1 X112.871 Y93.644 E.44877
G1 X112.5 Y93.644 E.02063
G1 X112.5 Y101.719 E.44877
G1 X112.129 Y101.719 E.02063
G1 X112.129 Y93.644 E.44877
G1 X111.757 Y93.644 E.02063
G1 X111.757 Y101.719 E.44877
G1 X111.386 Y101.719 E.02063
G1 X111.386 Y93.644 E.44877
G1 X111.015 Y93.644 E.02063
G1 X111.015 Y101.719 E.44877
G1 X110.644 Y101.719 E.02063
G1 X110.644 Y93.644 E.44877
G1 X110.272 Y93.644 E.02063
G1 X110.272 Y101.719 E.44877
G1 X109.901 Y101.719 E.02063
G1 X109.901 Y93.644 E.44877
G1 X109.53 Y93.644 E.02063
G1 X109.53 Y101.719 E.44877
G1 X109.158 Y101.719 E.02063
G1 X109.158 Y93.644 E.44877
G1 X108.787 Y93.644 E.02063
G1 X108.787 Y101.719 E.44877
G1 X108.416 Y101.719 E.02063
G1 X108.416 Y93.644 E.44877
G1 X108.045 Y93.644 E.02063
G1 X108.045 Y101.719 E.44877
G1 X107.673 Y101.719 E.02063
G1 X107.673 Y93.644 E.44877
G1 X107.302 Y93.644 E.02063
G1 X107.302 Y101.719 E.44877
G1 X106.931 Y101.719 E.02063
G1 X106.931 Y93.644 E.44877
G1 X106.559 Y93.644 E.02063
G1 X106.559 Y101.719 E.44877
G1 X106.188 Y101.719 E.02063
G1 X106.188 Y93.644 E.44877
G1 X105.817 Y93.644 E.02063
G1 X105.817 Y101.719 E.44877
G1 X105.446 Y101.719 E.02063
G1 X105.446 Y93.493 E.45712
G1 E-3.5 F3600
;WIPE_START
G1 F7200
G1 X105.446 Y96.493 E-1.425
;WIPE_END
G1 E-.075 F3600
G1 X131.657 Y120.079 F9000
G1 E5 F2400
G1 F1200
G1 X122.98 Y120.079 E.48219
G1 X122.98 Y104.921 E.84234
G1 X131.657 Y104.921 E.48219
G1 X131.657 Y120.029 E.83955
G1 X131.064 Y119.929 F9000
G1 F1200
G1 X131.064 Y105.222 E.81727
G1 X130.693 Y105.222 E.02063
G1 X130.693 Y119.778 E.80891
G1 X130.322 Y119.778 E.02063
G1 X130.322 Y105.222 E.80891
G1 X129.951 Y105.222 E.02063
G1 X129.951 Y119.778 E.80891
G1 X129.579 Y119.778 E.02063
G1 X129.579 Y105.222 E.80891
G1 X129.208 Y105.222 E.02063
G1 X129.208 Y119.778 E.80891
G1 X128.837 Y119.778 E.02063
G1 X128.837 Y105.222 E.80891
G1 X128.465 Y105.222 E.02063
G1 X128.465 Y119.778 E.80891
G1 X128.094 Y119.778 E.02063
G1 X128.094 Y105.222 E.80891
G1 X127.723 Y105.222 E.02063
G1 X127.723 Y119.778 E.80891
G1 X127.352 Y119.778 E.02063
G1 X127.352 Y105.222 E.80891
G1 X126.98 Y105.222 E.02063
G1 X126.98 Y119.778 E.80891
G1 X126.609 Y119.778 E.02063
G1 X126.609 Y105.222 E.80891
G1 X126.238 Y105.222 E.02063
G1 X126.238 Y119.778 E.80891
G1 X125.866 Y119.778 E.02063
G1 X125.866 Y105.222 E.80891
G1 X125.495 Y105.222 E.02063
G1 X125.495 Y119.778 E.80891
G1 X125.124 Y119.778 E.02063
G1 X125.124 Y105.222 E.80891
G1 X124.753 Y105.222 E.02063
G1 X124.753 Y119.778 E.80891
G1 X124.381 Y119.778 E.02063
G1 X124.381 Y105.222 E.80891
G1 X124.01 Y105.222 E.02063
G1 X124.01 Y119.778 E.80891
G1 X123.639 Y119.778 E.02063
G1 X123.639 Y105.071 E.81727
G1 E-3.5 F3600
;WIPE_START
G1 F7200
G1 X123.639 Y108.071 E-1.425
;WIPE_END
G1 E-.075 F3600
G1 X120.079 Y131.657 F9000
G1 E5 F2400
G1 F1200
G1 X104.921 Y131.657 E.84234
G1 X104.921 Y122.98 E.48219
G1 X120.079 Y122.98 E.84234
G1 X120.079 Y131.607 E.47941
G1 X119.554 Y131.507 F9000
G1 F1200
G1 X119.554 Y123.281 E.45712
G1 X119.183 Y123.281 E.02063
G1 X119.183 Y131.356 E.44877
G1 X118.812 Y131.356 E.02063
G1 X118.812 Y123.281 E.44877
G1 X118.441 Y123.281 E.02063
G1 X118.441 Y131.356 E.44877
G1 X118.069 Y131.356 E.02063
G1 X118.069 Y123.281 E.44877
G1 X117.698 Y123.281 E.02063
G1 X117.698 Y131.356 E.44877
G1 X117.327 Y131.356 E.02063
G1 X117.327 Y123.281 E.44877
G1 X116.955 Y123.281 E.02063
G1 X116.955 Y131.356 E.44877
G1 X116.584 Y131.356 E.02063
G1 X116.584 Y123.281 E.44877
G1 X116.213 Y123.281 E.02063
G1 X116.213 Y131.356 E.44877
G1 X115.842 Y131.356 E.02063
G1 X115.842 Y123.281 E.44877
G1 X115.47 Y123.281 E.02063
G1 X115.47 Y131.356 E.44877
G1 X115.099 Y131.356 E.02063
G1 X115.099 Y123.281 E.44877
G1 X114.728 Y123.281 E.02063
G1 X114.728 Y131.356 E.44877
G1 X114.356 Y131.356 E.02063
G1 X114.356 Y123.281 E.44877
G1 X113.985 Y123.281 E.02063
G1 X113.985 Y131.356 E.44877
G1 X113.614 Y131.356 E.02063
G1 X113.614 Y123.281 E.44877
G1 X113.243 Y123.281 E.02063
G1 X113.243 Y131.356 E.44877
G1 X112.871 Y131.356 E.02063
G1 X112.871 Y123.281 E.44877
G1 X112.5 Y123.281 E.02063
G1 X112.5 Y131.356 E.44877
G1 X112.129 Y131.356 E.02063
G1 X112.129 Y123.281 E.44877
G1 X111.757 Y123.281 E.02063
G1 X111.757 Y131.356 E.44877
G1 X111.386 Y131.356 E.02063
G1 X111.386 Y123.281 E.44877
G1 X111.015 Y123.281 E.02063
G1 X111.015 Y131.356 E.44877
G1 X110.644 Y131.356 E.02063
G1 X110.644 Y123.281 E.44877
G1 X110.272 Y123.281 E.02063
G1 X110.272 Y131.356 E.44877
G1 X109.901 Y131.356 E.02063
G1 X109.901 Y123.281 E.44877
G1 X109.53 Y123.281 E.02063
G1 X109.53 Y131.356 E.44877
G1 X109.158 Y131.356 E.02063
G1 X109.158 Y123.281 E.44877
G1 X108.787 Y123.281 E.02063
G1 X108.787 Y131.356 E.44877
G1 X108.416 Y131.356 E.02063
G1 X108.416 Y123.281 E.44877
G1 X108.045 Y123.281 E.02063
G1 X108.045 Y131.356 E.44877
G1 X107.673 Y131.356 E.02063
G1 X107.673 Y123.281 E.44877
G1 X107.302 Y123.281 E.02063
G1 X107.302 Y131.356 E.44877
G1 X106.931 Y131.356 E.02063
G1 X106.931 Y123.281 E.44877
G1 X106.559 Y123.281 E.02063
G1 X106.559 Y131.356 E.44877
G1 X106.188 Y131.356 E.02063
G1 X106.188 Y123.281 E.44877
G1 X105.817 Y123.281 E.02063
G1 X105.817 Y131.356 E.44877
G1 X105.446 Y131.356 E.02063
G1 X105.446 Y123.13 E.45712
G1 E-3.5 F3600
;WIPE_START
G1 F7200
G1 X105.446 Y126.13 E-1.425
;WIPE_END
G1 E-.075 F3600
G1 X103.144 Y121.456 F9000
G1 E5 F2400
;TYPE:Perimeter
G1 F1200
G1 X103.144 Y103.144 E1.0176
G1 X121.856 Y103.144 E1.03983
G1 X121.856 Y121.856 E1.03983
G1 X103.144 Y121.856 E1.03983
G1 X103.144 Y121.516 E.01889
G1 X102.81 Y122.19 F9000
;TYPE:External perimeter
G1 F1200
G1 X102.81 Y102.81 E1.07696
G1 X122.19 Y102.81 E1.07696
G1 X122.19 Y122.19 E1.07696
G1 X102.87 Y122.19 E1.07363
G1 X102.914 Y121.804 F9000
G1 E-3.5 F3600
;WIPE_START
G1 F7200
G1 X102.861 Y119.19 E-1.425
;WIPE_END
G1 E-.075 F3600
G1 X121.076 Y103.244 F9000
G1 E5 F2400
;TYPE:Solid infill
;WIDTH:0.422072
G1 F1200
G1 X121.605 Y103.774 E.04187
G1 X121.605 Y104.249 E.02659
G1 X120.751 Y103.395 E.06758
G1 X120.275 Y103.395 E.02659
G1 X121.605 Y104.725 E.10519
G1 X121.605 Y105.2 E.02659
G1 X119.8 Y103.395 E.14279
G1 X119.324 Y103.395 E.02659
G1 X121.605 Y105.676 E.18039
G1 X121.605 Y106.151 E.02659
G1 X118.849 Y103.395 E.21799
G1 X118.373 Y103.395 E.02659
G1 X121.605 Y106.627 E.25559
G1 X121.605 Y107.102 E.02659
G1 X117.898 Y103.395 E.29319
G1 X117.422 Y103.395 E.02659
G1 X121.605 Y107.578 E.33079
G1 X121.605 Y108.053 E.02659
G1 X116.947 Y103.395 E.36839
G1 X116.471 Y103.395 E.02659
G1 X121.605 Y108.529 E.40599
G1 X121.605 Y109.004 E.02659
G1 X115.996 Y103.395 E.44359
G1 X115.52 Y103.395 E.02659
G1 X121.605 Y109.48 E.4812
G1 X121.605 Y109.955 E.02659
G1 X115.045 Y103.395 E.5188
G1 X114.569 Y103.395 E.02659
G1 X121.605 Y110.431 E.5564
G1 X121.605 Y110.906 E.02659
G1 X114.094 Y103.395 E.594
G1 X113.618 Y103.395 E.02659
G1 X121.605 Y111.382 E.6316
G1 X121.605 Y111.857 E.02659
G1 X113.143 Y103.395 E.6692
G1 X112.667 Y103.395 E.02659
G1 X121.605 Y112.333 E.7068
G1 X121.605 Y112.808 E.02659
G1 X112.192 Y103.395 E.7444
G1 X111.716 Y103.395 E.02659
G1 X121.605 Y113.284 E.782
G1 X121.605 Y113.759 E.02659
G1 X111.241 Y103.395 E.8196
G1 X110.765 Y103.395 E.02659
G1 X121.605 Y114.235 E.85721
G1 X121.605 Y114.71 E.02659
G1 X110.29 Y103.395 E.89481
G1 X109.814 Y103.395 E.02659
G1 X121.605 Y115.186 E.93241
G1 X121.605 Y115.661 E.02659
G1 X109.339 Y103.395 E.97001
G1 X108.863 Y103.395 E.02659
G1 X121.605 Y116.137 E1.00761
G1 X121.605 Y116.612 E.02659
G1 X108.388 Y103.395 E1.04521
G1 X107.912 Y103.395 E.02659
G1 X121.605 Y117.088 E1.08281
G1 X121.605 Y117.564 E.02659
G1 X107.436 Y103.395 E1.12041
G1 X106.961 Y103.395 E.02659
G1 X121.605 Y118.039 E1.15801
G1 X121.605 Y118.515 E.02659
G1 X106.485 Y103.395 E1.19561
G1 X106.01 Y103.395 E.02659
G1 X121.605 Y118.99 E1.23322
G1 X121.605 Y119.466 E.02659
G1 X105.534 Y103.395 E1.27082
G1 X105.059 Y103.395 E.02659
G1 X121.605 Y119.941 E1.30842
G1 X121.605 Y120.417 E.02659
G1 X104.583 Y103.395 E1.34602
G1 X104.108 Y103.395 E.02659
G1 X121.605 Y120.892 E1.38362
G1 X121.605 Y121.368 E.02659
G1 X103.632 Y103.395 E1.42122
G1 X103.395 Y103.395 E.01329
G1 X103.395 Y103.633 E.0133
G1 X121.367 Y121.605 E1.42121
G1 X120.892 Y121.605 E.02659
G1 X103.395 Y104.108 E1.38361
G1 X103.395 Y104.584 E.02659
G1 X120.416 Y121.605 E1.34601
G1 X119.941 Y121.605 E.02659
G1 X103.395 Y105.059 E1.30841
G1 X103.395 Y105.535 E.02659
G1 X119.465 Y121.605 E1.27081
G1 X118.99 Y121.605 E.02659
G1 X103.395 Y106.01 E1.23321
G1 X103.395 Y106.486 E.02659
G1 X118.514 Y121.605 E1.19561
G1 X118.039 Y121.605 E.02659
G1 X103.395 Y106.961 E1.15801
G1 X103.395 Y107.437 E.02659
G1 X117.563 Y121.605 E1.12041
G1 X117.088 Y121.605 E.02659
G1 X103.395 Y107.912 E1.08281
G1 X103.395 Y108.388 E.02659
G1 X116.612 Y121.605 E1.0452
G1 X116.137 Y121.605 E.02659
G1 X103.395 Y108.863 E1.0076
G1 X103.395 Y109.339 E.02659
G1 X115.661 Y121.605 E.97
G1 X115.186 Y121.605 E.02659
G1 X103.395 Y109.814 E.9324
G1 X103.395 Y110.29 E.02659
G1 X114.71 Y121.605 E.8948
G1 X114.235 Y121.605 E.02659
G1 X103.395 Y110.765 E.8572
G1 X103.395 Y111.241 E.02659
G1 X113.759 Y121.605 E.8196
G1 X113.284 Y121.605 E.02659
G1 X103.395 Y111.716 E.782
G1 X103.395 Y112.192 E.02659
G1 X112.808 Y121.605 E.7444
G1 X112.333 Y121.605 E.02659
G1 X103.395 Y112.667 E.7068
G1 X103.395 Y113.143 E.02659
G1 X111.857 Y121.605 E.66919
G1 X111.382 Y121.605 E.02659
G1 X103.395 Y113.618 E.63159
G1 X103.395 Y114.094 E.02659
G1 X110.906 Y121.605 E.59399
G1 X110.431 Y121.605 E.02659
G1 X103.395 Y114.569 E.55639
G1 X103.395 Y115.045 E.02659
G1 X109.955 Y121.605 E.51879
G1 X109.48 Y121.605 E.02659
G1 X103.395 Y115.52 E.48119
G1 X103.395 Y115.996 E.02659
G1 X109.004 Y121.605 E.44359
G1 X108.529 Y121.605 E.02659
G1 X103.395 Y116.471 E.40599
G1 X103.395 Y116.947 E.02659
G1 X108.053 Y121.605 E.36839
G1 X107.578 Y121.605 E.02659
G1 X103.395 Y117.422 E.33078
G1 X103.395 Y117.898 E.02659
G1 X107.102 Y121.605 E.29318
G1 X106.627 Y121.605 E.02659
G1 X103.395 Y118.373 E.25558
G1 X103.395 Y118.849 E.02659
G1 X106.151 Y121.605 E.21798
G1 X105.676 Y121.605 E.02659
G1 X103.395 Y119.324 E.18038
G1 X103.395 Y119.8 E.02659
G1 X105.2 Y121.605 E.14278
G1 X104.725 Y121.605 E.02659
G1 X103.395 Y120.275 E.10518
G1 X103.395 Y120.751 E.02659
G1 X104.249 Y121.605 E.06758
G1 X103.774 Y121.605 E.02659
G1 X103.244 Y121.076 E.04187
M106 S255
;LAYER_CHANGE
;Z:0.641429
;HEIGHT:0.241429

G1 E-3.5 F3600
;WIPE_START
G1 F7200
G1 X103.774 Y121.605 E-.35566
G1 X104.249 Y121.605 E-.22586
G1 X103.395 Y120.751 E-.57407
G1 X103.395 Y120.275 E-.22586
G1 X103.46 Y120.34 E-.04354
;WIPE_END
G1 E-.075 F3600
G1 Z.641 F9000
M104 S210 ; set temperature
G1 X100.922 Y114.563
G1 E5 F2400
;TYPE:Support material
;WIDTH:0.38
G1 X100.922 Y112.5 E.06796
G1 X96.291 Y112.5 E.15256
G1 X96.291 Y110.184 E.07628
G1 X102.072 Y110.184 E.19045
G1 X102.072 Y107.869 E.07628
G1 X96.291 Y107.869 E.19045
G1 X96.291 Y112.658 F9000
G1 F2400
G1 X96.291 Y114.816 E.07108
G1 X102.072 Y114.816 E.19045
G1 X102.072 Y117.131 E.07628
G1 X96.291 Y117.131 E.19045
G1 E-3.5 F3600
;WIPE_START
G1 F7200
G1 X99.291 Y117.131 E-1.425
;WIPE_END
G1 E-.075 F3600
G1 X107.869 Y96.291 F9000
G1 E5 F2400
G1 X117.131 Y96.291 E.30512
G1 X117.131 Y98.606 E.07628
G1 X107.869 Y98.606 E.30512
G1 X107.869 Y100.922 E.07628
G1 X117.131 Y100.922 E.30512
G1 X117.131 Y102.072 E.03789
G1 X107.869 Y102.072 E.30512
G1 X107.869 Y101.08 E.03269
G1 E-3.5 F3600
;WIPE_START
G1 F7200
G1 X107.869 Y102.072 E-.47143
G1 X109.876 Y102.072 E-.95357
;WIPE_END
G1 E-.075 F3600
G1 X122.928 Y107.869 F9000
G1 E5 F2400
G1 X128.709 Y107.869 E.19045
G1 X128.709 Y110.184 E.07628
G1 X122.928 Y110.184 E.19045
G1 X124.078 Y110.437 F9000
G1 F2400
G1 X124.078 Y112.5 E.06796
G1 X128.709 Y112.5 E.15256
G1 X128.709 Y114.816 E.07628
G1 X122.928 Y114.816 E.19045
G1 X122.928 Y117.131 E.07628
G1 X128.709 Y117.131 E.19045
G1 E-3.5 F3600
;WIPE_START
