; generated by PrusaSlicer 2.4.0+win64 on 2022-06-09 at 08:39:11 UTC

; 

; external perimeters extrusion width = 0.45mm
; perimeters extrusion width = 0.45mm
; infill extrusion width = 0.45mm
; solid infill extrusion width = 0.45mm
; top infill extrusion width = 0.40mm
; first layer extrusion width = 0.42mm

M107
M190 S50 ; set bed temperature and wait for it to be reached
M104 S200 ; set temperature
;TYPE:Custom
M109 S200 ; set temperature and wait for it to be reached
G21 ; set units to millimeters
G90 ; use absolute coordinates
M83 ; use relative distances for extrusion
; Filament gcode
M107
;LAYER_CHANGE
;Z:0.3
;HEIGHT:0.3

G1 E-2 F2700
G1 Z2 F9000
G1 X100.628 Y99.715
G1 Z.3
G1 E2 F2400
M204 P1000
;TYPE:Skirt/Brim
;WIDTH:0.42
G1 F1200
G1 X102.5 Y99.144 E.07812
G1 X122.5 Y99.144 E.79839
G1 X124.078 Y99.538 E.06492
G1 X125.285 Y100.628 E.06492
G1 X125.856 Y102.5 E.07812
G1 X125.856 Y122.5 E.79839
G1 X125.462 Y124.078 E.06492
G1 X124.372 Y125.285 E.06492
G1 X122.5 Y125.856 E.07812
G1 X102.5 Y125.856 E.79839
G1 X100.922 Y125.462 E.06492
G1 X99.715 Y124.372 E.06492
G1 X99.144 Y122.5 E.07812
G1 X99.144 Y102.5 E.79839
G1 X99.538 Y100.922 E.06492
G1 X100.588 Y99.76 E.06252
G1 E-1.6 F2700
;WIPE_START
G1 F7200
G1 X101.603 Y99.433 E-.38
;WIPE_END
G1 E-.02 F2700
G1 Z2.3 F9000
G1 X102.81 Y102.81
G1 Z.3
G1 E2 F2400
;TYPE:External perimeter
G1 F1200
G1 X122.19 Y102.81 E.77364
G1 X122.19 Y122.19 E.77364
G1 X102.81 Y122.19 E.77364
G1 X102.81 Y102.87 E.77124
G1 X103.196 Y102.914 F9000
G1 E-1.6 F2700
;WIPE_START
G1 F7200
G1 X103.877 Y102.867 E-.38
;WIPE_END
G1 E-.02 F2700
G1 Z2.3 F9000
G1 X121.834 Y121.834
G1 Z.3
G1 E2 F2400
;TYPE:Perimeter
G1 F1200
G1 X103.166 Y121.834 E.74524
G1 X103.166 Y103.166 E.74524
G1 X121.834 Y103.166 E.74524
G1 X121.834 Y121.774 E.74285
G1 X121.479 Y121.479 F9000
G1 F1200
G1 X103.521 Y121.479 E.71685
G1 X103.521 Y103.521 E.71685
G1 X121.479 Y103.521 E.71685
G1 X121.479 Y121.419 E.71446
G1 E-1.6 F2700
;WIPE_START
G1 F7200
G1 X120.412 Y121.422 E-.38
;WIPE_END
G1 E-.02 F2700
G1 Z2.3 F9000
G1 X120.646 Y103.628
G1 Z.3
G1 E2 F2400
;TYPE:Solid infill
;WIDTH:0.423585
G1 F1200
G1 X121.212 Y104.194 E.0323
G1 X121.212 Y104.702 E.02048
G1 X120.298 Y103.788 E.05214
G1 X119.79 Y103.788 E.02048
G1 X121.212 Y105.21 E.08111
G1 X121.212 Y105.718 E.02048
G1 X119.282 Y103.788 E.11008
G1 X118.774 Y103.788 E.02048
G1 X121.212 Y106.226 E.13905
G1 X121.212 Y106.734 E.02048
G1 X118.266 Y103.788 E.16801
G1 X117.758 Y103.788 E.02048
G1 X121.212 Y107.242 E.19698
G1 X121.212 Y107.75 E.02048
G1 X117.25 Y103.788 E.22595
G1 X116.742 Y103.788 E.02048
G1 X121.212 Y108.258 E.25492
G1 X121.212 Y108.766 E.02048
G1 X116.234 Y103.788 E.28388
G1 X115.726 Y103.788 E.02048
G1 X121.212 Y109.274 E.31285
G1 X121.212 Y109.782 E.02048
G1 X115.218 Y103.788 E.34182
G1 X114.71 Y103.788 E.02048
G1 X121.212 Y110.29 E.37079
G1 X121.212 Y110.798 E.02048
G1 X114.202 Y103.788 E.39975
G1 X113.694 Y103.788 E.02048
G1 X121.212 Y111.306 E.42872
G1 X121.212 Y111.814 E.02048
G1 X113.186 Y103.788 E.45769
G1 X112.678 Y103.788 E.02048
G1 X121.212 Y112.322 E.48666
G1 X121.212 Y112.83 E.02048
G1 X112.17 Y103.788 E.51562
G1 X111.662 Y103.788 E.02048
G1 X121.212 Y113.338 E.54459
G1 X121.212 Y113.846 E.02048
G1 X111.154 Y103.788 E.57356
G1 X110.646 Y103.788 E.02048
G1 X121.212 Y114.354 E.60253
G1 X121.212 Y114.862 E.02048
G1 X110.138 Y103.788 E.63149
G1 X109.63 Y103.788 E.02048
G1 X121.212 Y115.37 E.66046
G1 X121.212 Y115.878 E.02048
G1 X109.122 Y103.788 E.68943
G1 X108.614 Y103.788 E.02048
G1 X121.212 Y116.386 E.7184
G1 X121.212 Y116.894 E.02048
G1 X108.106 Y103.788 E.74736
G1 X107.598 Y103.788 E.02048
G1 X121.212 Y117.402 E.77633
G1 X121.212 Y117.91 E.02048
G1 X107.09 Y103.788 E.8053
G1 X106.582 Y103.788 E.02048
G1 X121.212 Y118.418 E.83426
G1 X121.212 Y118.926 E.02048
G1 X106.074 Y103.788 E.86323
G1 X105.566 Y103.788 E.02048
G1 X121.212 Y119.434 E.8922
G1 X121.212 Y119.942 E.02048
G1 X105.058 Y103.788 E.92117
G1 X104.55 Y103.788 E.02048
G1 X121.212 Y120.45 E.95013
G1 X121.212 Y120.958 E.02048
G1 X104.042 Y103.788 E.9791
G1 X103.788 Y103.788 E.01024
G1 X103.788 Y104.042 E.01024
G1 X120.958 Y121.212 E.9791
G1 X120.45 Y121.212 E.02048
G1 X103.788 Y104.55 E.95013
G1 X103.788 Y105.058 E.02048
G1 X119.942 Y121.212 E.92116
G1 X119.434 Y121.212 E.02048
G1 X103.788 Y105.566 E.8922
G1 X103.788 Y106.074 E.02048
G1 X118.926 Y121.212 E.86323
G1 X118.418 Y121.212 E.02048
G1 X103.788 Y106.582 E.83426
G1 X103.788 Y107.09 E.02048
G1 X117.91 Y121.212 E.80529
G1 X117.402 Y121.212 E.02048
G1 X103.788 Y107.598 E.77633
G1 X103.788 Y108.106 E.02048
G1 X116.894 Y121.212 E.74736
G1 X116.386 Y121.212 E.02048
G1 X103.788 Y108.614 E.71839
G1 X103.788 Y109.122 E.02048
G1 X115.878 Y121.212 E.68942
G1 X115.37 Y121.212 E.02048
G1 X103.788 Y109.63 E.66046
G1 X103.788 Y110.138 E.02048
G1 X114.862 Y121.212 E.63149
G1 X114.354 Y121.212 E.02048
G1 X103.788 Y110.646 E.60252
G1 X103.788 Y111.154 E.02048
G1 X113.846 Y121.212 E.57356
G1 X113.338 Y121.212 E.02048
G1 X103.788 Y111.662 E.54459
G1 X103.788 Y112.17 E.02048
G1 X112.83 Y121.212 E.51562
G1 X112.322 Y121.212 E.02048
G1 X103.788 Y112.678 E.48665
G1 X103.788 Y113.186 E.02048
G1 X111.814 Y121.212 E.45769
G1 X111.306 Y121.212 E.02048
G1 X103.788 Y113.694 E.42872
G1 X103.788 Y114.202 E.02048
G1 X110.798 Y121.212 E.39975
G1 X110.29 Y121.212 E.02048
G1 X103.788 Y114.71 E.37078
G1 X103.788 Y115.218 E.02048
G1 X109.782 Y121.212 E.34182
G1 X109.274 Y121.212 E.02048
G1 X103.788 Y115.726 E.31285
G1 X103.788 Y116.234 E.02048
G1 X108.766 Y121.212 E.28388
G1 X108.258 Y121.212 E.02048
G1 X103.788 Y116.742 E.25491
G1 X103.788 Y117.25 E.02048
G1 X107.75 Y121.212 E.22595
G1 X107.242 Y121.212 E.02048
G1 X103.788 Y117.758 E.19698
G1 X103.788 Y118.266 E.02048
G1 X106.734 Y121.212 E.16801
G1 X106.226 Y121.212 E.02048
G1 X103.788 Y118.774 E.13904
G1 X103.788 Y119.282 E.02048
G1 X105.718 Y121.212 E.11008
G1 X105.21 Y121.212 E.02048
G1 X103.788 Y119.79 E.08111
G1 X103.788 Y120.298 E.02048
G1 X104.702 Y121.212 E.05214
G1 X104.194 Y121.212 E.02048
G1 X103.628 Y120.646 E.0323
;LAYER_CHANGE
;Z:0.5
;HEIGHT:0.2

G1 E-1.6 F2700
;WIPE_START
G1 F7200
G1 X104.194 Y121.212 E-.28537
G1 X104.46 Y121.212 E-.09463
;WIPE_END
G1 E-.02 F2700
G1 Z2.3 F9000
M104 S205 ; set temperature
M140 S60 ; set bed temperature
G1 X104.46 Y125.856
G1 Z.5
G1 E2 F2400
;TYPE:Skirt/Brim
;WIDTH:0.42
G1 F1500
G1 X102.5 Y125.856 E.05531
G1 X100.922 Y125.462 E.04589
G1 X99.715 Y124.372 E.04589
G1 X99.144 Y122.5 E.05523
G1 X99.144 Y102.5 E.56438
G1 X99.538 Y100.922 E.04589
G1 X100.628 Y99.715 E.04589
G1 X102.5 Y99.144 E.05523
G1 X122.5 Y99.144 E.56438
G1 X124.078 Y99.538 E.04589
G1 X125.285 Y100.628 E.04589
G1 X125.856 Y102.5 E.05523
G1 X125.856 Y122.5 E.56438
G1 X125.462 Y124.078 E.04589
G1 X124.372 Y125.285 E.04589
G1 X122.5 Y125.856 E.05523
G1 X104.52 Y125.856 E.50738
G1 E-1.6 F2700
;WIPE_START
G1 F7200
G1 X103.453 Y125.856 E-.38
;WIPE_END
G1 E-.02 F2700
G1 Z2.5 F9000
G1 X104.339 Y103.539
G1 Z.5
G1 E2 F2400
;TYPE:Perimeter
;WIDTH:0.45
G1 X121.461 Y103.539 E.52159
G1 X121.461 Y121.461 E.54596
G1 X103.539 Y121.461 E.54596
G1 X103.539 Y103.539 E.54596
G1 X104.279 Y103.539 E.02254
G1 X103.532 Y103.132 F9000
G1 F2400
G1 X121.868 Y103.132 E.55858
G1 X121.868 Y121.868 E.57077
G1 X103.132 Y121.868 E.57077
G1 X103.132 Y103.132 E.57077
G1 X103.472 Y103.132 E.01036
G1 X102.725 Y102.81 F9000
;TYPE:External perimeter
G1 F1500
G1 X102.725 Y102.725 E.00259
G1 X122.275 Y102.725 E.59557
G1 X122.275 Y122.275 E.59557
G1 X102.725 Y122.275 E.59557
G1 X102.725 Y102.87 E.59115
G1 X102.785 Y102.75 F9000
G1 E-1.6 F2700
;WIPE_START
G1 F7200
G1 X102.725 Y102.725 E-.05166
G1 X103.647 Y102.725 E-.32834
;WIPE_END
G1 E-.02 F2700
G1 Z2.5 F9000
G1 X121.339 Y120.508
G1 Z.5
G1 E2 F2400
;TYPE:Solid infill
;WIDTH:0.453694
G1 X120.691 Y121.156 E.02815
G1 X120.11 Y121.156 E.01786
G1 X121.156 Y120.11 E.04544
G1 X121.156 Y119.529 E.01786
G1 X119.529 Y121.156 E.0707
G1 X118.948 Y121.156 E.01786
G1 X121.156 Y118.948 E.09595
G1 X121.156 Y118.367 E.01786
G1 X118.367 Y121.156 E.12121
G1 X117.787 Y121.156 E.01786
G1 X121.156 Y117.787 E.14646
G1 X121.156 Y117.206 E.01786
G1 X117.206 Y121.156 E.17172
G1 X116.625 Y121.156 E.01786
G1 X121.156 Y116.625 E.19697
G1 X121.156 Y116.044 E.01786
G1 X116.044 Y121.156 E.22223
G1 X115.463 Y121.156 E.01786
G1 X121.156 Y115.463 E.24748
G1 X121.156 Y114.882 E.01786
G1 X114.882 Y121.156 E.27274
G1 X114.301 Y121.156 E.01786
G1 X121.156 Y114.301 E.29799
G1 X121.156 Y113.72 E.01786
G1 X113.72 Y121.156 E.32324
G1 X113.139 Y121.156 E.01786
G1 X121.156 Y113.139 E.3485
G1 X121.156 Y112.558 E.01786
G1 X112.558 Y121.156 E.37375
G1 X111.977 Y121.156 E.01786
G1 X121.156 Y111.977 E.39901
G1 X121.156 Y111.396 E.01786
G1 X111.396 Y121.156 E.42426
G1 X110.815 Y121.156 E.01786
G1 X121.156 Y110.815 E.44952
G1 X121.156 Y110.235 E.01786
G1 X110.235 Y121.156 E.47477
G1 X109.654 Y121.156 E.01786
G1 X121.156 Y109.654 E.50003
G1 X121.156 Y109.073 E.01786
G1 X109.073 Y121.156 E.52528
G1 X108.492 Y121.156 E.01786
G1 X121.156 Y108.492 E.55054
G1 X121.156 Y107.911 E.01786
G1 X107.911 Y121.156 E.57579
G1 X107.33 Y121.156 E.01786
G1 X121.156 Y107.33 E.60105
G1 X121.156 Y106.749 E.01786
G1 X106.749 Y121.156 E.6263
G1 X106.168 Y121.156 E.01786
G1 X121.156 Y106.168 E.65156
G1 X121.156 Y105.587 E.01786
G1 X105.587 Y121.156 E.67681
G1 X105.006 Y121.156 E.01786
G1 X121.156 Y105.006 E.70207
G1 X121.156 Y104.425 E.01786
G1 X104.425 Y121.156 E.72732
G1 X103.844 Y121.156 E.01786
G1 X121.155 Y103.844 E.75257
G1 X120.575 Y103.844 E.01786
G1 X103.844 Y120.575 E.72732
G1 X103.844 Y119.994 E.01786
G1 X119.994 Y103.844 E.70206
G1 X119.413 Y103.844 E.01786
G1 X103.844 Y119.413 E.67681
G1 X103.844 Y118.832 E.01786
G1 X118.832 Y103.844 E.65155
G1 X118.251 Y103.844 E.01786
G1 X103.844 Y118.251 E.6263
G1 X103.844 Y117.67 E.01786
G1 X117.67 Y103.844 E.60104
G1 X117.089 Y103.844 E.01786
G1 X103.844 Y117.089 E.57579
G1 X103.844 Y116.508 E.01786
G1 X116.508 Y103.844 E.55053
G1 X115.927 Y103.844 E.01786
G1 X103.844 Y115.927 E.52528
G1 X103.844 Y115.346 E.01786
G1 X115.346 Y103.844 E.50002
G1 X114.765 Y103.844 E.01786
G1 X103.844 Y114.765 E.47477
G1 X103.844 Y114.184 E.01786
G1 X114.184 Y103.844 E.44951
G1 X113.604 Y103.844 E.01786
G1 X103.844 Y113.603 E.42426
G1 X103.844 Y113.023 E.01786
G1 X113.023 Y103.844 E.399
G1 X112.442 Y103.844 E.01786
G1 X103.844 Y112.442 E.37375
G1 X103.844 Y111.861 E.01786
G1 X111.861 Y103.844 E.3485
G1 X111.28 Y103.844 E.01786
G1 X103.844 Y111.28 E.32324
G1 X103.844 Y110.699 E.01786
G1 X110.699 Y103.844 E.29799
G1 X110.118 Y103.844 E.01786
G1 X103.844 Y110.118 E.27273
G1 X103.844 Y109.537 E.01786
G1 X109.537 Y103.844 E.24748
G1 X108.956 Y103.844 E.01786
G1 X103.844 Y108.956 E.22222
G1 X103.844 Y108.375 E.01786
G1 X108.375 Y103.844 E.19697
G1 X107.794 Y103.844 E.01786
G1 X103.844 Y107.794 E.17171
G1 X103.844 Y107.213 E.01786
G1 X107.213 Y103.844 E.14646
G1 X106.632 Y103.844 E.01786
G1 X103.844 Y106.632 E.1212
G1 X103.844 Y106.052 E.01786
G1 X106.052 Y103.844 E.09595
G1 X105.471 Y103.844 E.01786
G1 X103.844 Y105.471 E.07069
G1 X103.844 Y104.89 E.01786
G1 X104.89 Y103.844 E.04544
G1 X104.309 Y103.844 E.01786
G1 X103.661 Y104.492 E.02815
;LAYER_CHANGE
;Z:0.7
;HEIGHT:0.2

G1 E-1.6 F2700
;WIPE_START
G1 F7200
G1 X104.309 Y103.844 E-.3262
G1 X104.46 Y103.844 E-.0538
;WIPE_END
G1 E-.02 F2700
G1 Z2.5 F9000
G1 X104.339 Y103.539
G1 Z.7
G1 E2 F2400
;TYPE:Perimeter
;WIDTH:0.45
G1 X121.461 Y103.539 E.52159
G1 X121.461 Y121.461 E.54596
G1 X103.539 Y121.461 E.54596
G1 X103.539 Y103.539 E.54596
G1 X104.279 Y103.539 E.02254
G1 X103.532 Y103.132 F9000
G1 F2400
G1 X121.868 Y103.132 E.55858
G1 X121.868 Y121.868 E.57077
G1 X103.132 Y121.868 E.57077
G1 X103.132 Y103.132 E.57077
G1 X103.472 Y103.132 E.01036
G1 X102.725 Y102.81 F9000
;TYPE:External perimeter
G1 F1500
G1 X102.725 Y102.725 E.00259
G1 X122.275 Y102.725 E.59557
G1 X122.275 Y122.275 E.59557
G1 X102.725 Y122.275 E.59557
G1 X102.725 Y102.87 E.59115
G1 X102.785 Y102.75 F9000
G1 E-1.6 F2700
;WIPE_START
G1 F7200
G1 X102.725 Y102.725 E-.05166
G1 X103.647 Y102.725 E-.32834
;WIPE_END
G1 E-.02 F2700
G1 Z2.7 F9000
G1 X120.508 Y103.661
G1 Z.7
G1 E2 F2400
;TYPE:Solid infill
;WIDTH:0.453694
G1 X121.156 Y104.309 E.02815
G1 X121.156 Y104.89 E.01786
G1 X120.11 Y103.844 E.04544
G1 X119.529 Y103.844 E.01786
G1 X121.156 Y105.471 E.0707
G1 X121.156 Y106.052 E.01786
G1 X118.948 Y103.844 E.09595
G1 X118.367 Y103.844 E.01786
G1 X121.156 Y106.633 E.12121
G1 X121.156 Y107.213 E.01786
G1 X117.787 Y103.844 E.14646
G1 X117.206 Y103.844 E.01786
G1 X121.156 Y107.794 E.17172
G1 X121.156 Y108.375 E.01786
G1 X116.625 Y103.844 E.19697
G1 X116.044 Y103.844 E.01786
G1 X121.156 Y108.956 E.22223
G1 X121.156 Y109.537 E.01786
G1 X115.463 Y103.844 E.24748
G1 X114.882 Y103.844 E.01786
G1 X121.156 Y110.118 E.27274
G1 X121.156 Y110.699 E.01786
G1 X114.301 Y103.844 E.29799
G1 X113.72 Y103.844 E.01786
G1 X121.156 Y111.28 E.32324
G1 X121.156 Y111.861 E.01786
G1 X113.139 Y103.844 E.3485
G1 X112.558 Y103.844 E.01786
G1 X121.156 Y112.442 E.37375
G1 X121.156 Y113.023 E.01786
G1 X111.977 Y103.844 E.39901
G1 X111.396 Y103.844 E.01786
G1 X121.156 Y113.604 E.42426
G1 X121.156 Y114.185 E.01786
G1 X110.815 Y103.844 E.44952
G1 X110.235 Y103.844 E.01786
G1 X121.156 Y114.765 E.47477
G1 X121.156 Y115.346 E.01786
G1 X109.654 Y103.844 E.50003
G1 X109.073 Y103.844 E.01786
G1 X121.156 Y115.927 E.52528
G1 X121.156 Y116.508 E.01786
G1 X108.492 Y103.844 E.55054
G1 X107.911 Y103.844 E.01786
G1 X121.156 Y117.089 E.57579
G1 X121.156 Y117.67 E.01786
G1 X107.33 Y103.844 E.60105
G1 X106.749 Y103.844 E.01786
G1 X121.156 Y118.251 E.6263
G1 X121.156 Y118.832 E.01786
G1 X106.168 Y103.844 E.65156
G1 X105.587 Y103.844 E.01786
G1 X121.156 Y119.413 E.67681
G1 X121.156 Y119.994 E.01786
G1 X105.006 Y103.844 E.70207
G1 X104.425 Y103.844 E.01786
G1 X121.156 Y120.575 E.72732
G1 X121.156 Y121.156 E.01786
G1 X103.844 Y103.845 E.75257
G1 X103.844 Y104.425 E.01786
G1 X120.575 Y121.156 E.72732
G1 X119.994 Y121.156 E.01786
G1 X103.844 Y105.006 E.70206
G1 X103.844 Y105.587 E.01786
G1 X119.413 Y121.156 E.67681
G1 X118.832 Y121.156 E.01786
G1 X103.844 Y106.168 E.65155
G1 X103.844 Y106.749 E.01786
G1 X118.251 Y121.156 E.6263
G1 X117.67 Y121.156 E.01786
G1 X103.844 Y107.33 E.60104
G1 X103.844 Y107.911 E.01786
G1 X117.089 Y121.156 E.57579
G1 X116.508 Y121.156 E.01786
G1 X103.844 Y108.492 E.55053
G1 X103.844 Y109.073 E.01786
G1 X115.927 Y121.156 E.52528
G1 X115.346 Y121.156 E.01786
G1 X103.844 Y109.654 E.50002
G1 X103.844 Y110.235 E.01786
G1 X114.765 Y121.156 E.47477
G1 X114.184 Y121.156 E.01786
G1 X103.844 Y110.816 E.44951
G1 X103.844 Y111.397 E.01786
G1 X113.603 Y121.156 E.42426
G1 X113.023 Y121.156 E.01786
G1 X103.844 Y111.977 E.399
G1 X103.844 Y112.558 E.01786
G1 X112.442 Y121.156 E.37375
G1 X111.861 Y121.156 E.01786
G1 X103.844 Y113.139 E.3485
G1 X103.844 Y113.72 E.01786
G1 X111.28 Y121.156 E.32324
G1 X110.699 Y121.156 E.01786
G1 X103.844 Y114.301 E.29799
G1 X103.844 Y114.882 E.01786
G1 X110.118 Y121.156 E.27273
G1 X109.537 Y121.156 E.01786
G1 X103.844 Y115.463 E.24748
G1 X103.844 Y116.044 E.01786
G1 X108.956 Y121.156 E.22222
G1 X108.375 Y121.156 E.01786
G1 X103.844 Y116.625 E.19697
G1 X103.844 Y117.206 E.01786
G1 X107.794 Y121.156 E.17171
G1 X107.213 Y121.156 E.01786
G1 X103.844 Y117.787 E.14646
G1 X103.844 Y118.368 E.01786
G1 X106.632 Y121.156 E.1212
G1 X106.052 Y121.156 E.01786
G1 X103.844 Y118.948 E.09595
G1 X103.844 Y119.529 E.01786
G1 X105.471 Y121.156 E.07069
G1 X104.89 Y121.156 E.01786
G1 X103.844 Y120.11 E.04544
G1 X103.844 Y120.691 E.01786
G1 X104.492 Y121.339 E.02815
M106 S255
;LAYER_CHANGE
;Z:0.9
;HEIGHT:0.2

G1 E-1.6 F2700
;WIPE_START
G1 F7200
G1 X103.844 Y120.691 E-.3262
G1 X103.844 Y120.54 E-.0538
;WIPE_END
G1 E-.02 F2700
G1 Z2.7 F9000
G1 X104.339 Y103.539
G1 Z.9
G1 E2 F2400
;TYPE:Perimeter
;WIDTH:0.45
G1 X121.461 Y103.539 E.52159
G1 X121.461 Y121.461 E.54596
G1 X103.539 Y121.461 E.54596
G1 X103.539 Y103.539 E.54596
G1 X104.279 Y103.539 E.02254
G1 X103.532 Y103.132 F9000
G1 F2400
G1 X121.868 Y103.132 E.55858
G1 X121.868 Y121.868 E.57077
G1 X103.132 Y121.868 E.57077
