; generated by PrusaSlicer 2.4.0+win64 on 2022-06-07 at 11:35:49 UTC

; 

; external perimeters extrusion width = 0.45mm
; perimeters extrusion width = 0.45mm
; infill extrusion width = 0.45mm
; solid infill extrusion width = 0.45mm
; top infill extrusion width = 0.40mm
; first layer extrusion width = 0.42mm

M107
M190 S50 ; set bed temperature and wait for it to be reached
M104 S200 ; set temperature
;TYPE:Custom
M109 S200 ; set temperature and wait for it to be reached
G21 ; set units to millimeters
G90 ; use absolute coordinates
M83 ; use relative distances for extrusion
; Filament gcode
M107
;LAYER_CHANGE
;Z:0.3
;HEIGHT:0.3

G1 E-2 F2700
G1 Z2 F9000
G1 X-10.711 Y0
G1 Z.3
G1 E2 F2400
M204 P1000
;TYPE:Skirt/Brim
;WIDTH:0.42
G1 F1200
G1 X-10.711 Y-7 E.27944
G1 X-10.317 Y-8.665 E.06832
G1 X-9.217 Y-9.976 E.06832
G1 X-7 Y-10.711 E.09322
G1 X8 Y-10.711 E.59879
G1 X9.665 Y-10.317 E.06832
G1 X10.976 Y-9.217 E.06832
G1 X11.711 Y-7 E.09322
G1 X11.711 Y8 E.59879
G1 X11.317 Y9.665 E.06832
G1 X10.217 Y10.976 E.06832
G1 X8 Y11.711 E.09322
G1 X-7 Y11.711 E.59879
G1 X-8.665 Y11.317 E.06832
G1 X-9.976 Y10.217 E.06832
G1 X-10.711 Y8 E.09322
G1 X-10.711 Y.06 E.31696
G1 X-10.356 Y.06 F9000
G1 F1200
G1 X-10.356 Y-7 E.28183
G1 X-9.962 Y-8.578 E.06492
G1 X-8.872 Y-9.785 E.06492
G1 X-7 Y-10.356 E.07812
G1 X8 Y-10.356 E.59879
G1 X9.578 Y-9.962 E.06492
G1 X10.785 Y-8.872 E.06492
G1 X11.356 Y-7 E.07812
G1 X11.356 Y8 E.59879
G1 X10.962 Y9.578 E.06492
G1 X9.872 Y10.785 E.06492
G1 X8 Y11.356 E.07812
G1 X-7 Y11.356 E.59879
G1 X-8.578 Y10.962 E.06492
G1 X-9.785 Y9.872 E.06492
G1 X-10.356 Y8 E.07812
G1 X-10.356 Y.12 E.31456
G1 E-1.6 F2700
;WIPE_START
G1 F7200
G1 X-10.356 Y-.947 E-.38
;WIPE_END
G1 E-.02 F2700
G1 Z2.3 F9000
G1 X-6.69 Y-6.69
G1 Z.3
G1 E2 F2400
;TYPE:External perimeter
G1 F1200
G1 X7.69 Y-6.69 E.57404
G1 X7.69 Y7.69 E.57404
G1 X-6.69 Y7.69 E.57404
G1 X-6.69 Y-6.63 E.57164
G1 X-6.304 Y-6.586 F9000
G1 E-1.6 F2700
;WIPE_START
G1 F7200
G1 X-5.623 Y-6.634 E-.38
;WIPE_END
G1 E-.02 F2700
G1 Z2.3 F9000
G1 X7.334 Y7.334
G1 Z.3
G1 E2 F2400
;TYPE:Perimeter
G1 F1200
G1 X-6.334 Y7.334 E.54565
G1 X-6.334 Y-6.334 E.54565
G1 X7.334 Y-6.334 E.54565
G1 X7.334 Y7.274 E.54325
G1 X6.979 Y6.979 F9000
G1 F1200
G1 X-5.979 Y6.979 E.51726
G1 X-5.979 Y-5.979 E.51726
G1 X6.979 Y-5.979 E.51726
G1 X6.979 Y6.919 E.51486
G1 E-1.6 F2700
;WIPE_START
G1 F7200
G1 X5.912 Y6.924 E-.38
;WIPE_END
G1 E-.02 F2700
G1 Z2.3 F9000
G1 X6.141 Y-5.872
G1 Z.3
G1 E2 F2400
;TYPE:Solid infill
;WIDTH:0.425846
G1 F1200
G1 X6.712 Y-5.301 E.03278
G1 X6.712 Y-4.79 E.02074
G1 X5.79 Y-5.712 E.05293
G1 X5.278 Y-5.712 E.02074
G1 X6.712 Y-4.278 E.08226
G1 X6.712 Y-3.767 E.02074
G1 X4.767 Y-5.712 E.1116
G1 X4.256 Y-5.712 E.02074
G1 X6.712 Y-3.256 E.14093
G1 X6.712 Y-2.745 E.02074
G1 X3.745 Y-5.712 E.17026
G1 X3.234 Y-5.712 E.02074
G1 X6.712 Y-2.234 E.1996
G1 X6.712 Y-1.723 E.02074
G1 X2.723 Y-5.712 E.22893
G1 X2.211 Y-5.712 E.02074
G1 X6.712 Y-1.211 E.25826
G1 X6.712 Y-.7 E.02074
G1 X1.7 Y-5.712 E.2876
G1 X1.189 Y-5.712 E.02074
G1 X6.712 Y-.189 E.31693
G1 X6.712 Y.322 E.02074
G1 X.678 Y-5.712 E.34626
G1 X.167 Y-5.712 E.02074
G1 X6.712 Y.833 E.3756
G1 X6.712 Y1.345 E.02074
G1 X-.345 Y-5.712 E.40493
G1 X-.856 Y-5.712 E.02074
G1 X6.712 Y1.856 E.43426
G1 X6.712 Y2.367 E.02074
G1 X-1.367 Y-5.712 E.4636
G1 X-1.878 Y-5.712 E.02074
G1 X6.712 Y2.878 E.49293
G1 X6.712 Y3.389 E.02074
G1 X-2.389 Y-5.712 E.52226
G1 X-2.901 Y-5.712 E.02074
G1 X6.712 Y3.901 E.5516
G1 X6.712 Y4.412 E.02074
G1 X-3.412 Y-5.712 E.58093
G1 X-3.923 Y-5.712 E.02074
G1 X6.712 Y4.923 E.61026
G1 X6.712 Y5.434 E.02074
G1 X-4.434 Y-5.712 E.6396
G1 X-4.945 Y-5.712 E.02074
G1 X6.712 Y5.945 E.66893
G1 X6.712 Y6.457 E.02074
G1 X-5.457 Y-5.712 E.69826
G1 X-5.712 Y-5.712 E.01037
G1 X-5.712 Y-5.456 E.01037
G1 X6.456 Y6.712 E.69826
G1 X5.945 Y6.712 E.02074
G1 X-5.712 Y-4.945 E.66892
G1 X-5.712 Y-4.434 E.02074
G1 X5.434 Y6.712 E.63959
G1 X4.923 Y6.712 E.02074
G1 X-5.712 Y-3.923 E.61026
G1 X-5.712 Y-3.412 E.02074
G1 X4.412 Y6.712 E.58092
G1 X3.9 Y6.712 E.02074
G1 X-5.712 Y-2.9 E.55159
G1 X-5.712 Y-2.389 E.02074
G1 X3.389 Y6.712 E.52226
G1 X2.878 Y6.712 E.02074
G1 X-5.712 Y-1.878 E.49292
G1 X-5.712 Y-1.367 E.02074
G1 X2.367 Y6.712 E.46359
G1 X1.856 Y6.712 E.02074
G1 X-5.712 Y-.856 E.43426
G1 X-5.712 Y-.345 E.02074
G1 X1.345 Y6.712 E.40492
G1 X.833 Y6.712 E.02074
G1 X-5.712 Y.167 E.37559
G1 X-5.712 Y.678 E.02074
G1 X.322 Y6.712 E.34626
G1 X-.189 Y6.712 E.02074
G1 X-5.712 Y1.189 E.31692
G1 X-5.712 Y1.7 E.02074
G1 X-.7 Y6.712 E.28759
G1 X-1.211 Y6.712 E.02074
G1 X-5.712 Y2.211 E.25826
G1 X-5.712 Y2.723 E.02074
G1 X-1.723 Y6.712 E.22892
G1 X-2.234 Y6.712 E.02074
G1 X-5.712 Y3.234 E.19959
G1 X-5.712 Y3.745 E.02074
G1 X-2.745 Y6.712 E.17026
G1 X-3.256 Y6.712 E.02074
G1 X-5.712 Y4.256 E.14092
G1 X-5.712 Y4.767 E.02074
G1 X-3.767 Y6.712 E.11159
G1 X-4.279 Y6.712 E.02074
G1 X-5.712 Y5.279 E.08226
G1 X-5.712 Y5.79 E.02074
G1 X-4.79 Y6.712 E.05293
G1 X-5.301 Y6.712 E.02074
G1 X-5.872 Y6.141 E.03277
;LAYER_CHANGE
;Z:0.5
;HEIGHT:0.2

G1 E-1.6 F2700
;WIPE_START
G1 F7200
G1 X-5.301 Y6.712 E-.28776
G1 X-5.042 Y6.712 E-.09224
;WIPE_END
G1 E-.02 F2700
G1 Z2.3 F9000
M104 S205 ; set temperature
M140 S60 ; set bed temperature
G1 X-5.042 Y11.711
G1 Z.5
G1 E2 F2400
;TYPE:Skirt/Brim
;WIDTH:0.42
G1 F1500
G1 X-7 Y11.711 E.05525
G1 X-8.665 Y11.317 E.04829
G1 X-9.976 Y10.217 E.04829
G1 X-10.711 Y8 E.0659
G1 X-10.711 Y-7 E.42328
G1 X-10.317 Y-8.665 E.04829
G1 X-9.217 Y-9.976 E.04829
G1 X-7 Y-10.711 E.0659
G1 X8 Y-10.711 E.42328
G1 X9.665 Y-10.317 E.04829
G1 X10.976 Y-9.217 E.04829
G1 X11.711 Y-7 E.0659
G1 X11.711 Y8 E.42328
G1 X11.317 Y9.665 E.04829
G1 X10.217 Y10.976 E.04829
G1 X8 Y11.711 E.0659
G1 X-4.982 Y11.711 E.36634
G1 X-4.982 Y11.356 F9000
G1 F1500
G1 X-7 Y11.356 E.05695
G1 X-8.578 Y10.962 E.04589
G1 X-9.785 Y9.872 E.04589
G1 X-10.356 Y8 E.05523
G1 X-10.356 Y-7 E.42328
G1 X-9.962 Y-8.578 E.04589
G1 X-8.872 Y-9.785 E.04589
G1 X-7 Y-10.356 E.05523
G1 X8 Y-10.356 E.42328
G1 X9.578 Y-9.962 E.04589
G1 X10.785 Y-8.872 E.04589
G1 X11.356 Y-7 E.05523
G1 X11.356 Y8 E.42328
G1 X10.962 Y9.578 E.04589
G1 X9.872 Y10.785 E.04589
G1 X8 Y11.356 E.05523
G1 X-4.922 Y11.356 E.36464
G1 E-1.6 F2700
;WIPE_START
G1 F7200
G1 X-5.989 Y11.356 E-.38
;WIPE_END
G1 E-.02 F2700
G1 Z2.5 F9000
G1 X-5.161 Y-5.961
G1 Z.5
G1 E2 F2400
;TYPE:Perimeter
;WIDTH:0.45
G1 X6.961 Y-5.961 E.36927
G1 X6.961 Y6.961 E.39365
G1 X-5.961 Y6.961 E.39365
G1 X-5.961 Y-5.961 E.39365
G1 X-5.221 Y-5.961 E.02254
G1 X-5.968 Y-6.368 F9000
G1 F2400
G1 X7.368 Y-6.368 E.40626
G1 X7.368 Y7.368 E.41845
G1 X-6.368 Y7.368 E.41845
G1 X-6.368 Y-6.368 E.41845
G1 X-6.028 Y-6.368 E.01036
G1 X-6.775 Y-6.69 F9000
;TYPE:External perimeter
G1 F1500
G1 X-6.775 Y-6.775 E.00259
G1 X7.775 Y-6.775 E.44325
G1 X7.775 Y7.775 E.44325
G1 X-6.775 Y7.775 E.44325
G1 X-6.775 Y-6.63 E.43883
G1 X-6.715 Y-6.75 F9000
G1 E-1.6 F2700
;WIPE_START
G1 F7200
G1 X-6.775 Y-6.775 E-.05166
G1 X-5.853 Y-6.775 E-.32834
;WIPE_END
G1 E-.02 F2700
G1 Z2.5 F9000
G1 X6.012 Y6.839
G1 Z.5
G1 E2 F2400
;TYPE:Solid infill
;WIDTH:0.451696
G1 X6.656 Y6.195 E.02783
G1 X6.656 Y5.617 E.01768
G1 X5.617 Y6.656 E.04492
G1 X5.039 Y6.656 E.01768
G1 X6.656 Y5.039 E.06993
G1 X6.656 Y4.461 E.01768
G1 X4.461 Y6.656 E.09494
G1 X3.883 Y6.656 E.01768
G1 X6.656 Y3.883 E.11994
G1 X6.656 Y3.305 E.01768
G1 X3.305 Y6.656 E.14495
G1 X2.727 Y6.656 E.01768
G1 X6.656 Y2.727 E.16996
G1 X6.656 Y2.149 E.01768
G1 X2.149 Y6.656 E.19497
G1 X1.571 Y6.656 E.01768
G1 X6.656 Y1.571 E.21998
G1 X6.656 Y.993 E.01768
G1 X.993 Y6.656 E.24499
G1 X.414 Y6.656 E.01768
G1 X6.656 Y.414 E.27
G1 X6.656 Y-.164 E.01768
G1 X-.164 Y6.656 E.29501
G1 X-.742 Y6.656 E.01768
G1 X6.656 Y-.742 E.32002
G1 X6.656 Y-1.32 E.01768
G1 X-1.32 Y6.656 E.34503
G1 X-1.898 Y6.656 E.01768
G1 X6.656 Y-1.898 E.37004
G1 X6.656 Y-2.476 E.01768
G1 X-2.476 Y6.656 E.39505
G1 X-3.054 Y6.656 E.01768
G1 X6.656 Y-3.054 E.42006
G1 X6.656 Y-3.632 E.01768
G1 X-3.632 Y6.656 E.44507
G1 X-4.21 Y6.656 E.01768
G1 X6.656 Y-4.21 E.47008
G1 X6.656 Y-4.788 E.01768
G1 X-4.788 Y6.656 E.49509
G1 X-5.367 Y6.656 E.01768
G1 X6.656 Y-5.367 E.5201
G1 X6.656 Y-5.656 E.00884
G1 X6.366 Y-5.656 E.00884
G1 X-5.656 Y6.366 E.5201
G1 X-5.656 Y5.788 E.01768
G1 X5.788 Y-5.656 E.49509
G1 X5.21 Y-5.656 E.01768
G1 X-5.656 Y5.21 E.47008
G1 X-5.656 Y4.632 E.01768
G1 X4.632 Y-5.656 E.44507
G1 X4.054 Y-5.656 E.01768
G1 X-5.656 Y4.054 E.42006
G1 X-5.656 Y3.476 E.01768
G1 X3.476 Y-5.656 E.39505
G1 X2.898 Y-5.656 E.01768
G1 X-5.656 Y2.898 E.37004
G1 X-5.656 Y2.32 E.01768
G1 X2.32 Y-5.656 E.34503
G1 X1.742 Y-5.656 E.01768
G1 X-5.656 Y1.742 E.32002
G1 X-5.656 Y1.164 E.01768
G1 X1.164 Y-5.656 E.29501
G1 X.585 Y-5.656 E.01768
G1 X-5.656 Y.585 E.27
G1 X-5.656 Y.007 E.01768
G1 X.007 Y-5.656 E.24499
G1 X-.571 Y-5.656 E.01768
G1 X-5.656 Y-.571 E.21998
G1 X-5.656 Y-1.149 E.01768
G1 X-1.149 Y-5.656 E.19497
G1 X-1.727 Y-5.656 E.01768
G1 X-5.656 Y-1.727 E.16996
G1 X-5.656 Y-2.305 E.01768
G1 X-2.305 Y-5.656 E.14495
G1 X-2.883 Y-5.656 E.01768
G1 X-5.656 Y-2.883 E.11994
G1 X-5.656 Y-3.461 E.01768
G1 X-3.461 Y-5.656 E.09493
G1 X-4.039 Y-5.656 E.01768
G1 X-5.656 Y-4.039 E.06992
G1 X-5.656 Y-4.617 E.01768
G1 X-4.617 Y-5.656 E.04491
G1 X-5.195 Y-5.656 E.01768
G1 X-5.839 Y-5.012 E.02783
;LAYER_CHANGE
;Z:0.7
;HEIGHT:0.2

G1 E-1.6 F2700
;WIPE_START
G1 F7200
G1 X-5.195 Y-5.656 E-.32407
G1 X-5.038 Y-5.656 E-.05593
;WIPE_END
G1 E-.02 F2700
G1 Z2.5 F9000
G1 X-5.161 Y-5.961
G1 Z.7
G1 E2 F2400
;TYPE:Perimeter
;WIDTH:0.45
G1 F1750
G1 X6.961 Y-5.961 E.36927
G1 X6.961 Y6.961 E.39365
G1 X-5.961 Y6.961 E.39365
G1 X-5.961 Y-5.961 E.39365
G1 X-5.221 Y-5.961 E.02254
G1 X-5.968 Y-6.368 F9000
G1 F1750
G1 X7.368 Y-6.368 E.40626
G1 X7.368 Y7.368 E.41845
G1 X-6.368 Y7.368 E.41845
G1 X-6.368 Y-6.368 E.41845
G1 X-6.028 Y-6.368 E.01036
G1 X-6.775 Y-6.69 F9000
;TYPE:External perimeter
G1 F1500
G1 X-6.775 Y-6.775 E.00259
G1 X7.775 Y-6.775 E.44325
G1 X7.775 Y7.775 E.44325
G1 X-6.775 Y7.775 E.44325
G1 X-6.775 Y-6.63 E.43883
G1 X-6.715 Y-6.75 F9000
G1 E-1.6 F2700
;WIPE_START
G1 F7200
G1 X-6.775 Y-6.775 E-.05166
G1 X-5.853 Y-6.775 E-.32834
;WIPE_END
G1 E-.02 F2700
G1 Z2.7 F9000
G1 X6.012 Y-5.839
G1 Z.7
G1 E2 F2400
;TYPE:Solid infill
;WIDTH:0.451696
G1 F1750
G1 X6.656 Y-5.195 E.02783
G1 X6.656 Y-4.617 E.01768
G1 X5.617 Y-5.656 E.04492
G1 X5.039 Y-5.656 E.01768
G1 X6.656 Y-4.039 E.06993
G1 X6.656 Y-3.461 E.01768
G1 X4.461 Y-5.656 E.09494
G1 X3.883 Y-5.656 E.01768
G1 X6.656 Y-2.883 E.11994
G1 X6.656 Y-2.305 E.01768
G1 X3.305 Y-5.656 E.14495
G1 X2.727 Y-5.656 E.01768
G1 X6.656 Y-1.727 E.16996
G1 X6.656 Y-1.149 E.01768
G1 X2.149 Y-5.656 E.19497
G1 X1.571 Y-5.656 E.01768
G1 X6.656 Y-.571 E.21998
G1 X6.656 Y.007 E.01768
G1 X.993 Y-5.656 E.24499
G1 X.414 Y-5.656 E.01768
G1 X6.656 Y.586 E.27
G1 X6.656 Y1.164 E.01768
G1 X-.164 Y-5.656 E.29501
G1 X-.742 Y-5.656 E.01768
G1 X6.656 Y1.742 E.32002
G1 X6.656 Y2.32 E.01768
G1 X-1.32 Y-5.656 E.34503
G1 X-1.898 Y-5.656 E.01768
G1 X6.656 Y2.898 E.37004
G1 X6.656 Y3.476 E.01768
G1 X-2.476 Y-5.656 E.39505
G1 X-3.054 Y-5.656 E.01768
G1 X6.656 Y4.054 E.42006
G1 X6.656 Y4.632 E.01768
G1 X-3.632 Y-5.656 E.44507
G1 X-4.21 Y-5.656 E.01768
G1 X6.656 Y5.21 E.47008
G1 X6.656 Y5.788 E.01768
G1 X-4.788 Y-5.656 E.49509
G1 X-5.367 Y-5.656 E.01768
G1 X6.656 Y6.367 E.5201
G1 X6.656 Y6.656 E.00884
G1 X6.366 Y6.656 E.00884
G1 X-5.656 Y-5.366 E.5201
G1 X-5.656 Y-4.788 E.01768
G1 X5.788 Y6.656 E.49509
G1 X5.21 Y6.656 E.01768
G1 X-5.656 Y-4.21 E.47008
G1 X-5.656 Y-3.632 E.01768
G1 X4.632 Y6.656 E.44507
G1 X4.054 Y6.656 E.01768
G1 X-5.656 Y-3.054 E.42006
G1 X-5.656 Y-2.476 E.01768
G1 X3.476 Y6.656 E.39505
G1 X2.898 Y6.656 E.01768
G1 X-5.656 Y-1.898 E.37004
G1 X-5.656 Y-1.32 E.01768
G1 X2.32 Y6.656 E.34503
G1 X1.742 Y6.656 E.01768
G1 X-5.656 Y-.742 E.32002
G1 X-5.656 Y-.164 E.01768
G1 X1.164 Y6.656 E.29501
G1 X.585 Y6.656 E.01768
G1 X-5.656 Y.415 E.27
G1 X-5.656 Y.993 E.01768
G1 X.007 Y6.656 E.24499
G1 X-.571 Y6.656 E.01768
G1 X-5.656 Y1.571 E.21998
G1 X-5.656 Y2.149 E.01768
G1 X-1.149 Y6.656 E.19497
G1 X-1.727 Y6.656 E.01768
G1 X-5.656 Y2.727 E.16996
G1 X-5.656 Y3.305 E.01768
G1 X-2.305 Y6.656 E.14495
G1 X-2.883 Y6.656 E.01768
G1 X-5.656 Y3.883 E.11994
G1 X-5.656 Y4.461 E.01768
G1 X-3.461 Y6.656 E.09493
G1 X-4.039 Y6.656 E.01768
G1 X-5.656 Y5.039 E.06992
G1 X-5.656 Y5.617 E.01768
G1 X-4.617 Y6.656 E.04491
G1 X-5.195 Y6.656 E.01768
G1 X-5.839 Y6.012 E.02783
M106 S255
;LAYER_CHANGE
;Z:0.9
;HEIGHT:0.2

G1 E-1.6 F2700
;WIPE_START
G1 F7200
G1 X-5.195 Y6.656 E-.32407
G1 X-5.038 Y6.656 E-.05593
;WIPE_END
G1 E-.02 F2700
G1 Z2.7 F9000
G1 X-5.161 Y-5.961
G1 Z.9
G1 E2 F2400
;TYPE:Perimeter
;WIDTH:0.45
G1 F1763
G1 X6.961 Y-5.961 E.36927
G1 X6.961 Y6.961 E.39365
G1 X-5.961 Y6.961 E.39365
G1 X-5.961 Y-5.961 E.39365
G1 X-5.221 Y-5.961 E.02254
G1 X-5.968 Y-6.368 F9000
G1 F1763
G1 X7.368 Y-6.368 E.40626
G1 X7.368 Y7.368 E.41845
G1 X-6.368 Y7.368 E.41845
G1 X-6.368 Y-6.368 E.41845
G1 X-6.028 Y-6.368 E.01036
G1 X-6.775 Y-6.69 F9000
;TYPE:External perimeter
G1 F1500
G1 X-6.775 Y-6.775 E.00259
G1 X7.775 Y-6.775 E.44325
G1 X7.775 Y7.775 E.44325
G1 X-6.775 Y7.775 E.44325
G1 X-6.775 Y-6.63 E.43883
G1 X-6.715 Y-6.75 F9000
G1 E-1.6 F2700
;WIPE_START
G1 F7200
G1 X-6.775 Y-6.775 E-.05166
G1 X-5.853 Y-6.775 E-.32834
;WIPE_END
G1 E-.02 F2700
G1 Z2.9 F9000
G1 X6.012 Y6.839
G1 Z.9
G1 E2 F2400
;TYPE:Solid infill
;WIDTH:0.451696
G1 F1763
G1 X6.656 Y6.195 E.02783
G1 X6.656 Y5.617 E.01768
G1 X5.617 Y6.656 E.04492
G1 X5.039 Y6.656 E.01768
G1 X6.656 Y5.039 E.06993
G1 X6.656 Y4.461 E.01768
G1 X4.461 Y6.656 E.09494
G1 X3.883 Y6.656 E.01768
G1 X6.656 Y3.883 E.11994
G1 X6.656 Y3.305 E.01768
G1 X3.305 Y6.656 E.14495
G1 X2.727 Y6.656 E.01768
G1 X6.656 Y2.727 E.16996
G1 X6.656 Y2.149 E.01768
G1 X2.149 Y6.656 E.19497
G1 X1.571 Y6.656 E.01768
G1 X6.656 Y1.571 E.21998
G1 X6.656 Y.993 E.01768
G1 X.993 Y6.656 E.24499
G1 X.414 Y6.656 E.01768
G1 X6.656 Y.414 E.27
G1 X6.656 Y-.164 E.01768
G1 X-.164 Y6.656 E.29501
G1 X-.742 Y6.656 E.01768
G1 X6.656 Y-.742 E.32002
G1 X6.656 Y-1.32 E.01768
G1 X-1.32 Y6.656 E.34503
G1 X-1.898 Y6.656 E.01768
G1 X6.656 Y-1.898 E.37004
G1 X6.656 Y-2.476 E.01768
G1 X-2.476 Y6.656 E.39505
G1 X-3.054 Y6.656 E.01768
G1 X6.656 Y-3.054 E.42006
G1 X6.656 Y-3.632 E.01768
G1 X-3.632 Y6.656 E.44507
G1 X-4.21 Y6.656 E.01768
G1 X6.656 Y-4.21 E.47008
G1 X6.656 Y-4.788 E.01768
G1 X-4.788 Y6.656 E.49509
G1 X-5.367 Y6.656 E.01768
G1 X6.656 Y-5.367 E.5201
G1 X6.656 Y-5.656 E.00884
G1 X6.366 Y-5.656 E.00884
G1 X-5.656 Y6.366 E.5201
G1 X-5.656 Y5.788 E.01768
G1 X5.788 Y-5.656 E.49509
G1 X5.21 Y-5.656 E.01768
G1 X-5.656 Y5.21 E.47008
G1 X-5.656 Y4.632 E.01768
G1 X4.632 Y-5.656 E.44507
G1 X4.054 Y-5.656 E.01768
G1 X-5.656 Y4.054 E.42006
G1 X-5.656 Y3.476 E.01768
G1 X3.476 Y-5.656 E.39505
G1 X2.898 Y-5.656 E.01768
G1 X-5.656 Y2.898 E.37004
G1 X-5.656 Y2.32 E.01768
G1 X2.32 Y-5.656 E.34503
G1 X1.742 Y-5.656 E.01768
G1 X-5.656 Y1.742 E.32002
G1 X-5.656 Y1.164 E.01768
G1 X1.164 Y-5.656 E.29501
G1 X.585 Y-5.656 E.01768
G1 X-5.656 Y.585 E.27
G1 X-5.656 Y.007 E.01768
G1 X.007 Y-5.656 E.24499
G1 X-.571 Y-5.656 E.01768
G1 X-5.656 Y-.571 E.21998
G1 X-5.656 Y-1.149 E.01768
G1 X-1.149 Y-5.656 E.19497
G1 X-1.727 Y-5.656 E.01768
G1 X-5.656 Y-1.727 E.16996
G1 X-5.656 Y-2.305 E.01768
G1 X-2.305 Y-5.656 E.14495
G1 X-2.883 Y-5.656 E.01768
G1 X-5.656 Y-2.883 E.11994
G1 X-5.656 Y-3.461 E.01768
G1 X-3.461 Y-5.656 E.09493
G1 X-4.039 Y-5.656 E.01768
G1 X-5.656 Y-4.039 E.06992
G1 X-5.656 Y-4.617 E.01768
G1 X-4.617 Y-5.656 E.04491
G1 X-5.195 Y-5.656 E.01768
G1 X-5.839 Y-5.012 E.02783
;LAYER_CHANGE
;Z:1.1
;HEIGHT:0.2

G1 E-1.6 F2700
;WIPE_START
G1 F7200
G1 X-5.195 Y-5.656 E-.32407
G1 X-5.038 Y-5.656 E-.05593
;WIPE_END
G1 E-.02 F2700
G1 Z2.9 F9000
G1 X-5.161 Y-5.961
G1 Z1.1
G1 E2 F2400
;TYPE:Perimeter
;WIDTH:0.45
G1 F1750
G1 X6.961 Y-5.961 E.36927
G1 X6.961 Y6.961 E.39365
G1 X-5.961 Y6.961 E.39365
G1 X-5.961 Y-5.961 E.39365
G1 X-5.221 Y-5.961 E.02254
G1 X-5.968 Y-6.368 F9000
G1 F1750
G1 X7.368 Y-6.368 E.40626
G1 X7.368 Y7.368 E.41845
G1 X-6.368 Y7.368 E.41845
G1 X-6.368 Y-6.368 E.41845
G1 X-6.028 Y-6.368 E.01036
G1 X-6.775 Y-6.69 F9000
;TYPE:External perimeter
G1 F1500
